P3
400 225
255
215 232 255
215 232 255
215 232 255
215 232 255
215 232 255
215 232 255
215 232 255
215 232 255
215 232 255
215 232 255
215 232 255
215 232 255
215 232 255
215 232 255
215 232 255
215 232 255
215 232 255
215 232 255
215 232 255
215 232 255
215 232 255
215 232 255
215 232 255
215 232 255
215 232 255
215 232 255
215 232 255
215 232 255
215 232 255
215 232 255
215 232 255
215 232 255
215 232 255
215 232 255
215 232 255
215 232 255
215 232 255
215 232 255
215 232 255
215 232 255
215 232 255
215 232 255
215 232 255
215 232 255
215 232 255
215 232 255
215 232 255
215 232 255
215 232 255
215 232 255
215 232 255
215 232 255
215 232 255
215 232 255
215 232 255
215 232 255
215 232 255
215 232 255
215 232 255
215 232 255
215 232 255
215 232 255
215 232 255
215 232 255
215 232 255
215 232 255
215 232 255
215 232 255
215 232 255
215 232 255
215 232 255
215 232 255
215 232 255
215 232 255
215 232 255
215 232 255
215 232 255
215 232 255
215 232 255
215 232 255
215 232 255
215 232 255
215 232 255
215 232 255
215 232 255
215 232 255
215 232 255
215 232 255
215 232 255
215 232 255
215 232 255
215 232 255
215 232 255
215 232 255
215 232 255
215 232 255
215 232 255
215 232 255
215 232 255
215 232 255
215 232 255
215 232 255
215 232 255
215 232 255
215 232 255
215 232 255
215 232 255
215 232 255
215 232 255
215 232 255
215 232 255
215 232 255
215 232 255
215 232 255
215 232 255
215 232 255
215 232 255
215 232 255
215 232 255
215 232 255
215 232 255
215 232 255
215 232 255
215 232 255
215 232 255
215 232 255
215 232 255
215 232 255
215 232 255
215 232 255
215 232 255
215 232 255
215 232 255
215 232 255
215 232 255
215 232 255
215 232 255
215 232 255
215 232 255
215 232 255
215 232 255
215 232 255
215 232 255
215 232 255
215 232 255
215 232 255
215 232 255
215 232 255
215 232 255
215 232 255
215 232 255
215 232 255
215 232 255
215 232 255
215 232 255
215 232 255
215 232 255
215 232 255
215 232 255
215 232 255
215 232 255
215 232 255
215 232 255
215 232 255
215 232 255
215 232 255
215 232 255
215 232 255
215 232 255
215 232 255
215 232 255
215 232 255
215 232 255
215 232 255
215 232 255
215 232 255
215 232 255
215 232 255
215 232 255
215 232 255
215 232 255
215 232 255
215 232 255
215 232 255
215 232 255
215 232 255
215 232 255
215 232 255
215 232 255
215 232 255
215 232 255
215 232 255
215 232 255
215 232 255
215 232 255
215 232 255
215 232 255
215 232 255
215 232 255
215 232 255
215 232 255
215 232 255
215 232 255
215 232 255
215 232 255
215 232 255
215 232 255
215 232 255
215 232 255
215 232 255
215 232 255
215 232 255
215 232 255
215 232 255
215 232 255
215 232 255
215 232 255
215 232 255
215 232 255
215 232 255
215 232 255
215 232 255
215 232 255
215 232 255
215 232 255
215 232 255
215 232 255
215 232 255
215 232 255
215 232 255
215 232 255
215 232 255
215 232 255
215 232 255
215 232 255
215 232 255
215 232 255
215 232 255
215 232 255
215 232 255
215 232 255
215 232 255
215 232 255
215 232 255
215 232 255
215 232 255
215 232 255
215 232 255
215 232 255
215 232 255
215 232 255
215 232 255
215 232 255
215 232 255
215 232 255
215 232 255
215 232 255
215 232 255
215 232 255
215 232 255
215 232 255
215 232 255
215 232 255
215 232 255
215 232 255
215 232 255
215 232 255
215 232 255
215 232 255
215 232 255
215 232 255
215 232 255
215 232 255
215 232 255
215 232 255
215 232 255
215 232 255
215 232 255
215 232 255
215 232 255
215 232 255
215 232 255
215 232 255
215 232 255
215 232 255
215 232 255
215 232 255
215 232 255
215 232 255
215 232 255
215 232 255
215 232 255
215 232 255
215 232 255
215 232 255
215 232 255
215 232 255
215 232 255
215 232 255
215 232 255
215 232 255
215 232 255
215 232 255
215 232 255
215 232 255
215 232 255
215 232 255
215 232 255
215 232 255
215 232 255
215 232 255
215 232 255
215 232 255
215 232 255
215 232 255
215 232 255
215 232 255
215 232 255
215 232 255
215 232 255
215 232 255
215 232 255
215 232 255
215 232 255
215 232 255
215 232 255
215 232 255
215 232 255
215 232 255
215 232 255
215 232 255
215 232 255
215 232 255
215 232 255
215 232 255
215 232 255
215 232 255
215 232 255
215 232 255
215 232 255
215 232 255
215 232 255
215 232 255
215 232 255
215 232 255
215 232 255
215 232 255
215 232 255
215 232 255
215 232 255
215 232 255
215 232 255
215 232 255
215 232 255
215 232 255
215 232 255
215 232 255
215 232 255
215 232 255
215 232 255
215 232 255
215 232 255
215 232 255
215 232 255
215 232 255
215 232 255
215 232 255
215 232 255
215 232 255
215 232 255
215 232 255
215 232 255
215 232 255
215 232 255
215 232 255
215 232 255
215 232 255
215 232 255
215 232 255
215 232 255
215 232 255
215 232 255
215 232 255
215 232 255
215 232 255
215 232 255
215 232 255
215 232 255
215 232 255
215 232 255
215 232 255
215 232 255
215 232 255
215 232 255
215 232 255
215 232 255
215 232 255
215 232 255
215 232 255
215 232 255
215 232 255
215 232 255
215 232 255
215 232 255
215 232 255
215 232 255
215 232 255
215 232 255
215 232 255
215 232 255
215 232 255
215 232 255
215 232 255
215 232 255
215 232 255
215 232 255
215 232 255
215 232 255
215 232 255
215 232 255
215 232 255
215 232 255
215 232 255
215 232 255
215 232 255
215 232 255
215 232 255
215 232 255
215 232 255
215 232 255
215 232 255
215 232 255
215 232 255
215 232 255
215 232 255
215 232 255
215 232 255
215 232 255
215 232 255
215 232 255
215 232 255
215 232 255
215 232 255
215 232 255
215 232 255
215 232 255
215 232 255
215 232 255
215 232 255
215 232 255
215 232 255
215 232 255
215 232 255
215 232 255
215 232 255
215 232 255
215 232 255
215 232 255
215 232 255
215 232 255
215 232 255
215 232 255
215 232 255
215 232 255
215 232 255
215 232 255
215 232 255
215 232 255
215 232 255
215 232 255
215 232 255
215 232 255
215 232 255
215 232 255
215 232 255
215 232 255
215 232 255
215 232 255
215 232 255
215 232 255
215 232 255
215 232 255
215 232 255
215 232 255
215 232 255
215 232 255
215 232 255
215 232 255
215 232 255
215 232 255
215 232 255
215 232 255
215 232 255
215 232 255
215 232 255
215 232 255
215 232 255
215 232 255
215 232 255
215 232 255
215 232 255
215 232 255
215 232 255
215 232 255
215 232 255
215 232 255
215 232 255
215 232 255
215 232 255
215 232 255
215 232 255
215 232 255
215 232 255
215 232 255
215 232 255
215 232 255
215 232 255
215 232 255
215 232 255
215 232 255
215 232 255
215 232 255
215 232 255
215 232 255
215 232 255
215 232 255
215 232 255
215 232 255
215 232 255
215 232 255
215 232 255
215 232 255
215 232 255
215 232 255
215 232 255
215 232 255
215 232 255
215 232 255
215 232 255
215 232 255
215 232 255
215 232 255
215 232 255
215 232 255
215 232 255
215 232 255
215 232 255
215 232 255
215 232 255
215 232 255
215 232 255
215 232 255
215 232 255
215 232 255
215 232 255
215 232 255
215 232 255
215 232 255
215 232 255
215 232 255
215 232 255
215 232 255
215 232 255
215 232 255
215 232 255
215 232 255
215 232 255
215 232 255
215 232 255
215 232 255
215 232 255
215 232 255
215 232 255
215 232 255
215 232 255
215 232 255
215 232 255
215 232 255
215 232 255
215 232 255
215 232 255
215 232 255
215 232 255
215 232 255
215 232 255
215 232 255
215 232 255
215 232 255
215 232 255
215 232 255
215 232 255
215 232 255
215 232 255
215 232 255
215 232 255
215 232 255
215 232 255
215 232 255
215 232 255
215 232 255
215 232 255
215 232 255
215 232 255
215 232 255
215 232 255
215 232 255
215 232 255
215 232 255
215 232 255
215 232 255
215 232 255
215 232 255
215 232 255
215 232 255
215 232 255
215 232 255
215 232 255
215 232 255
215 232 255
215 232 255
215 232 255
215 232 255
215 232 255
215 232 255
215 232 255
215 232 255
215 232 255
215 232 255
215 232 255
215 232 255
215 232 255
215 232 255
215 232 255
215 232 255
215 232 255
215 232 255
215 232 255
215 232 255
215 232 255
215 232 255
215 232 255
215 232 255
215 232 255
215 232 255
215 232 255
215 232 255
215 232 255
215 232 255
215 232 255
215 232 255
215 232 255
215 232 255
215 232 255
215 232 255
215 232 255
215 232 255
215 232 255
215 232 255
215 232 255
215 232 255
215 232 255
215 232 255
215 232 255
215 232 255
215 232 255
215 232 255
215 232 255
215 232 255
215 232 255
215 232 255
215 232 255
215 232 255
215 232 255
215 232 255
215 232 255
215 232 255
215 232 255
215 232 255
215 232 255
215 232 255
215 232 255
215 232 255
215 232 255
215 232 255
215 232 255
215 232 255
215 232 255
215 232 255
215 232 255
215 232 255
215 232 255
215 232 255
215 232 255
215 232 255
215 232 255
215 232 255
215 232 255
215 232 255
215 232 255
215 232 255
215 232 255
215 232 255
215 232 255
215 232 255
215 232 255
215 232 255
215 232 255
215 232 255
215 232 255
215 232 255
215 232 255
215 232 255
215 232 255
215 232 255
215 232 255
215 232 255
215 232 255
215 232 255
215 232 255
215 232 255
215 232 255
215 232 255
215 232 255
215 232 255
215 232 255
215 232 255
215 232 255
215 232 255
215 232 255
215 232 255
215 232 255
215 232 255
215 232 255
215 232 255
215 232 255
215 232 255
215 232 255
215 232 255
215 232 255
215 232 255
215 232 255
215 232 255
215 232 255
215 232 255
215 232 255
215 232 255
215 232 255
215 232 255
215 232 255
215 232 255
215 232 255
215 232 255
215 232 255
215 232 255
215 232 255
215 232 255
215 232 255
215 232 255
215 232 255
215 232 255
215 232 255
215 232 255
215 232 255
215 232 255
215 232 255
215 232 255
215 232 255
215 232 255
215 232 255
215 232 255
215 232 255
215 232 255
215 232 255
215 232 255
215 232 255
215 232 255
215 232 255
215 232 255
215 232 255
215 232 255
215 232 255
215 232 255
215 232 255
215 232 255
215 232 255
215 232 255
215 232 255
215 232 255
215 232 255
215 232 255
215 232 255
215 232 255
215 232 255
215 232 255
215 232 255
215 232 255
215 232 255
215 232 255
215 232 255
215 232 255
215 232 255
215 232 255
215 232 255
215 232 255
215 232 255
215 232 255
215 232 255
215 232 255
215 232 255
215 232 255
215 232 255
215 232 255
215 232 255
215 232 255
215 232 255
215 232 255
215 232 255
215 232 255
215 232 255
215 232 255
215 232 255
215 232 255
215 232 255
215 232 255
215 232 255
215 232 255
215 232 255
215 232 255
215 232 255
215 232 255
215 232 255
215 232 255
215 232 255
215 232 255
215 232 255
215 232 255
215 232 255
215 232 255
215 232 255
215 232 255
215 232 255
215 232 255
215 232 255
215 232 255
215 232 255
215 232 255
215 232 255
215 232 255
215 232 255
215 232 255
215 232 255
215 232 255
215 232 255
215 232 255
215 232 255
215 232 255
215 232 255
215 232 255
215 232 255
215 232 255
215 232 255
215 232 255
215 232 255
215 232 255
215 232 255
215 232 255
215 232 255
215 232 255
215 232 255
215 232 255
215 232 255
215 232 255
215 232 255
215 232 255
215 232 255
215 232 255
215 232 255
215 232 255
215 232 255
215 232 255
215 232 255
215 232 255
215 232 255
215 232 255
215 232 255
215 232 255
215 232 255
215 232 255
215 232 255
215 232 255
215 232 255
215 232 255
215 232 255
215 232 255
215 232 255
215 232 255
215 232 255
215 232 255
215 232 255
215 232 255
215 232 255
215 232 255
215 232 255
215 232 255
215 232 255
215 232 255
215 232 255
215 232 255
215 232 255
215 232 255
215 232 255
215 232 255
215 232 255
215 232 255
215 232 255
215 232 255
215 232 255
215 232 255
215 232 255
215 232 255
215 232 255
215 232 255
215 232 255
215 232 255
215 232 255
215 232 255
215 232 255
215 232 255
215 232 255
215 232 255
215 232 255
215 232 255
215 232 255
215 232 255
215 232 255
215 232 255
215 232 255
215 232 255
215 232 255
215 232 255
215 232 255
215 232 255
215 232 255
215 232 255
215 232 255
215 232 255
215 232 255
215 232 255
215 232 255
215 232 255
215 232 255
215 232 255
215 232 255
215 232 255
215 232 255
215 232 255
215 232 255
215 232 255
215 232 255
215 232 255
215 232 255
215 232 255
215 232 255
215 232 255
215 232 255
215 232 255
215 232 255
215 232 255
215 232 255
215 232 255
215 232 255
215 232 255
215 232 255
215 232 255
215 232 255
215 232 255
215 232 255
215 232 255
215 232 255
215 232 255
215 232 255
215 232 255
215 232 255
215 232 255
215 232 255
215 232 255
215 232 255
215 232 255
215 232 255
215 232 255
215 232 255
215 232 255
215 232 255
215 232 255
215 232 255
215 232 255
215 232 255
215 232 255
215 232 255
215 232 255
215 232 255
215 232 255
215 232 255
215 232 255
215 232 255
215 232 255
215 232 255
215 232 255
215 232 255
215 232 255
215 232 255
215 232 255
215 232 255
215 232 255
215 232 255
215 232 255
215 232 255
215 232 255
215 232 255
215 232 255
215 232 255
215 232 255
215 232 255
215 232 255
215 232 255
215 232 255
215 232 255
215 232 255
215 232 255
215 232 255
215 232 255
215 232 255
215 232 255
215 232 255
215 232 255
215 232 255
215 232 255
215 232 255
215 232 255
215 232 255
215 232 255
215 232 255
215 232 255
215 232 255
215 232 255
215 232 255
215 232 255
215 232 255
215 232 255
215 232 255
215 232 255
215 232 255
215 232 255
215 232 255
215 232 255
215 232 255
215 232 255
215 232 255
215 232 255
215 232 255
215 232 255
215 232 255
215 232 255
215 232 255
215 232 255
215 232 255
215 232 255
215 232 255
215 232 255
215 232 255
215 232 255
215 232 255
215 232 255
215 232 255
215 232 255
215 232 255
215 232 255
215 232 255
215 232 255
215 232 255
215 232 255
215 232 255
215 232 255
215 232 255
215 232 255
215 232 255
215 232 255
215 232 255
215 232 255
215 232 255
215 232 255
215 232 255
215 232 255
215 232 255
215 232 255
215 232 255
215 232 255
215 232 255
215 232 255
215 232 255
215 232 255
215 232 255
215 232 255
215 232 255
215 232 255
215 232 255
215 232 255
215 232 255
215 232 255
215 232 255
215 232 255
215 232 255
215 232 255
215 232 255
215 232 255
215 232 255
215 232 255
215 232 255
215 232 255
215 232 255
215 232 255
215 232 255
215 232 255
215 232 255
215 232 255
215 232 255
215 232 255
215 232 255
215 232 255
215 232 255
215 232 255
215 232 255
215 232 255
215 232 255
215 232 255
215 232 255
215 232 255
215 232 255
215 232 255
215 232 255
215 232 255
215 232 255
215 232 255
215 232 255
215 232 255
215 232 255
215 232 255
215 232 255
215 232 255
215 232 255
215 232 255
215 232 255
215 232 255
215 232 255
215 232 255
215 232 255
215 232 255
215 232 255
215 232 255
215 232 255
215 232 255
215 232 255
215 232 255
215 232 255
215 232 255
215 232 255
215 232 255
215 232 255
215 232 255
215 232 255
215 232 255
215 232 255
215 232 255
215 232 255
215 232 255
215 232 255
215 232 255
215 232 255
215 232 255
215 232 255
215 232 255
215 232 255
215 232 255
215 232 255
215 232 255
215 232 255
215 232 255
215 232 255
215 232 255
215 232 255
215 232 255
215 232 255
215 232 255
215 232 255
215 232 255
215 232 255
215 232 255
215 232 255
215 232 255
215 232 255
215 232 255
215 232 255
215 232 255
215 232 255
215 232 255
215 232 255
215 232 255
215 232 255
215 232 255
215 232 255
215 232 255
215 232 255
215 232 255
215 232 255
215 232 255
215 232 255
215 232 255
215 232 255
215 232 255
215 232 255
215 232 255
215 232 255
215 232 255
215 232 255
215 232 255
215 232 255
215 232 255
215 232 255
215 232 255
215 232 255
215 232 255
215 232 255
215 232 255
215 232 255
215 232 255
215 232 255
215 232 255
215 232 255
215 232 255
215 232 255
215 232 255
215 232 255
215 232 255
215 232 255
215 232 255
215 232 255
215 232 255
215 232 255
215 232 255
215 232 255
215 232 255
215 232 255
215 232 255
215 232 255
215 232 255
215 232 255
215 232 255
215 232 255
215 232 255
215 232 255
215 232 255
215 232 255
215 232 255
215 232 255
215 232 255
215 232 255
215 232 255
215 232 255
215 232 255
215 232 255
215 232 255
215 232 255
215 232 255
215 232 255
215 232 255
215 232 255
215 232 255
215 232 255
215 232 255
215 232 255
215 232 255
215 232 255
215 232 255
215 232 255
215 232 255
215 232 255
215 232 255
215 232 255
215 232 255
215 232 255
215 232 255
215 232 255
215 232 255
215 232 255
215 232 255
215 232 255
215 232 255
215 232 255
215 232 255
215 232 255
215 232 255
215 232 255
215 232 255
215 232 255
215 232 255
215 232 255
215 232 255
215 232 255
215 232 255
215 232 255
215 232 255
215 232 255
215 232 255
215 232 255
215 232 255
215 232 255
215 232 255
215 232 255
215 232 255
215 232 255
215 232 255
215 232 255
215 232 255
215 232 255
215 232 255
215 232 255
215 232 255
215 232 255
215 232 255
215 232 255
215 232 255
215 232 255
215 232 255
215 232 255
215 232 255
215 232 255
215 232 255
215 232 255
215 232 255
215 232 255
215 232 255
215 232 255
215 232 255
215 232 255
215 232 255
215 232 255
215 232 255
215 232 255
215 232 255
215 232 255
215 232 255
215 232 255
215 232 255
215 232 255
215 232 255
215 232 255
215 232 255
215 232 255
215 232 255
215 232 255
215 232 255
215 232 255
215 232 255
215 232 255
215 232 255
215 232 255
215 232 255
215 232 255
215 232 255
215 232 255
215 232 255
215 232 255
215 232 255
215 232 255
215 232 255
215 232 255
215 232 255
215 232 255
215 232 255
215 232 255
215 232 255
215 232 255
215 232 255
215 232 255
215 232 255
215 232 255
215 232 255
215 232 255
215 232 255
215 232 255
215 232 255
215 232 255
215 232 255
215 232 255
215 232 255
215 232 255
215 232 255
215 232 255
215 232 255
215 232 255
215 232 255
215 232 255
215 232 255
215 232 255
215 232 255
215 232 255
215 232 255
215 232 255
215 232 255
215 232 255
215 232 255
215 232 255
215 232 255
215 232 255
215 232 255
215 232 255
215 232 255
215 232 255
215 232 255
215 232 255
215 232 255
215 232 255
215 232 255
215 232 255
215 232 255
215 232 255
215 232 255
215 232 255
215 232 255
215 232 255
215 232 255
215 232 255
215 232 255
215 232 255
215 232 255
215 232 255
215 232 255
215 232 255
215 232 255
215 232 255
215 232 255
215 232 255
215 232 255
215 232 255
215 232 255
215 232 255
215 232 255
215 232 255
215 232 255
215 232 255
215 232 255
215 232 255
215 232 255
215 232 255
215 232 255
215 232 255
215 232 255
215 232 255
215 232 255
215 232 255
215 232 255
215 232 255
215 232 255
215 232 255
215 232 255
215 232 255
215 232 255
215 232 255
215 232 255
215 232 255
215 232 255
215 232 255
215 232 255
215 232 255
215 232 255
215 232 255
215 232 255
215 232 255
215 232 255
215 232 255
215 232 255
215 232 255
215 232 255
215 232 255
215 232 255
215 232 255
215 232 255
215 232 255
215 232 255
215 232 255
215 232 255
215 232 255
215 232 255
215 232 255
215 232 255
215 232 255
215 232 255
215 232 255
215 232 255
215 232 255
215 232 255
215 232 255
215 232 255
215 232 255
215 232 255
215 232 255
215 232 255
215 232 255
215 232 255
215 232 255
215 232 255
215 232 255
215 232 255
215 232 255
215 232 255
215 232 255
215 232 255
215 232 255
215 232 255
215 232 255
215 232 255
215 232 255
215 232 255
215 232 255
215 232 255
215 232 255
215 232 255
215 232 255
215 232 255
215 232 255
215 232 255
215 232 255
215 232 255
215 232 255
215 232 255
215 232 255
215 232 255
215 232 255
215 232 255
215 232 255
215 232 255
215 232 255
215 232 255
215 232 255
215 232 255
215 232 255
215 232 255
215 232 255
215 232 255
215 232 255
215 232 255
215 232 255
215 232 255
215 232 255
215 232 255
215 232 255
215 232 255
215 232 255
215 232 255
215 232 255
215 232 255
215 232 255
215 232 255
215 232 255
215 232 255
215 232 255
215 232 255
215 232 255
215 232 255
215 232 255
215 232 255
215 232 255
215 232 255
215 232 255
215 232 255
215 232 255
215 232 255
215 232 255
215 232 255
215 232 255
215 232 255
215 232 255
215 232 255
215 232 255
215 232 255
215 232 255
215 232 255
215 232 255
215 232 255
215 232 255
215 232 255
215 232 255
215 232 255
215 232 255
215 232 255
215 232 255
215 232 255
215 232 255
215 232 255
215 232 255
215 232 255
215 232 255
215 232 255
215 232 255
215 232 255
215 232 255
215 232 255
215 232 255
215 232 255
215 232 255
215 232 255
215 232 255
215 232 255
215 232 255
215 232 255
215 232 255
215 232 255
215 232 255
215 232 255
215 232 255
215 232 255
215 232 255
215 232 255
215 232 255
215 232 255
215 232 255
215 232 255
215 232 255
215 232 255
215 232 255
215 232 255
215 232 255
215 232 255
215 232 255
215 232 255
215 232 255
215 232 255
215 232 255
215 232 255
215 232 255
215 232 255
215 232 255
215 232 255
215 232 255
215 232 255
215 232 255
215 232 255
215 232 255
215 232 255
215 232 255
215 232 255
215 232 255
215 232 255
215 232 255
215 232 255
215 232 255
215 232 255
215 232 255
215 232 255
215 232 255
215 232 255
215 232 255
215 232 255
215 232 255
215 232 255
215 232 255
215 232 255
215 232 255
215 232 255
215 232 255
215 232 255
215 232 255
215 232 255
215 232 255
215 232 255
215 232 255
215 232 255
215 232 255
215 232 255
215 232 255
215 232 255
215 232 255
215 232 255
215 232 255
215 232 255
215 232 255
215 232 255
215 232 255
215 232 255
215 232 255
215 232 255
215 232 255
215 232 255
215 232 255
215 232 255
215 232 255
215 232 255
215 232 255
215 232 255
215 232 255
215 232 255
215 232 255
215 232 255
215 232 255
215 232 255
215 232 255
215 232 255
215 232 255
215 232 255
215 232 255
215 232 255
215 232 255
215 232 255
215 232 255
215 232 255
215 232 255
215 232 255
215 232 255
215 232 255
215 232 255
215 232 255
215 232 255
215 232 255
215 232 255
215 232 255
215 232 255
215 232 255
215 232 255
215 232 255
215 232 255
215 232 255
215 232 255
215 232 255
215 232 255
215 232 255
215 232 255
215 232 255
215 232 255
215 232 255
215 232 255
215 232 255
215 232 255
215 232 255
215 232 255
215 232 255
215 232 255
215 232 255
215 232 255
215 232 255
215 232 255
215 232 255
215 232 255
215 232 255
215 232 255
215 232 255
215 232 255
215 232 255
215 232 255
215 232 255
215 232 255
215 232 255
215 232 255
215 232 255
215 232 255
215 232 255
215 232 255
215 232 255
215 232 255
215 232 255
215 232 255
215 232 255
215 232 255
215 232 255
215 232 255
215 232 255
215 232 255
215 232 255
215 232 255
215 232 255
215 232 255
215 232 255
215 232 255
215 232 255
215 232 255
215 232 255
215 232 255
215 232 255
215 232 255
215 232 255
215 232 255
215 232 255
212 229 253
206 222 245
201 217 239
189 204 226
189 204 225
181 196 218
186 202 224
188 205 227
188 204 226
191 207 230
193 209 229
187 202 221
199 216 237
206 225 250
199 215 237
206 222 245
206 222 245
215 232 255
215 232 255
215 232 255
215 232 255
215 232 255
215 232 255
215 232 255
215 232 255
215 232 255
215 232 255
215 232 255
215 232 255
215 232 255
215 232 255
215 232 255
215 232 255
215 232 255
215 232 255
215 232 255
215 232 255
215 232 255
215 232 255
215 232 255
215 232 255
215 232 255
215 232 255
215 232 255
215 232 255
215 232 255
215 232 255
215 232 255
215 232 255
215 232 255
215 232 255
215 232 255
215 232 255
215 232 255
215 232 255
215 232 255
215 232 255
215 232 255
215 232 255
215 232 255
215 232 255
215 232 255
215 232 255
215 232 255
215 232 255
215 232 255
215 232 255
215 232 255
215 232 255
215 232 255
215 232 255
215 232 255
215 232 255
215 232 255
215 232 255
215 232 255
215 232 255
215 232 255
215 232 255
215 232 255
215 232 255
215 232 255
215 232 255
215 232 255
215 232 255
215 232 255
215 232 255
215 232 255
215 232 255
215 232 255
215 232 255
215 232 255
215 232 255
215 232 255
215 232 255
215 232 255
215 232 255
215 232 255
215 232 255
215 232 255
215 232 255
215 232 255
215 232 255
215 232 255
215 232 255
215 232 255
215 232 255
215 232 255
215 232 255
215 232 255
215 232 255
215 232 255
215 232 255
215 232 255
215 232 255
215 232 255
215 232 255
215 232 255
215 232 255
215 232 255
215 232 255
215 232 255
215 232 255
215 232 255
215 232 255
215 232 255
215 232 255
215 232 255
215 232 255
215 232 255
215 232 255
215 232 255
215 232 255
215 232 255
215 232 255
215 232 255
215 232 255
215 232 255
215 232 255
215 232 255
215 232 255
215 232 255
215 232 255
215 232 255
215 232 255
215 232 255
215 232 255
215 232 255
215 232 255
215 232 255
215 232 255
215 232 255
215 232 255
215 232 255
215 232 255
215 232 255
215 232 255
215 232 255
215 232 255
215 232 255
215 232 255
215 232 255
215 232 255
215 232 255
215 232 255
215 232 255
215 232 255
215 232 255
215 232 255
215 232 255
215 232 255
215 232 255
215 232 255
215 232 255
215 232 255
215 232 255
215 232 255
215 232 255
215 232 255
215 232 255
215 232 255
215 232 255
215 232 255
215 232 255
215 232 255
215 232 255
215 232 255
215 232 255
215 232 255
215 232 255
215 232 255
215 232 255
215 232 255
215 232 255
215 232 255
215 232 255
215 232 255
215 232 255
215 232 255
215 232 255
215 232 255
215 232 255
215 232 255
215 232 255
215 232 255
215 232 255
215 232 255
215 232 255
215 232 255
215 232 255
215 232 255
215 232 255
215 232 255
215 232 255
215 232 255
215 232 255
215 232 255
215 232 255
215 232 255
215 232 255
215 232 255
215 232 255
215 232 255
215 232 255
215 232 255
215 232 255
215 232 255
215 232 255
215 232 255
215 232 255
215 232 255
215 232 255
215 232 255
215 232 255
215 232 255
215 232 255
215 232 255
215 232 255
215 232 255
215 232 255
215 232 255
215 232 255
215 232 255
215 232 255
215 232 255
215 232 255
215 232 255
215 232 255
215 232 255
215 232 255
215 232 255
215 232 255
215 232 255
215 232 255
215 232 255
215 232 255
215 232 255
215 232 255
215 232 255
215 232 255
215 232 255
215 232 255
215 232 255
215 232 255
215 232 255
215 232 255
215 232 255
215 232 255
215 232 255
215 232 255
215 232 255
215 232 255
215 232 255
215 232 255
215 232 255
215 232 255
215 232 255
215 232 255
215 232 255
215 232 255
215 232 255
215 232 255
215 232 255
215 232 255
215 232 255
215 232 255
215 232 255
215 232 255
215 232 255
215 232 255
215 232 255
215 232 255
215 232 255
215 232 255
215 232 255
215 232 255
215 232 255
215 232 255
215 232 255
215 232 255
215 232 255
215 232 255
215 232 255
215 232 255
215 232 255
215 232 255
215 232 255
215 232 255
215 232 255
215 232 255
215 232 255
215 232 255
215 232 255
215 232 255
215 232 255
215 232 255
215 232 255
215 232 255
215 232 255
215 232 255
215 232 255
215 232 255
215 232 255
215 232 255
215 232 255
215 232 255
215 232 255
215 232 255
215 232 255
215 232 255
215 232 255
215 232 255
215 232 255
215 232 255
215 232 255
215 232 255
215 232 255
215 232 255
215 232 255
215 232 255
215 232 255
215 232 255
215 232 255
215 232 255
215 232 255
215 232 255
215 232 255
215 232 255
215 232 255
215 232 255
215 232 255
215 232 255
215 232 255
215 232 255
215 232 255
215 232 255
215 232 255
215 232 255
215 232 255
215 232 255
215 232 255
215 232 255
215 232 255
215 232 255
215 232 255
215 232 255
215 232 255
215 232 255
215 232 255
215 232 255
215 232 255
215 232 255
215 232 255
215 232 255
215 232 255
215 232 255
215 232 255
215 232 255
215 232 255
215 232 255
215 232 255
215 232 255
215 232 255
215 232 255
215 232 255
215 232 255
215 232 255
215 232 255
215 232 255
215 232 255
215 232 255
215 232 255
208 225 248
189 204 225
175 189 208
164 177 195
141 152 168
131 143 159
87 95 102
96 103 105
91 99 105
45 49 64
58 68 78
99 110 108
102 114 120
71 84 101
131 148 162
107 120 133
94 108 127
142 161 172
142 156 155
111 125 134
107 118 130
124 136 144
78 88 94
68 79 94
71 82 101
76 87 106
81 90 107
120 133 154
136 148 168
150 164 184
170 185 207
185 202 225
206 223 248
213 231 255
215 232 255
215 232 255
215 232 255
215 232 255
215 232 255
215 232 255
215 232 255
215 232 255
215 232 255
215 232 255
215 232 255
215 232 255
215 232 255
215 232 255
215 232 255
215 232 255
215 232 255
215 232 255
215 232 255
215 232 255
215 232 255
215 232 255
215 232 255
215 232 255
215 232 255
215 232 255
215 232 255
215 232 255
215 232 255
215 232 255
215 232 255
215 232 255
215 232 255
215 232 255
215 232 255
215 232 255
215 232 255
215 232 255
215 232 255
215 232 255
215 232 255
215 232 255
215 232 255
215 232 255
215 232 255
215 232 255
215 232 255
215 232 255
215 232 255
215 232 255
215 232 255
215 232 255
215 232 255
215 232 255
215 232 255
215 232 255
215 232 255
215 232 255
215 232 255
215 232 255
215 232 255
215 232 255
215 232 255
215 232 255
215 232 255
215 232 255
215 232 255
215 232 255
215 232 255
215 232 255
215 232 255
215 232 255
215 232 255
215 232 255
215 232 255
215 232 255
215 232 255
215 232 255
215 232 255
215 232 255
215 232 255
215 232 255
215 232 255
215 232 255
215 232 255
215 232 255
215 232 255
215 232 255
215 232 255
215 232 255
215 232 255
215 232 255
215 232 255
215 232 255
215 232 255
215 232 255
215 232 255
215 232 255
215 232 255
215 232 255
215 232 255
215 232 255
215 232 255
215 232 255
215 232 255
215 232 255
215 232 255
215 232 255
215 232 255
215 232 255
215 232 255
215 232 255
215 232 255
215 232 255
215 232 255
215 232 255
215 232 255
215 232 255
215 232 255
215 232 255
215 232 255
215 232 255
215 232 255
215 232 255
215 232 255
215 232 255
215 232 255
215 232 255
215 232 255
215 232 255
215 232 255
215 232 255
215 232 255
215 232 255
215 232 255
215 232 255
215 232 255
215 232 255
215 232 255
215 232 255
215 232 255
215 232 255
215 232 255
215 232 255
215 232 255
215 232 255
215 232 255
215 232 255
215 232 255
215 232 255
215 232 255
215 232 255
215 232 255
215 232 255
215 232 255
215 232 255
215 232 255
215 232 255
215 232 255
215 232 255
215 232 255
215 232 255
215 232 255
215 232 255
215 232 255
215 232 255
215 232 255
215 232 255
215 232 255
215 232 255
215 232 255
215 232 255
215 232 255
215 232 255
215 232 255
215 232 255
215 232 255
215 232 255
215 232 255
215 232 255
215 232 255
215 232 255
215 232 255
215 232 255
215 232 255
215 232 255
215 232 255
215 232 255
215 232 255
215 232 255
215 232 255
215 232 255
215 232 255
215 232 255
215 232 255
215 232 255
215 232 255
215 232 255
215 232 255
215 232 255
215 232 255
215 232 255
215 232 255
215 232 255
215 232 255
215 232 255
215 232 255
215 232 255
215 232 255
215 232 255
215 232 255
215 232 255
215 232 255
215 232 255
215 232 255
215 232 255
215 232 255
215 232 255
215 232 255
215 232 255
215 232 255
215 232 255
215 232 255
215 232 255
215 232 255
215 232 255
215 232 255
215 232 255
215 232 255
215 232 255
215 232 255
215 232 255
215 232 255
215 232 255
215 232 255
215 232 255
215 232 255
215 232 255
215 232 255
215 232 255
215 232 255
215 232 255
215 232 255
215 232 255
215 232 255
215 232 255
215 232 255
215 232 255
215 232 255
215 232 255
215 232 255
215 232 255
215 232 255
215 232 255
215 232 255
215 232 255
215 232 255
215 232 255
215 232 255
215 232 255
215 232 255
215 232 255
215 232 255
215 232 255
215 232 255
215 232 255
215 232 255
215 232 255
215 232 255
215 232 255
215 232 255
215 232 255
215 232 255
215 232 255
215 232 255
215 232 255
215 232 255
215 232 255
215 232 255
215 232 255
215 232 255
215 232 255
215 232 255
215 232 255
215 232 255
215 232 255
215 232 255
215 232 255
215 232 255
215 232 255
215 232 255
215 232 255
215 232 255
215 232 255
215 232 255
215 232 255
215 232 255
215 232 255
215 232 255
215 232 255
215 232 255
215 232 255
215 232 255
215 232 255
215 232 255
215 232 255
215 232 255
215 232 255
215 232 255
215 232 255
215 232 255
215 232 255
215 232 255
215 232 255
215 232 255
215 232 255
215 232 255
215 232 255
215 232 255
215 232 255
215 232 255
215 232 255
215 232 255
215 232 255
215 232 255
215 232 255
215 232 255
215 232 255
215 232 255
215 232 255
215 232 255
215 232 255
215 232 255
215 232 255
215 232 255
215 232 255
215 232 255
215 232 255
215 232 255
215 232 255
215 232 255
215 232 255
215 232 255
215 232 255
215 232 255
215 232 255
215 232 255
215 232 255
215 232 255
215 232 255
215 232 255
215 232 255
215 232 255
215 232 255
215 232 255
215 232 255
215 232 255
215 232 255
215 232 255
215 232 255
212 229 252
189 204 225
168 181 201
153 165 182
122 131 139
69 71 72
67 69 60
76 78 61
86 87 63
84 85 62
82 83 62
79 83 62
71 78 53
69 74 47
52 62 52
33 42 53
26 32 52
66 74 62
50 56 54
70 74 60
70 76 64
43 49 46
25 32 43
64 72 72
75 83 74
62 66 55
65 67 53
70 70 53
85 91 78
62 66 56
72 80 77
90 97 100
75 85 89
115 129 142
109 125 146
79 91 107
59 66 86
26 29 50
0 1 42
76 85 105
108 121 141
146 162 184
182 200 225
206 225 250
213 231 255
215 232 255
215 232 255
215 232 255
215 232 255
215 232 255
215 232 255
215 232 255
215 232 255
215 232 255
215 232 255
215 232 255
215 232 255
215 232 255
215 232 255
215 232 255
215 232 255
215 232 255
215 232 255
215 232 255
215 232 255
215 232 255
215 232 255
215 232 255
215 232 255
215 232 255
215 232 255
215 232 255
215 232 255
215 232 255
215 232 255
215 232 255
215 232 255
215 232 255
215 232 255
215 232 255
215 232 255
215 232 255
215 232 255
215 232 255
215 232 255
215 232 255
215 232 255
215 232 255
215 232 255
215 232 255
215 232 255
215 232 255
215 232 255
215 232 255
215 232 255
215 232 255
215 232 255
215 232 255
215 232 255
215 232 255
215 232 255
215 232 255
215 232 255
215 232 255
215 232 255
215 232 255
215 232 255
215 232 255
215 232 255
215 232 255
215 232 255
215 232 255
215 232 255
215 232 255
215 232 255
215 232 255
215 232 255
215 232 255
215 232 255
215 232 255
215 232 255
215 232 255
215 232 255
215 232 255
215 232 255
215 232 255
215 232 255
215 232 255
215 232 255
215 232 255
215 232 255
215 232 255
215 232 255
215 232 255
215 232 255
215 232 255
215 232 255
215 232 255
215 232 255
215 232 255
215 232 255
215 232 255
215 232 255
215 232 255
215 232 255
215 232 255
215 232 255
215 232 255
215 232 255
215 232 255
215 232 255
215 232 255
215 232 255
215 232 255
215 232 255
215 232 255
215 232 255
215 232 255
215 232 255
215 232 255
215 232 255
215 232 255
215 232 255
215 232 255
215 232 255
215 232 255
215 232 255
215 232 255
215 232 255
215 232 255
215 232 255
215 232 255
215 232 255
215 232 255
215 232 255
215 232 255
215 232 255
215 232 255
215 232 255
215 232 255
215 232 255
215 232 255
215 232 255
215 232 255
215 232 255
215 232 255
215 232 255
215 232 255
215 232 255
215 232 255
215 232 255
215 232 255
215 232 255
215 232 255
215 232 255
215 232 255
215 232 255
215 232 255
215 232 255
215 232 255
215 232 255
215 232 255
215 232 255
215 232 255
215 232 255
215 232 255
215 232 255
215 232 255
215 232 255
215 232 255
215 232 255
215 232 255
215 232 255
215 232 255
215 232 255
215 232 255
215 232 255
215 232 255
215 232 255
215 232 255
215 232 255
215 232 255
215 232 255
215 232 255
215 232 255
215 232 255
215 232 255
215 232 255
215 232 255
215 232 255
215 232 255
215 232 255
215 232 255
215 232 255
215 232 255
215 232 255
215 232 255
215 232 255
215 232 255
215 232 255
215 232 255
215 232 255
215 232 255
215 232 255
215 232 255
215 232 255
215 232 255
215 232 255
215 232 255
215 232 255
215 232 255
215 232 255
215 232 255
215 232 255
215 232 255
215 232 255
215 232 255
215 232 255
215 232 255
215 232 255
215 232 255
215 232 255
215 232 255
215 232 255
215 232 255
215 232 255
215 232 255
215 232 255
215 232 255
215 232 255
215 232 255
215 232 255
215 232 255
215 232 255
215 232 255
215 232 255
215 232 255
215 232 255
215 232 255
215 232 255
215 232 255
215 232 255
215 232 255
215 232 255
215 232 255
215 232 255
215 232 255
215 232 255
215 232 255
215 232 255
215 232 255
215 232 255
215 232 255
215 232 255
215 232 255
215 232 255
215 232 255
215 232 255
215 232 255
215 232 255
215 232 255
215 232 255
215 232 255
215 232 255
215 232 255
215 232 255
215 232 255
215 232 255
215 232 255
215 232 255
215 232 255
215 232 255
215 232 255
215 232 255
215 232 255
215 232 255
215 232 255
215 232 255
215 232 255
215 232 255
215 232 255
215 232 255
215 232 255
215 232 255
215 232 255
215 232 255
215 232 255
215 232 255
215 232 255
215 232 255
215 232 255
215 232 255
215 232 255
215 232 255
215 232 255
215 232 255
215 232 255
215 232 255
215 232 255
215 232 255
215 232 255
215 232 255
215 232 255
215 232 255
215 232 255
215 232 255
215 232 255
215 232 255
215 232 255
215 232 255
215 232 255
215 232 255
215 232 255
215 232 255
215 232 255
215 232 255
215 232 255
215 232 255
215 232 255
215 232 255
215 232 255
215 232 255
215 232 255
215 232 255
215 232 255
215 232 255
215 232 255
215 232 255
215 232 255
215 232 255
215 232 255
215 232 255
215 232 255
215 232 255
215 232 255
215 232 255
215 232 255
215 232 255
215 232 255
215 232 255
215 232 255
215 232 255
215 232 255
215 232 255
215 232 255
215 232 255
215 232 255
215 232 255
215 232 255
215 232 255
215 232 255
215 232 255
215 232 255
215 232 255
215 232 255
215 232 255
207 224 247
182 197 218
147 159 178
108 118 131
45 50 59
37 40 46
53 53 52
46 49 45
42 45 50
73 78 78
62 64 50
66 72 50
53 58 40
52 57 40
48 54 40
44 50 34
45 53 36
44 55 37
43 54 46
44 55 47
51 62 44
57 67 40
51 59 42
51 56 40
62 63 41
62 61 43
62 64 50
64 67 46
62 69 69
44 53 52
62 67 56
64 65 54
58 63 55
35 44 58
19 42 62
23 45 61
45 67 65
53 72 55
41 61 55
57 70 64
81 88 85
90 100 102
85 95 102
63 72 83
20 24 47
2 0 43
5 5 42
37 43 59
104 120 142
144 163 186
188 209 235
203 224 253
211 230 255
214 232 255
215 232 255
215 232 255
215 232 255
215 232 255
215 232 255
215 232 255
215 232 255
215 232 255
215 232 255
215 232 255
215 232 255
215 232 255
215 232 255
215 232 255
215 232 255
215 232 255
215 232 255
215 232 255
215 232 255
215 232 255
215 232 255
215 232 255
215 232 255
215 232 255
215 232 255
215 232 255
215 232 255
215 232 255
215 232 255
215 232 255
215 232 255
215 232 255
215 232 255
215 232 255
215 232 255
215 232 255
215 232 255
215 232 255
215 232 255
215 232 255
215 232 255
215 232 255
215 232 255
215 232 255
215 232 255
215 232 255
215 232 255
215 232 255
215 232 255
215 232 255
215 232 255
215 232 255
215 232 255
215 232 255
215 232 255
215 232 255
215 232 255
215 232 255
215 232 255
215 232 255
215 232 255
215 232 255
215 232 255
215 232 255
215 232 255
215 232 255
215 232 255
215 232 255
215 232 255
215 232 255
215 232 255
215 232 255
215 232 255
215 232 255
215 232 255
215 232 255
215 232 255
215 232 255
215 232 255
215 232 255
215 232 255
215 232 255
215 232 255
215 232 255
215 232 255
215 232 255
215 232 255
215 232 255
215 232 255
215 232 255
215 232 255
215 232 255
215 232 255
215 232 255
215 232 255
215 232 255
215 232 255
215 232 255
215 232 255
215 232 255
215 232 255
215 232 255
215 232 255
215 232 255
215 232 255
215 232 255
215 232 255
215 232 255
215 232 255
215 232 255
215 232 255
215 232 255
215 232 255
215 232 255
215 232 255
215 232 255
215 232 255
215 232 255
215 232 255
215 232 255
215 232 255
215 232 255
215 232 255
215 232 255
215 232 255
215 232 255
215 232 255
215 232 255
215 232 255
215 232 255
215 232 255
215 232 255
215 232 255
215 232 255
215 232 255
215 232 255
215 232 255
215 232 255
215 232 255
215 232 255
215 232 255
215 232 255
215 232 255
215 232 255
215 232 255
215 232 255
215 232 255
215 232 255
215 232 255
215 232 255
215 232 255
215 232 255
215 232 255
215 232 255
215 232 255
215 232 255
215 232 255
215 232 255
215 232 255
215 232 255
215 232 255
215 232 255
215 232 255
215 232 255
215 232 255
215 232 255
215 232 255
215 232 255
215 232 255
215 232 255
215 232 255
215 232 255
215 232 255
215 232 255
215 232 255
215 232 255
215 232 255
215 232 255
215 232 255
215 232 255
215 232 255
215 232 255
215 232 255
215 232 255
215 232 255
215 232 255
215 232 255
215 232 255
215 232 255
215 232 255
215 232 255
215 232 255
215 232 255
215 232 255
215 232 255
215 232 255
215 232 255
215 232 255
215 232 255
215 232 255
215 232 255
215 232 255
215 232 255
215 232 255
215 232 255
215 232 255
215 232 255
215 232 255
215 232 255
215 232 255
215 232 255
215 232 255
215 232 255
215 232 255
215 232 255
215 232 255
215 232 255
215 232 255
215 232 255
215 232 255
215 232 255
215 232 255
215 232 255
215 232 255
215 232 255
215 232 255
215 232 255
215 232 255
215 232 255
215 232 255
215 232 255
215 232 255
215 232 255
215 232 255
215 232 255
215 232 255
215 232 255
215 232 255
215 232 255
215 232 255
215 232 255
215 232 255
215 232 255
215 232 255
215 232 255
215 232 255
215 232 255
215 232 255
215 232 255
215 232 255
215 232 255
215 232 255
215 232 255
215 232 255
215 232 255
215 232 255
215 232 255
215 232 255
215 232 255
215 232 255
215 232 255
215 232 255
215 232 255
215 232 255
215 232 255
215 232 255
215 232 255
215 232 255
215 232 255
215 232 255
215 232 255
215 232 255
215 232 255
215 232 255
215 232 255
215 232 255
215 232 255
215 232 255
215 232 255
215 232 255
215 232 255
215 232 255
215 232 255
215 232 255
215 232 255
215 232 255
215 232 255
215 232 255
215 232 255
215 232 255
215 232 255
215 232 255
215 232 255
215 232 255
215 232 255
215 232 255
215 232 255
215 232 255
215 232 255
215 232 255
215 232 255
215 232 255
215 232 255
215 232 255
215 232 255
215 232 255
215 232 255
215 232 255
215 232 255
215 232 255
215 232 255
215 232 255
215 232 255
215 232 255
215 232 255
215 232 255
215 232 255
215 232 255
215 232 255
215 232 255
215 232 255
215 232 255
215 232 255
215 232 255
215 232 255
215 232 255
215 232 255
215 232 255
215 232 255
215 232 255
215 232 255
215 232 255
215 232 255
215 232 255
215 232 255
215 232 255
215 232 255
215 232 255
215 232 255
215 232 255
215 232 255
215 232 255
214 231 254
186 201 222
147 159 176
101 110 120
56 63 64
32 39 23
36 42 18
48 53 33
56 59 39
65 67 44
53 56 35
50 55 29
47 55 29
45 52 38
48 52 35
53 57 39
53 59 38
46 51 31
51 54 30
52 53 29
49 51 27
53 55 26
56 56 30
53 55 32
50 53 27
53 55 34
55 57 39
60 61 40
59 59 47
57 58 44
57 59 45
55 58 47
52 53 41
41 45 45
72 80 66
63 67 62
47 49 61
5 6 38
0 0 41
0 10 44
4 29 42
23 42 47
21 52 58
44 79 75
71 73 47
73 78 58
56 61 49
75 81 76
102 114 123
110 124 141
75 86 94
70 80 92
27 31 55
0 0 40
18 22 45
43 50 64
126 143 162
179 202 231
201 224 255
203 226 255
212 230 255
215 232 255
215 232 255
215 232 255
215 232 255
215 232 255
215 232 255
215 232 255
215 232 255
215 232 255
215 232 255
215 232 255
215 232 255
215 232 255
215 232 255
215 232 255
215 232 255
215 232 255
215 232 255
215 232 255
215 232 255
215 232 255
215 232 255
215 232 255
215 232 255
215 232 255
215 232 255
215 232 255
215 232 255
215 232 255
215 232 255
215 232 255
215 232 255
215 232 255
215 232 255
215 232 255
215 232 255
215 232 255
215 232 255
215 232 255
215 232 255
215 232 255
215 232 255
215 232 255
215 232 255
215 232 255
215 232 255
215 232 255
215 232 255
215 232 255
215 232 255
215 232 255
215 232 255
215 232 255
215 232 255
215 232 255
215 232 255
215 232 255
215 232 255
215 232 255
215 232 255
215 232 255
215 232 255
215 232 255
215 232 255
215 232 255
215 232 255
215 232 255
215 232 255
215 232 255
215 232 255
215 232 255
215 232 255
215 232 255
215 232 255
215 232 255
215 232 255
215 232 255
215 232 255
215 232 255
215 232 255
215 232 255
215 232 255
215 232 255
215 232 255
215 232 255
215 232 255
215 232 255
215 232 255
215 232 255
215 232 255
215 232 255
215 232 255
215 232 255
215 232 255
215 232 255
215 232 255
215 232 255
215 232 255
215 232 255
215 232 255
215 232 255
215 232 255
215 232 255
215 232 255
215 232 255
215 232 255
215 232 255
215 232 255
215 232 255
215 232 255
215 232 255
215 232 255
215 232 255
215 232 255
215 232 255
215 232 255
215 232 255
215 232 255
215 232 255
215 232 255
215 232 255
215 232 255
215 232 255
215 232 255
215 232 255
215 232 255
215 232 255
215 232 255
215 232 255
215 232 255
215 232 255
215 232 255
215 232 255
215 232 255
215 232 255
215 232 255
215 232 255
215 232 255
215 232 255
215 232 255
215 232 255
215 232 255
215 232 255
215 232 255
215 232 255
215 232 255
215 232 255
215 232 255
215 232 255
215 232 255
215 232 255
215 232 255
215 232 255
215 232 255
215 232 255
215 232 255
215 232 255
215 232 255
215 232 255
215 232 255
215 232 255
215 232 255
215 232 255
215 232 255
215 232 255
215 232 255
215 232 255
215 232 255
215 232 255
215 232 255
216 232 255
216 232 255
215 232 255
215 232 255
215 232 255
215 232 255
215 232 255
215 232 255
215 232 255
215 232 255
215 232 255
215 232 255
215 232 255
215 232 255
215 232 255
215 232 255
215 232 255
215 232 255
215 232 255
215 232 255
215 232 255
215 232 255
215 232 255
215 232 255
215 232 255
215 232 255
215 232 255
215 232 255
215 232 255
215 232 255
215 232 255
215 232 255
215 232 255
215 232 255
215 232 255
215 232 255
215 232 255
215 232 255
215 232 255
215 232 255
215 232 255
215 232 255
215 232 255
215 232 255
215 232 255
215 232 255
215 232 255
215 232 255
215 232 255
215 232 255
215 232 255
215 232 255
215 232 255
215 232 255
215 232 255
215 232 255
215 232 255
215 232 255
215 232 255
215 232 255
215 232 255
215 232 255
215 232 255
215 232 255
215 232 255
215 232 255
215 232 255
215 232 255
215 232 255
215 232 255
215 232 255
215 232 255
215 232 255
215 232 255
215 232 255
215 232 255
215 232 255
215 232 255
215 232 255
215 232 255
215 232 255
215 232 255
215 232 255
215 232 255
215 232 255
215 232 255
215 232 255
215 232 255
215 232 255
215 232 255
215 232 255
215 232 255
215 232 255
215 232 255
215 232 255
215 232 255
215 232 255
215 232 255
215 232 255
215 232 255
215 232 255
215 232 255
215 232 255
215 232 255
215 232 255
215 232 255
215 232 255
215 232 255
215 232 255
215 232 255
215 232 255
215 232 255
215 232 255
215 232 255
215 232 255
215 232 255
215 232 255
215 232 255
215 232 255
215 232 255
215 232 255
215 232 255
215 232 255
215 232 255
215 232 255
215 232 255
215 232 255
215 232 255
215 232 255
215 232 255
215 232 255
215 232 255
215 232 255
215 232 255
215 232 255
215 232 255
215 232 255
215 232 255
215 232 255
215 232 255
215 232 255
215 232 255
215 232 255
215 232 255
215 232 255
215 232 255
215 232 255
215 232 255
215 232 255
215 232 255
215 232 255
215 232 255
215 232 255
215 232 255
215 232 255
215 232 255
215 232 255
215 232 255
215 232 255
215 232 255
215 232 255
215 232 255
215 232 255
215 232 255
215 232 255
215 232 255
210 227 249
181 195 213
128 138 146
77 86 81
37 47 22
35 43 17
35 42 16
35 42 18
28 33 23
28 34 31
26 31 29
27 32 28
34 41 23
38 45 20
38 44 20
39 43 23
40 44 25
38 42 22
38 41 23
47 51 30
50 53 27
56 55 29
54 52 27
53 54 31
48 50 28
44 45 24
41 41 22
46 48 27
45 46 24
44 46 27
50 52 30
48 50 29
52 55 36
48 50 45
37 41 45
36 38 43
29 35 46
57 64 46
93 101 79
60 64 55
52 57 55
65 72 70
34 38 52
1 3 40
45 50 54
47 51 45
34 38 43
51 55 47
61 65 50
54 58 49
68 68 52
62 63 44
57 59 47
63 68 63
79 88 94
41 48 61
0 0 41
0 0 44
0 0 41
13 16 41
32 37 39
119 134 148
173 194 220
194 219 250
199 223 255
201 224 255
209 228 254
215 232 255
215 232 255
215 232 255
215 232 255
215 232 255
215 232 255
215 232 255
215 232 255
215 232 255
215 232 255
215 232 255
215 232 255
215 232 255
215 232 255
215 232 255
215 232 255
215 232 255
215 232 255
215 232 255
215 232 255
215 232 255
215 232 255
215 232 255
215 232 255
215 232 255
215 232 255
215 232 255
215 232 255
215 232 255
215 232 255
215 232 255
215 232 255
215 232 255
215 232 255
215 232 255
215 232 255
215 232 255
215 232 255
215 232 255
215 232 255
215 232 255
215 232 255
215 232 255
215 232 255
215 232 255
215 232 255
215 232 255
215 232 255
215 232 255
215 232 255
215 232 255
215 232 255
215 232 255
215 232 255
215 232 255
215 232 255
215 232 255
215 232 255
215 232 255
215 232 255
215 232 255
215 232 255
215 232 255
215 232 255
215 232 255
215 232 255
215 232 255
215 232 255
215 232 255
215 232 255
215 232 255
215 232 255
215 232 255
215 232 255
215 232 255
215 232 255
215 232 255
215 232 255
215 232 255
215 232 255
215 232 255
215 232 255
215 232 255
215 232 255
215 232 255
215 232 255
215 232 255
215 232 255
215 232 255
215 232 255
215 232 255
215 232 255
215 232 255
215 232 255
215 232 255
215 232 255
215 232 255
215 232 255
215 232 255
215 232 255
215 232 255
215 232 255
215 232 255
215 232 255
215 232 255
215 232 255
215 232 255
215 232 255
215 232 255
215 232 255
215 232 255
215 232 255
215 232 255
215 232 255
215 232 255
215 232 255
215 232 255
215 232 255
215 232 255
215 232 255
215 232 255
215 232 255
215 232 255
215 232 255
215 232 255
215 232 255
215 232 255
215 232 255
215 232 255
215 232 255
215 232 255
215 232 255
215 232 255
215 232 255
215 232 255
215 232 255
215 232 255
215 232 255
215 232 255
215 232 255
215 232 255
215 232 255
215 232 255
215 232 255
215 232 255
215 232 255
215 232 255
215 232 255
215 232 255
215 232 255
215 232 255
215 232 255
215 232 255
215 232 255
215 232 255
215 232 255
215 232 255
215 232 255
215 232 255
215 232 255
215 232 255
215 232 255
215 232 255
215 232 255
215 232 255
216 232 255
216 232 255
216 232 255
216 232 255
216 232 255
216 232 255
216 232 255
216 232 255
216 232 255
216 232 255
216 232 255
216 232 255
216 232 255
216 232 255
216 232 255
216 232 255
216 232 255
216 232 255
216 232 255
216 232 255
216 232 255
216 232 255
216 232 255
216 232 255
216 232 255
215 232 255
215 232 255
215 232 255
215 232 255
215 232 255
215 232 255
215 232 255
215 232 255
215 232 255
215 232 255
215 232 255
215 232 255
215 232 255
215 232 255
215 232 255
215 232 255
215 232 255
215 232 255
215 232 255
215 232 255
215 232 255
215 232 255
215 232 255
215 232 255
215 232 255
215 232 255
215 232 255
215 232 255
215 232 255
215 232 255
215 232 255
215 232 255
215 232 255
215 232 255
215 232 255
215 232 255
215 232 255
215 232 255
215 232 255
215 232 255
215 232 255
215 232 255
215 232 255
215 232 255
215 232 255
215 232 255
215 232 255
215 232 255
215 232 255
215 232 255
215 232 255
215 232 255
215 232 255
215 232 255
215 232 255
215 232 255
215 232 255
215 232 255
215 232 255
215 232 255
215 232 255
215 232 255
215 232 255
215 232 255
215 232 255
215 232 255
215 232 255
215 232 255
215 232 255
215 232 255
215 232 255
215 232 255
215 232 255
215 232 255
215 232 255
215 232 255
215 232 255
215 232 255
215 232 255
215 232 255
215 232 255
215 232 255
215 232 255
215 232 255
215 232 255
215 232 255
215 232 255
215 232 255
215 232 255
215 232 255
215 232 255
215 232 255
215 232 255
215 232 255
215 232 255
215 232 255
215 232 255
215 232 255
215 232 255
215 232 255
215 232 255
215 232 255
215 232 255
215 232 255
215 232 255
215 232 255
215 232 255
215 232 255
215 232 255
215 232 255
215 232 255
215 232 255
215 232 255
215 232 255
215 232 255
215 232 255
215 232 255
215 232 255
215 232 255
215 232 255
215 232 255
215 232 255
215 232 255
215 232 255
215 232 255
215 232 255
215 232 255
215 232 255
215 232 255
215 232 255
215 232 255
215 232 255
215 232 255
215 232 255
215 232 255
215 232 255
215 232 255
215 232 255
215 232 255
215 232 255
210 227 249
177 192 209
127 139 147
62 70 59
41 51 21
52 61 33
52 58 31
54 60 35
38 45 13
39 46 17
38 44 17
32 37 16
33 38 19
34 42 16
32 41 13
33 42 15
36 42 18
35 42 18
30 36 19
33 39 20
41 47 19
46 49 24
47 49 23
46 47 21
45 47 21
44 46 24
33 36 20
38 41 20
37 41 17
35 40 21
40 46 19
40 41 21
41 45 19
42 43 25
29 34 28
16 20 37
5 5 41
0 0 42
0 0 42
0 0 42
2 3 41
7 8 38
21 23 41
71 81 71
23 27 42
3 1 41
54 64 66
20 23 40
38 42 42
47 51 52
28 29 38
26 26 41
32 36 44
39 44 42
54 56 48
58 62 58
70 74 61
93 101 106
61 69 71
16 18 39
0 0 41
0 0 42
0 0 41
0 0 42
0 0 42
35 41 58
87 99 107
158 178 204
189 213 244
194 220 253
195 219 250
198 220 247
198 216 240
213 230 253
215 232 255
215 232 255
215 232 255
215 232 255
215 232 255
215 232 255
215 232 255
215 232 255
215 232 255
215 232 255
215 232 255
215 232 255
215 232 255
215 232 255
215 232 255
215 232 255
215 232 255
215 232 255
215 232 255
215 232 255
215 232 255
215 232 255
215 232 255
215 232 255
215 232 255
215 232 255
215 232 255
215 232 255
215 232 255
215 232 255
215 232 255
215 232 255
215 232 255
215 232 255
215 232 255
215 232 255
215 232 255
215 232 255
215 232 255
215 232 255
215 232 255
215 232 255
215 232 255
215 232 255
215 232 255
215 232 255
215 232 255
215 232 255
215 232 255
215 232 255
215 232 255
215 232 255
215 232 255
215 232 255
215 232 255
215 232 255
215 232 255
215 232 255
215 232 255
215 232 255
215 232 255
215 232 255
215 232 255
215 232 255
215 232 255
215 232 255
215 232 255
215 232 255
215 232 255
215 232 255
215 232 255
215 232 255
215 232 255
215 232 255
215 232 255
215 232 255
215 232 255
215 232 255
215 232 255
215 232 255
215 232 255
215 232 255
215 232 255
215 232 255
215 232 255
215 232 255
215 232 255
215 232 255
215 232 255
215 232 255
215 232 255
215 232 255
215 232 255
215 232 255
215 232 255
215 232 255
215 232 255
215 232 255
215 232 255
215 232 255
215 232 255
215 232 255
215 232 255
215 232 255
215 232 255
215 232 255
215 232 255
215 232 255
215 232 255
215 232 255
215 232 255
215 232 255
215 232 255
215 232 255
215 232 255
215 232 255
215 232 255
215 232 255
215 232 255
215 232 255
215 232 255
215 232 255
215 232 255
215 232 255
215 232 255
215 232 255
215 232 255
215 232 255
215 232 255
215 232 255
215 232 255
215 232 255
215 232 255
215 232 255
215 232 255
215 232 255
215 232 255
215 232 255
215 232 255
216 232 255
216 232 255
216 232 255
216 232 255
216 232 255
216 232 255
216 232 255
216 232 255
216 232 255
216 232 255
216 232 255
216 232 255
216 232 255
216 232 255
216 232 255
216 232 255
216 232 255
216 232 255
216 232 255
216 232 255
216 232 255
216 232 255
216 232 255
216 232 255
216 232 255
216 232 255
216 232 255
216 232 255
216 232 255
216 232 255
216 232 255
216 232 255
216 232 255
216 232 255
216 232 255
216 232 255
216 232 255
216 232 255
216 232 255
216 232 255
216 232 255
216 232 255
216 232 255
216 232 255
216 232 255
216 232 255
216 232 255
216 232 255
216 232 255
216 232 255
216 232 255
216 232 255
216 232 255
216 232 255
216 232 255
216 232 255
216 232 255
216 232 255
216 232 255
216 232 255
216 232 255
216 232 255
216 232 255
216 232 255
216 232 255
216 232 255
216 232 255
216 232 255
216 232 255
216 232 255
216 232 255
216 232 255
216 232 255
216 232 255
215 232 255
215 232 255
215 232 255
215 232 255
215 232 255
215 232 255
215 232 255
215 232 255
215 232 255
215 232 255
215 232 255
215 232 255
215 232 255
215 232 255
215 232 255
215 232 255
215 232 255
215 232 255
215 232 255
215 232 255
215 232 255
215 232 255
215 232 255
215 232 255
215 232 255
215 232 255
215 232 255
215 232 255
215 232 255
215 232 255
215 232 255
215 232 255
215 232 255
215 232 255
215 232 255
215 232 255
215 232 255
215 232 255
215 232 255
215 232 255
215 232 255
215 232 255
215 232 255
215 232 255
215 232 255
215 232 255
215 232 255
215 232 255
215 232 255
215 232 255
215 232 255
215 232 255
215 232 255
215 232 255
215 232 255
215 232 255
215 232 255
215 232 255
215 232 255
215 232 255
215 232 255
215 232 255
215 232 255
215 232 255
215 232 255
215 232 255
215 232 255
215 232 255
215 232 255
215 232 255
215 232 255
215 232 255
215 232 255
215 232 255
215 232 255
215 232 255
215 232 255
215 232 255
215 232 255
215 232 255
215 232 255
215 232 255
215 232 255
215 232 255
215 232 255
215 232 255
215 232 255
215 232 255
215 232 255
215 232 255
215 232 255
215 232 255
215 232 255
215 232 255
215 232 255
215 232 255
215 232 255
215 232 255
215 232 255
215 232 255
215 232 255
215 232 255
215 232 255
215 232 255
215 232 255
215 232 255
215 232 255
215 232 255
215 232 255
215 232 255
215 232 255
187 203 221
142 154 166
59 68 58
41 49 19
42 50 21
40 48 20
54 63 34
60 66 42
57 61 37
40 48 18
32 44 10
34 45 12
38 45 15
38 46 16
31 38 11
28 39 17
31 43 28
33 47 23
30 40 18
26 37 18
28 36 17
36 43 17
35 40 15
36 39 13
33 36 14
35 38 15
37 42 17
39 43 23
43 48 24
40 44 24
42 45 19
41 45 21
46 46 16
46 46 16
27 30 24
9 11 33
0 0 46
0 0 46
0 0 38
0 0 41
0 0 42
0 0 42
0 0 42
0 0 42
1 0 36
3 0 45
0 0 47
1 0 41
16 18 40
3 0 38
25 25 34
59 60 32
57 58 31
61 62 38
66 68 48
56 58 45
39 42 46
30 32 44
23 24 42
38 41 53
56 64 73
30 33 53
22 26 46
1 0 44
0 0 42
0 0 42
0 0 42
0 0 42
0 0 42
10 12 40
66 76 84
156 176 198
194 219 252
196 221 253
171 195 228
99 113 133
133 143 160
189 204 225
215 232 255
215 232 255
215 232 255
215 232 255
215 232 255
215 232 255
215 232 255
215 232 255
215 232 255
215 232 255
215 232 255
215 232 255
215 232 255
215 232 255
215 232 255
215 232 255
215 232 255
215 232 255
215 232 255
215 232 255
215 232 255
215 232 255
215 232 255
215 232 255
215 232 255
215 232 255
215 232 255
215 232 255
215 232 255
215 232 255
215 232 255
215 232 255
215 232 255
215 232 255
215 232 255
215 232 255
215 232 255
215 232 255
215 232 255
215 232 255
215 232 255
215 232 255
215 232 255
215 232 255
215 232 255
215 232 255
215 232 255
215 232 255
215 232 255
215 232 255
215 232 255
215 232 255
215 232 255
215 232 255
215 232 255
215 232 255
215 232 255
215 232 255
215 232 255
215 232 255
215 232 255
215 232 255
215 232 255
215 232 255
215 232 255
215 232 255
215 232 255
215 232 255
215 232 255
215 232 255
215 232 255
215 232 255
215 232 255
215 232 255
215 232 255
215 232 255
215 232 255
215 232 255
215 232 255
215 232 255
215 232 255
215 232 255
215 232 255
215 232 255
215 232 255
215 232 255
215 232 255
215 232 255
215 232 255
215 232 255
215 232 255
215 232 255
215 232 255
215 232 255
215 232 255
215 232 255
215 232 255
215 232 255
215 232 255
215 232 255
215 232 255
215 232 255
215 232 255
215 232 255
215 232 255
215 232 255
215 232 255
215 232 255
215 232 255
215 232 255
215 232 255
216 232 255
216 232 255
216 232 255
216 232 255
216 232 255
216 232 255
216 232 255
216 232 255
216 232 255
216 232 255
216 232 255
216 232 255
216 232 255
216 232 255
216 232 255
216 232 255
216 232 255
216 232 255
216 232 255
216 232 255
216 232 255
216 232 255
216 232 255
216 232 255
216 232 255
216 232 255
216 232 255
216 232 255
216 232 255
216 232 255
216 232 255
216 232 255
216 232 255
216 232 255
216 232 255
216 232 255
216 232 255
216 232 255
216 232 255
216 232 255
216 232 255
216 232 255
216 232 255
216 232 255
216 232 255
216 232 255
216 232 255
216 232 255
216 232 255
216 232 255
216 232 255
216 232 255
216 232 255
216 232 255
216 232 255
216 232 255
216 232 255
216 232 255
216 232 255
216 232 255
216 232 255
216 232 255
216 232 255
216 232 255
216 232 255
216 232 255
216 232 255
216 232 255
216 232 255
216 232 255
216 232 255
216 232 255
216 232 255
216 232 255
216 232 255
216 232 255
216 232 255
216 232 255
216 232 255
216 232 255
216 232 255
216 232 255
216 232 255
216 232 255
216 232 255
216 232 255
216 232 255
216 232 255
216 232 255
216 232 255
216 232 255
216 232 255
216 232 255
216 232 255
216 232 255
216 232 255
216 232 255
216 232 255
216 232 255
216 232 255
216 232 255
216 232 255
216 232 255
216 232 255
216 232 255
216 232 255
216 232 255
216 232 255
216 232 255
216 232 255
216 232 255
216 232 255
216 232 255
216 232 255
216 232 255
216 232 255
216 232 255
216 232 255
216 232 255
216 232 255
216 232 255
216 232 255
216 232 255
216 232 255
216 232 255
216 232 255
216 232 255
216 232 255
216 232 255
216 232 255
216 232 255
216 232 255
216 232 255
216 232 255
215 232 255
215 232 255
215 232 255
215 232 255
215 232 255
215 232 255
215 232 255
215 232 255
215 232 255
215 232 255
215 232 255
215 232 255
215 232 255
215 232 255
215 232 255
215 232 255
215 232 255
215 232 255
215 232 255
215 232 255
215 232 255
215 232 255
215 232 255
215 232 255
215 232 255
215 232 255
215 232 255
215 232 255
215 232 255
215 232 255
215 232 255
215 232 255
215 232 255
215 232 255
215 232 255
215 232 255
215 232 255
215 232 255
215 232 255
215 232 255
215 232 255
215 232 255
215 232 255
215 232 255
215 232 255
215 232 255
215 232 255
215 232 255
215 232 255
215 232 255
215 232 255
215 232 255
215 232 255
215 232 255
215 232 255
215 232 255
215 232 255
215 232 255
215 232 255
215 232 255
215 232 255
215 232 255
215 232 255
215 232 255
215 232 255
215 232 255
215 232 255
215 232 255
215 232 255
215 232 255
215 232 255
215 232 255
215 232 255
215 232 255
205 221 242
155 169 183
88 97 99
32 44 12
31 43 9
28 41 9
30 42 12
29 41 12
43 55 27
48 58 34
49 57 34
39 51 24
25 39 6
25 40 5
28 41 6
29 42 10
31 46 13
29 44 12
26 40 15
30 44 13
29 42 8
29 43 6
27 37 15
33 39 22
32 37 11
26 33 8
27 34 8
29 35 13
37 43 21
35 40 21
40 45 25
34 39 17
35 38 20
38 43 11
42 46 18
49 47 22
42 44 19
13 14 24
0 0 36
0 0 38
0 0 44
0 0 42
0 0 42
0 0 42
0 0 42
0 0 42
0 0 42
0 0 44
0 0 42
0 0 37
0 0 44
0 4 39
0 4 46
5 6 35
36 39 27
51 54 17
46 48 21
47 50 26
52 54 28
61 62 37
60 59 33
52 54 38
19 18 32
38 43 71
0 0 46
3 3 34
28 32 45
3 2 44
0 0 42
0 0 42
0 0 42
0 0 42
0 0 42
0 0 41
4 5 39
85 97 111
136 153 174
187 210 238
191 214 247
132 152 176
18 21 47
86 93 109
158 171 190
211 228 250
215 232 255
215 232 255
215 232 255
215 232 255
215 232 255
215 232 255
215 232 255
215 232 255
215 232 255
215 232 255
215 232 255
215 232 255
215 232 255
215 232 255
215 232 255
215 232 255
215 232 255
215 232 255
215 232 255
215 232 255
215 232 255
215 232 255
215 232 255
215 232 255
215 232 255
215 232 255
215 232 255
215 232 255
215 232 255
215 232 255
215 232 255
215 232 255
215 232 255
215 232 255
215 232 255
215 232 255
215 232 255
215 232 255
215 232 255
215 232 255
215 232 255
215 232 255
215 232 255
215 232 255
215 232 255
215 232 255
215 232 255
215 232 255
215 232 255
215 232 255
215 232 255
215 232 255
215 232 255
215 232 255
215 232 255
215 232 255
215 232 255
215 232 255
215 232 255
215 232 255
215 232 255
215 232 255
215 232 255
215 232 255
215 232 255
215 232 255
215 232 255
215 232 255
215 232 255
215 232 255
215 232 255
215 232 255
215 232 255
215 232 255
215 232 255
215 232 255
216 232 255
216 232 255
216 232 255
216 232 255
216 232 255
216 232 255
216 232 255
216 232 255
216 232 255
216 232 255
216 232 255
216 232 255
216 232 255
216 232 255
216 232 255
216 232 255
216 232 255
216 232 255
216 232 255
216 232 255
216 232 255
216 232 255
216 232 255
216 232 255
216 232 255
216 232 255
216 232 255
216 232 255
216 232 255
216 232 255
216 232 255
216 232 255
216 232 255
216 232 255
216 232 255
216 232 255
216 232 255
216 232 255
216 232 255
216 232 255
216 232 255
216 232 255
216 232 255
216 232 255
216 232 255
216 232 255
216 232 255
216 232 255
216 232 255
216 232 255
216 232 255
216 232 255
216 232 255
216 232 255
216 232 255
216 232 255
216 232 255
216 232 255
216 232 255
216 232 255
216 232 255
216 232 255
216 232 255
216 232 255
216 232 255
216 232 255
216 232 255
216 232 255
216 232 255
216 232 255
216 232 255
216 232 255
216 232 255
216 232 255
216 232 255
216 232 255
216 232 255
216 232 255
216 232 255
216 232 255
216 232 255
216 232 255
216 232 255
216 232 255
216 232 255
216 232 255
216 232 255
216 232 255
216 232 255
216 232 255
216 232 255
216 232 255
216 232 255
216 232 255
216 232 255
216 232 255
216 232 255
216 232 255
216 232 255
216 232 255
216 232 255
216 232 255
216 232 255
216 232 255
216 232 255
216 232 255
216 232 255
216 232 255
216 232 255
216 232 255
216 232 255
216 232 255
216 232 255
216 232 255
216 232 255
216 232 255
216 232 255
216 232 255
216 232 255
216 232 255
216 232 255
216 232 255
216 232 255
216 232 255
216 232 255
216 232 255
216 232 255
216 232 255
216 232 255
216 232 255
216 232 255
216 232 255
216 232 255
216 232 255
216 232 255
216 232 255
216 232 255
216 232 255
216 232 255
216 232 255
216 232 255
216 232 255
216 232 255
216 232 255
216 232 255
216 232 255
216 232 255
216 232 255
216 232 255
216 232 255
216 232 255
216 232 255
216 232 255
216 232 255
216 232 255
216 232 255
216 232 255
216 232 255
216 232 255
216 232 255
216 232 255
216 232 255
216 232 255
216 232 255
216 232 255
216 232 255
216 232 255
216 232 255
216 232 255
216 232 255
216 232 255
216 232 255
216 232 255
216 232 255
216 232 255
216 232 255
216 232 255
216 232 255
216 232 255
216 232 255
216 232 255
216 232 255
216 232 255
216 232 255
216 232 255
216 232 255
216 232 255
216 232 255
216 232 255
216 232 255
216 232 255
216 232 255
216 232 255
216 232 255
216 232 255
216 232 255
216 232 255
216 232 255
216 232 255
216 232 255
216 232 255
216 232 255
216 232 255
216 232 255
216 232 255
216 232 255
216 232 255
216 232 255
216 232 255
215 232 255
215 232 255
216 232 255
215 232 255
215 232 255
215 232 255
215 232 255
215 232 255
215 232 255
215 232 255
215 232 255
215 232 255
215 232 255
215 232 255
215 232 255
215 232 255
215 232 255
215 232 255
215 232 255
215 232 255
215 232 255
215 232 255
215 232 255
215 232 255
215 232 255
215 232 255
215 232 255
215 232 255
215 232 255
192 208 227
131 143 152
65 76 61
49 59 43
36 45 18
35 45 17
35 47 18
38 51 20
31 44 16
25 39 9
26 38 9
22 36 5
24 41 8
24 42 0
26 42 5
27 41 4
25 41 5
27 43 5
28 43 11
27 42 7
29 47 6
39 55 13
35 49 13
35 44 23
49 56 44
41 46 24
37 44 19
39 48 24
36 45 22
29 35 12
32 38 21
32 38 15
35 42 13
35 41 11
34 39 16
34 39 11
34 38 10
38 41 10
39 44 11
38 44 18
34 39 33
10 12 31
0 0 42
0 0 44
0 3 43
0 0 40
0 0 40
0 0 42
0 0 42
0 0 38
0 0 36
0 0 41
0 0 42
0 0 38
0 0 47
5 6 44
33 37 33
44 47 32
45 49 22
44 48 17
46 50 17
53 53 20
53 54 23
54 58 29
46 52 27
36 43 33
23 28 39
15 17 34
56 63 48
59 63 46
31 33 41
0 0 40
0 0 41
0 0 42
0 0 42
0 0 42
0 0 42
0 0 42
0 0 44
21 25 45
115 131 147
148 167 185
146 165 186
81 93 114
0 0 41
21 23 49
125 135 153
194 209 231
215 232 255
215 232 255
215 232 255
215 232 255
215 232 255
215 232 255
215 232 255
215 232 255
215 232 255
215 232 255
215 232 255
215 232 255
215 232 255
215 232 255
215 232 255
215 232 255
215 232 255
215 232 255
215 232 255
215 232 255
215 232 255
215 232 255
215 232 255
215 232 255
215 232 255
215 232 255
215 232 255
215 232 255
216 232 255
216 232 255
215 232 255
216 232 255
216 232 255
216 232 255
216 232 255
216 232 255
216 232 255
216 232 255
216 232 255
216 232 255
216 232 255
216 232 255
216 232 255
216 232 255
216 232 255
216 232 255
216 232 255
216 232 255
216 232 255
216 232 255
216 232 255
216 232 255
216 232 255
216 232 255
216 232 255
216 232 255
216 232 255
216 232 255
216 232 255
216 232 255
216 232 255
216 232 255
216 232 255
216 232 255
216 232 255
216 232 255
216 232 255
216 232 255
216 232 255
216 232 255
216 232 255
216 232 255
216 232 255
216 232 255
216 232 255
216 232 255
216 232 255
216 232 255
216 232 255
216 232 255
216 232 255
216 232 255
216 232 255
216 232 255
216 232 255
216 232 255
216 232 255
216 232 255
216 232 255
216 232 255
216 232 255
216 232 255
216 232 255
216 232 255
216 232 255
216 232 255
216 232 255
216 232 255
216 232 255
216 232 255
216 232 255
216 232 255
216 232 255
216 232 255
216 232 255
216 232 255
216 232 255
216 232 255
216 232 255
216 232 255
216 232 255
216 232 255
216 232 255
216 232 255
216 232 255
216 232 255
216 232 255
216 232 255
216 232 255
216 232 255
216 232 255
216 232 255
216 232 255
216 232 255
216 232 255
216 232 255
216 232 255
216 232 255
216 232 255
216 232 255
216 232 255
216 232 255
216 232 255
216 232 255
216 232 255
216 232 255
216 232 255
216 232 255
216 232 255
216 232 255
216 232 255
216 232 255
216 232 255
216 232 255
216 232 255
216 232 255
216 232 255
216 232 255
216 232 255
216 232 255
216 232 255
216 232 255
216 232 255
216 232 255
216 232 255
216 232 255
216 232 255
216 232 255
216 232 255
216 232 255
216 232 255
216 232 255
216 232 255
216 232 255
216 232 255
216 232 255
216 232 255
216 232 255
216 232 255
216 232 255
216 232 255
216 232 255
216 232 255
216 232 255
216 232 255
216 232 255
216 232 255
216 232 255
216 232 255
216 232 255
216 232 255
216 232 255
216 232 255
216 232 255
216 232 255
216 232 255
216 232 255
216 232 255
216 232 255
216 232 255
216 232 255
216 232 255
216 232 255
216 232 255
216 232 255
216 232 255
216 232 255
216 232 255
216 232 255
216 232 255
216 232 255
216 232 255
216 232 255
216 232 255
216 232 255
216 232 255
216 232 255
216 232 255
216 232 255
216 232 255
216 232 255
216 232 255
216 232 255
216 232 255
216 232 255
216 232 255
216 232 255
216 232 255
216 232 255
216 232 255
216 232 255
216 232 255
216 232 255
216 232 255
216 232 255
216 232 255
216 232 255
216 232 255
216 232 255
216 232 255
216 232 255
216 232 255
216 232 255
216 232 255
216 232 255
216 232 255
216 232 255
216 232 255
216 232 255
216 232 255
216 232 255
216 232 255
216 232 255
216 232 255
216 232 255
216 232 255
216 232 255
216 232 255
216 232 255
216 232 255
216 232 255
216 232 255
216 232 255
216 232 255
216 232 255
216 232 255
216 232 255
216 232 255
216 232 255
216 232 255
216 232 255
216 232 255
216 232 255
216 232 255
216 232 255
216 232 255
216 232 255
216 232 255
216 232 255
216 232 255
216 232 255
216 232 255
216 232 255
216 232 255
216 232 255
216 232 255
216 232 255
216 232 255
216 232 255
216 232 255
216 232 255
216 232 255
216 232 255
216 232 255
216 232 255
216 232 255
216 232 255
216 232 255
216 232 255
216 232 255
216 232 255
216 232 255
216 232 255
216 232 255
216 232 255
216 232 255
216 232 255
216 232 255
216 232 255
216 232 255
216 232 255
216 232 255
216 232 255
216 232 255
216 232 255
216 232 255
216 232 255
216 232 255
216 232 255
216 232 255
183 198 216
117 131 138
68 82 77
121 138 148
114 130 134
58 70 57
33 44 17
28 41 14
35 49 19
28 41 12
27 41 14
36 51 25
22 36 10
21 39 0
24 44 0
22 43 2
24 44 3
25 46 5
29 49 8
33 52 17
28 46 11
25 44 9
26 44 4
29 43 9
36 49 15
37 46 15
39 48 21
38 46 18
33 41 17
31 40 12
28 38 7
28 38 20
19 27 18
27 38 16
27 37 11
31 41 14
34 45 18
31 41 12
32 43 8
35 45 11
37 47 12
37 46 12
36 47 11
37 48 24
32 40 23
32 40 21
26 36 24
29 36 40
11 13 39
0 0 41
0 0 40
0 0 44
0 0 44
0 0 45
0 0 44
0 0 41
1 1 37
4 6 35
3 3 40
4 4 37
34 39 31
46 53 26
45 50 23
48 53 26
52 57 27
54 58 23
51 56 21
46 53 17
42 51 17
42 52 22
44 52 19
58 61 31
63 64 41
53 55 43
34 38 42
8 9 40
0 0 42
0 0 43
0 0 42
0 0 43
0 0 40
0 0 40
0 0 41
0 0 40
9 11 39
77 89 101
87 99 116
17 18 45
0 0 42
0 0 42
116 125 142
185 200 221
216 232 255
216 232 255
216 232 255
216 232 255
216 232 255
216 232 255
216 232 255
216 232 255
216 232 255
216 232 255
216 232 255
216 232 255
216 232 255
216 232 255
216 232 255
216 232 255
216 232 255
216 232 255
216 232 255
216 232 255
216 232 255
216 232 255
216 232 255
216 232 255
216 232 255
216 232 255
216 232 255
216 232 255
216 232 255
216 232 255
216 232 255
216 232 255
216 232 255
216 232 255
216 232 255
216 232 255
216 232 255
216 232 255
216 232 255
216 232 255
216 232 255
216 232 255
216 232 255
216 232 255
216 232 255
216 232 255
216 232 255
216 232 255
216 232 255
216 232 255
216 232 255
216 232 255
216 232 255
216 232 255
216 232 255
216 232 255
216 232 255
216 232 255
216 232 255
216 232 255
216 232 255
216 232 255
216 232 255
216 232 255
216 232 255
216 232 255
216 232 255
216 232 255
216 232 255
216 232 255
216 232 255
216 232 255
216 232 255
216 232 255
216 232 255
216 232 255
216 232 255
216 232 255
216 232 255
216 232 255
216 232 255
216 232 255
216 232 255
216 232 255
216 232 255
216 232 255
216 232 255
216 232 255
216 232 255
216 232 255
216 232 255
216 232 255
216 232 255
216 232 255
216 232 255
216 232 255
216 232 255
216 232 255
216 232 255
216 232 255
216 232 255
216 232 255
216 232 255
216 232 255
216 232 255
216 232 255
216 232 255
216 232 255
216 232 255
216 232 255
216 232 255
216 232 255
216 232 255
216 232 255
216 232 255
216 232 255
216 232 255
216 232 255
216 232 255
216 232 255
216 232 255
216 232 255
216 232 255
216 232 255
216 232 255
216 232 255
216 232 255
216 232 255
216 232 255
216 232 255
216 232 255
216 232 255
216 232 255
216 232 255
216 232 255
216 232 255
216 232 255
216 232 255
216 232 255
216 232 255
216 232 255
216 232 255
216 232 255
216 232 255
216 232 255
216 232 255
216 232 255
216 232 255
216 232 255
216 232 255
216 232 255
216 232 255
216 232 255
216 232 255
216 233 255
216 233 255
216 233 255
216 233 255
216 233 255
216 233 255
216 233 255
216 233 255
216 233 255
216 233 255
216 232 255
216 232 255
216 232 255
216 232 255
216 232 255
216 232 255
216 232 255
216 232 255
216 232 255
216 232 255
216 232 255
216 232 255
216 232 255
216 232 255
216 232 255
216 232 255
216 232 255
216 232 255
216 232 255
216 232 255
216 232 255
216 232 255
216 232 255
216 232 255
216 232 255
216 232 255
216 232 255
216 232 255
216 232 255
216 232 255
216 232 255
216 232 255
216 232 255
216 232 255
216 232 255
216 232 255
216 232 255
216 232 255
216 232 255
216 232 255
216 232 255
216 232 255
216 232 255
216 232 255
216 232 255
216 232 255
216 232 255
216 232 255
216 232 255
216 232 255
216 232 255
216 232 255
216 232 255
216 232 255
216 232 255
216 232 255
216 232 255
216 232 255
216 232 255
216 232 255
216 232 255
216 232 255
216 232 255
216 232 255
216 232 255
216 232 255
216 232 255
216 232 255
216 232 255
216 232 255
216 232 255
216 232 255
216 232 255
216 232 255
216 232 255
216 232 255
216 232 255
216 232 255
216 232 255
216 232 255
216 232 255
216 232 255
216 232 255
216 232 255
216 232 255
216 232 255
216 232 255
216 232 255
216 232 255
216 232 255
216 232 255
216 232 255
216 232 255
216 232 255
216 232 255
216 232 255
216 232 255
216 232 255
216 232 255
216 232 255
216 232 255
216 232 255
216 232 255
216 232 255
216 232 255
216 232 255
216 232 255
216 232 255
216 232 255
216 232 255
216 232 255
216 232 255
216 232 255
216 232 255
216 232 255
216 232 255
216 232 255
216 232 255
216 232 255
216 232 255
216 232 255
216 232 255
216 232 255
216 232 255
216 232 255
216 232 255
216 232 255
216 232 255
216 232 255
216 232 255
216 232 255
216 232 255
216 232 255
216 232 255
216 232 255
216 232 255
216 232 255
216 232 255
216 232 255
216 232 255
216 232 255
216 232 255
178 193 210
94 105 109
58 69 69
83 98 102
93 110 122
131 154 163
111 132 137
110 129 134
30 43 18
32 45 17
33 46 16
39 50 24
32 42 20
54 70 46
20 35 2
21 39 5
20 40 0
20 39 3
25 45 10
24 45 8
23 44 6
20 40 1
22 42 0
25 46 10
24 43 6
23 40 5
27 41 16
23 35 12
26 37 13
27 39 14
23 35 11
21 33 10
26 39 14
22 37 13
24 39 17
26 40 14
29 45 8
25 42 6
22 38 5
27 42 10
29 43 10
27 41 9
29 43 5
29 42 7
27 41 3
30 44 6
33 42 11
31 38 9
31 39 10
35 41 7
35 42 17
30 36 22
27 32 29
17 20 35
10 12 36
10 12 35
7 9 34
0 0 43
0 0 48
15 20 39
17 22 39
0 4 40
19 24 30
35 43 18
40 46 20
35 40 19
36 41 13
42 49 12
44 51 15
44 51 15
42 50 18
33 41 11
34 42 10
35 41 10
47 51 22
57 59 32
53 57 28
39 46 25
11 15 40
0 0 43
0 0 38
0 0 39
0 0 40
0 0 39
0 0 42
0 0 42
0 0 42
0 0 43
0 0 41
1 2 39
1 0 43
0 0 41
0 0 42
0 0 42
91 98 115
167 180 200
215 231 254
216 232 255
216 232 255
216 232 255
216 232 255
216 232 255
216 232 255
216 232 255
216 232 255
216 232 255
216 232 255
216 232 255
216 232 255
216 232 255
216 232 255
216 232 255
216 232 255
216 232 255
216 232 255
216 232 255
216 232 255
216 232 255
216 232 255
216 232 255
216 232 255
216 232 255
216 232 255
216 232 255
216 232 255
216 232 255
216 232 255
216 232 255
216 232 255
216 232 255
216 232 255
216 232 255
216 232 255
216 232 255
216 232 255
216 232 255
216 232 255
216 232 255
216 232 255
216 232 255
216 232 255
216 232 255
216 232 255
216 232 255
216 232 255
216 232 255
216 232 255
216 232 255
216 232 255
216 232 255
216 232 255
216 232 255
216 232 255
216 232 255
216 232 255
216 232 255
216 232 255
216 232 255
216 232 255
216 232 255
216 232 255
216 232 255
216 232 255
216 232 255
216 232 255
216 232 255
216 232 255
216 232 255
216 232 255
216 232 255
216 232 255
216 232 255
216 232 255
216 232 255
216 232 255
216 232 255
216 232 255
216 232 255
216 232 255
216 232 255
216 232 255
216 232 255
216 232 255
216 232 255
216 232 255
216 232 255
216 232 255
216 232 255
216 232 255
216 232 255
216 232 255
216 232 255
216 232 255
216 232 255
216 232 255
216 232 255
216 232 255
216 232 255
216 232 255
216 232 255
216 232 255
216 232 255
216 232 255
216 232 255
216 232 255
216 232 255
216 232 255
216 232 255
216 232 255
216 232 255
216 232 255
216 232 255
216 232 255
216 232 255
216 232 255
216 232 255
216 232 255
216 232 255
216 232 255
216 232 255
216 232 255
216 232 255
216 232 255
216 232 255
216 232 255
216 232 255
216 232 255
216 232 255
216 232 255
216 232 255
216 232 255
216 232 255
216 232 255
216 232 255
216 232 255
216 232 255
216 232 255
216 232 255
216 233 255
216 233 255
216 233 255
216 233 255
216 233 255
216 233 255
216 233 255
216 233 255
216 233 255
216 233 255
216 233 255
216 233 255
216 233 255
216 233 255
216 233 255
216 233 255
216 233 255
216 233 255
216 233 255
216 233 255
216 233 255
216 233 255
216 233 255
216 233 255
216 233 255
216 233 255
216 233 255
216 233 255
216 233 255
216 233 255
216 233 255
216 233 255
216 233 255
216 233 255
216 233 255
216 233 255
216 233 255
216 233 255
216 233 255
216 233 255
216 233 255
216 233 255
216 233 255
216 233 255
216 232 255
216 232 255
216 232 255
216 232 255
216 232 255
216 232 255
216 232 255
216 232 255
216 232 255
216 232 255
216 232 255
216 232 255
216 232 255
216 232 255
216 232 255
216 232 255
216 232 255
216 232 255
216 232 255
216 232 255
216 232 255
216 232 255
216 232 255
216 232 255
216 232 255
216 232 255
216 232 255
216 232 255
216 232 255
216 232 255
216 232 255
216 232 255
216 232 255
216 232 255
216 232 255
216 232 255
216 232 255
216 232 255
216 232 255
216 232 255
216 232 255
216 232 255
216 232 255
216 232 255
216 232 255
216 232 255
216 232 255
216 232 255
216 232 255
216 232 255
216 232 255
216 232 255
216 232 255
216 232 255
216 232 255
216 232 255
216 232 255
216 232 255
216 232 255
216 232 255
216 232 255
216 232 255
216 232 255
216 232 255
216 232 255
216 232 255
216 232 255
216 232 255
216 232 255
216 232 255
216 232 255
216 232 255
216 232 255
216 232 255
216 232 255
216 232 255
216 232 255
216 232 255
216 232 255
216 232 255
216 232 255
216 232 255
216 232 255
216 232 255
216 232 255
216 232 255
216 232 255
216 232 255
216 232 255
216 232 255
216 232 255
216 232 255
216 232 255
216 232 255
216 232 255
216 232 255
216 232 255
216 232 255
216 232 255
216 232 255
216 232 255
216 232 255
216 232 255
216 232 255
216 232 255
216 232 255
216 232 255
216 232 255
216 232 255
216 232 255
216 232 255
216 232 255
216 232 255
216 232 255
216 232 255
216 232 255
183 198 217
112 124 136
32 40 53
2 4 41
1 1 41
1 1 40
49 61 69
21 33 27
115 136 144
81 96 91
50 66 45
44 58 32
39 53 27
29 41 15
22 36 9
20 36 7
27 47 10
37 59 18
36 58 15
41 64 19
42 65 25
20 40 5
23 42 8
21 41 1
24 45 6
22 42 6
22 41 4
26 44 7
27 44 15
20 36 9
21 37 12
24 40 14
17 30 9
23 37 12
17 31 5
19 33 3
19 35 3
23 40 8
28 45 12
23 41 4
25 43 6
25 42 10
25 40 10
18 32 6
20 34 11
23 37 18
22 37 8
23 37 8
27 41 7
26 38 0
28 40 2
28 38 0
31 38 0
30 37 0
32 40 5
33 41 18
33 42 23
35 45 19
35 47 26
25 31 33
3 0 42
1 2 37
21 25 37
28 33 31
38 45 25
38 45 16
36 42 9
36 44 14
34 43 14
34 42 17
32 40 14
36 43 13
36 43 16
38 45 17
39 47 19
35 42 7
33 40 5
45 53 20
42 48 16
48 54 20
39 45 17
25 32 25
15 19 44
0 0 43
0 0 43
0 0 41
0 0 42
0 0 42
0 0 42
0 0 42
0 0 42
0 0 42
0 0 42
0 0 42
0 0 41
0 0 42
0 0 42
0 0 42
94 101 117
180 194 215
216 232 255
216 232 255
216 232 255
216 232 255
216 232 255
216 232 255
216 232 255
216 232 255
216 232 255
216 232 255
216 232 255
216 232 255
216 232 255
216 232 255
216 232 255
216 232 255
216 232 255
216 232 255
216 232 255
216 232 255
216 232 255
216 232 255
216 232 255
216 232 255
216 232 255
216 232 255
216 232 255
216 232 255
216 232 255
216 232 255
216 232 255
216 232 255
216 232 255
216 232 255
216 232 255
216 232 255
216 232 255
216 232 255
216 232 255
216 232 255
216 232 255
216 232 255
216 232 255
216 232 255
216 232 255
216 232 255
216 232 255
216 232 255
216 232 255
216 232 255
216 232 255
216 232 255
216 232 255
216 232 255
216 232 255
216 232 255
216 232 255
216 232 255
216 232 255
216 232 255
216 232 255
216 232 255
216 232 255
216 232 255
216 232 255
216 232 255
216 232 255
216 232 255
216 232 255
216 232 255
216 232 255
216 232 255
216 232 255
216 232 255
216 232 255
216 232 255
216 232 255
216 232 255
216 232 255
216 232 255
216 232 255
216 232 255
216 232 255
216 232 255
216 232 255
216 232 255
216 232 255
216 232 255
216 232 255
216 232 255
216 232 255
216 232 255
216 232 255
216 232 255
216 232 255
216 232 255
216 232 255
216 232 255
216 232 255
216 232 255
216 232 255
216 232 255
216 232 255
216 232 255
216 232 255
216 232 255
216 232 255
216 232 255
216 232 255
216 232 255
216 232 255
216 232 255
216 232 255
216 232 255
216 232 255
216 232 255
216 233 255
216 233 255
216 233 255
216 233 255
216 233 255
216 233 255
216 233 255
216 233 255
216 233 255
216 233 255
216 233 255
216 233 255
216 233 255
216 233 255
216 233 255
216 233 255
216 233 255
216 233 255
216 233 255
216 233 255
216 233 255
216 233 255
216 233 255
216 233 255
216 233 255
216 233 255
216 233 255
216 233 255
216 233 255
216 233 255
216 233 255
216 233 255
216 233 255
216 233 255
216 233 255
216 233 255
216 233 255
216 233 255
216 233 255
216 233 255
216 233 255
216 233 255
216 233 255
216 233 255
216 233 255
216 233 255
216 233 255
216 233 255
216 233 255
216 233 255
216 233 255
216 233 255
216 233 255
216 233 255
216 233 255
216 233 255
216 233 255
216 233 255
216 233 255
216 233 255
216 233 255
216 233 255
216 233 255
216 233 255
216 233 255
216 233 255
216 233 255
216 233 255
216 233 255
216 233 255
216 233 255
216 233 255
216 233 255
216 233 255
216 233 255
216 233 255
216 233 255
216 233 255
216 233 255
216 233 255
216 233 255
216 233 255
216 233 255
216 233 255
216 233 255
216 233 255
216 233 255
216 233 255
216 233 255
216 233 255
216 233 255
216 233 255
216 233 255
216 233 255
216 233 255
216 233 255
216 233 255
216 233 255
216 232 255
216 233 255
216 232 255
216 232 255
216 232 255
216 232 255
216 232 255
216 232 255
216 232 255
216 232 255
216 232 255
216 232 255
216 232 255
216 232 255
216 232 255
216 232 255
216 232 255
216 232 255
216 232 255
216 232 255
216 232 255
216 232 255
216 232 255
216 232 255
216 232 255
216 232 255
216 232 255
216 232 255
216 232 255
216 232 255
216 232 255
216 232 255
216 232 255
216 232 255
216 232 255
216 232 255
216 232 255
216 232 255
216 232 255
216 232 255
216 232 255
216 232 255
216 232 255
216 232 255
216 232 255
216 232 255
216 232 255
216 232 255
216 232 255
216 232 255
216 232 255
216 232 255
216 232 255
216 232 255
216 232 255
216 232 255
216 232 255
216 232 255
216 232 255
216 232 255
216 232 255
216 232 255
216 232 255
216 232 255
216 232 255
216 232 255
216 232 255
216 232 255
216 232 255
216 232 255
216 232 255
216 232 255
216 232 255
216 232 255
216 232 255
216 232 255
216 232 255
216 232 255
216 232 255
216 232 255
216 232 255
216 232 255
216 232 255
216 232 255
181 196 213
111 120 134
7 11 40
1 0 42
0 0 42
0 0 40
0 0 39
11 15 32
25 38 36
26 44 27
84 106 95
69 87 80
40 55 37
31 46 27
20 32 9
17 31 1
19 35 6
15 31 3
20 38 3
33 52 16
32 52 11
30 48 8
27 46 11
28 46 9
39 59 20
39 59 17
37 58 16
38 58 20
30 49 12
35 54 19
30 49 17
26 46 11
20 37 8
23 40 9
28 44 16
28 45 11
32 50 15
32 48 16
32 49 20
34 53 18
27 50 15
19 43 15
23 46 13
24 41 7
27 41 5
23 38 11
17 31 7
23 39 7
24 39 4
25 41 10
21 35 3
23 37 6
20 35 5
25 39 6
30 41 10
30 39 8
30 36 0
30 38 0
33 42 0
32 41 5
27 38 7
24 32 23
10 15 35
2 4 37
7 9 37
31 40 19
37 46 12
30 35 22
27 36 12
30 39 15
34 43 13
31 41 11
27 37 15
25 34 7
31 38 13
29 36 9
29 36 7
30 36 7
41 48 19
27 34 7
32 39 16
37 41 20
46 54 28
41 50 23
31 40 14
25 33 20
21 27 27
12 16 41
1 1 43
0 0 40
0 0 42
0 0 42
0 0 42
0 0 42
0 0 42
0 0 42
0 0 42
0 0 42
0 0 42
0 0 42
0 0 42
0 0 42
105 114 130
190 205 226
216 232 255
216 232 255
216 232 255
216 232 255
216 232 255
216 232 255
216 232 255
216 232 255
216 232 255
216 232 255
216 232 255
216 232 255
216 232 255
216 232 255
216 232 255
216 232 255
216 232 255
216 232 255
216 232 255
216 232 255
216 232 255
216 232 255
216 232 255
216 232 255
216 232 255
216 232 255
216 232 255
216 232 255
216 232 255
216 232 255
216 232 255
216 232 255
216 232 255
216 232 255
216 232 255
216 232 255
216 232 255
216 232 255
216 232 255
216 232 255
216 232 255
216 232 255
216 232 255
216 232 255
216 232 255
216 232 255
216 232 255
216 232 255
216 232 255
216 232 255
216 232 255
216 232 255
216 232 255
216 232 255
216 232 255
216 232 255
216 232 255
216 232 255
216 232 255
216 232 255
216 232 255
216 232 255
216 232 255
216 232 255
216 232 255
216 232 255
216 232 255
216 232 255
216 232 255
216 232 255
216 232 255
216 232 255
216 232 255
216 232 255
216 232 255
216 232 255
216 232 255
216 232 255
216 232 255
216 232 255
216 232 255
216 232 255
216 232 255
216 232 255
216 233 255
216 233 255
216 233 255
216 233 255
216 233 255
216 233 255
216 233 255
216 233 255
216 233 255
216 233 255
216 233 255
216 233 255
216 233 255
216 233 255
216 233 255
216 233 255
216 233 255
216 233 255
216 233 255
216 233 255
216 233 255
216 233 255
216 233 255
216 233 255
216 233 255
216 233 255
216 233 255
216 233 255
216 233 255
216 233 255
216 233 255
216 233 255
216 233 255
216 233 255
216 233 255
216 233 255
216 233 255
216 233 255
216 233 255
216 233 255
216 233 255
216 233 255
216 233 255
216 233 255
216 233 255
216 233 255
216 233 255
216 233 255
216 233 255
216 233 255
216 233 255
216 233 255
216 233 255
216 233 255
216 233 255
216 233 255
216 233 255
216 233 255
216 233 255
216 233 255
216 233 255
216 233 255
216 233 255
216 233 255
216 233 255
216 233 255
216 233 255
216 233 255
216 233 255
216 233 255
216 233 255
216 233 255
216 233 255
216 233 255
216 233 255
216 233 255
216 233 255
216 233 255
216 233 255
216 233 255
216 233 255
216 233 255
216 233 255
216 233 255
216 233 255
216 233 255
216 233 255
216 233 255
216 233 255
216 233 255
216 233 255
216 233 255
216 233 255
216 233 255
216 233 255
216 233 255
216 233 255
216 233 255
216 233 255
216 233 255
216 233 255
216 233 255
216 233 255
216 233 255
216 233 255
216 233 255
216 233 255
216 233 255
216 233 255
216 233 255
216 233 255
216 233 255
216 233 255
216 233 255
216 233 255
216 233 255
216 233 255
216 233 255
216 233 255
216 233 255
216 233 255
216 233 255
216 233 255
216 233 255
216 233 255
216 233 255
216 233 255
216 233 255
216 233 255
216 233 255
216 233 255
216 233 255
216 233 255
216 233 255
216 233 255
216 233 255
216 233 255
216 233 255
216 233 255
216 233 255
216 233 255
216 233 255
216 233 255
216 233 255
216 233 255
216 233 255
216 233 255
216 233 255
216 233 255
216 233 255
216 233 255
216 233 255
216 233 255
216 233 255
216 233 255
216 233 255
216 233 255
216 233 255
216 233 255
216 233 255
216 233 255
216 233 255
216 233 255
216 233 255
216 233 255
216 233 255
216 232 255
216 233 255
216 232 255
216 232 255
216 232 255
216 232 255
216 232 255
216 232 255
216 232 255
216 232 255
216 232 255
216 232 255
216 232 255
216 232 255
216 232 255
216 232 255
216 232 255
216 232 255
216 232 255
216 232 255
216 232 255
216 232 255
216 232 255
216 232 255
216 232 255
216 232 255
216 232 255
216 232 255
216 232 255
216 232 255
216 232 255
216 232 255
216 232 255
216 232 255
216 232 255
216 232 255
216 232 255
216 232 255
216 232 255
216 232 255
216 232 255
216 232 255
216 232 255
216 232 255
205 221 243
116 128 136
26 34 46
0 0 42
0 0 42
0 0 41
0 0 46
0 0 39
0 0 37
9 21 26
11 24 21
42 60 46
45 63 47
28 44 20
18 33 9
18 33 10
17 32 5
16 35 6
19 36 11
36 52 28
26 38 15
22 35 1
23 38 5
24 41 5
36 55 15
43 64 19
47 70 27
49 73 25
49 71 26
56 76 36
59 78 39
57 76 37
55 73 33
58 74 36
59 74 36
58 75 37
52 71 33
45 65 26
30 48 16
29 47 11
32 49 18
24 45 14
22 48 10
14 41 5
22 43 8
29 43 8
30 43 8
26 40 8
26 41 9
23 38 7
24 39 7
22 37 5
21 36 5
22 37 6
18 35 0
21 37 0
20 34 0
21 33 0
27 36 0
27 36 2
29 38 10
31 40 10
30 41 5
38 51 22
45 57 36
28 37 33
0 1 40
13 16 30
38 49 25
37 49 17
29 39 13
31 41 11
30 41 5
32 44 10
30 40 9
30 42 2
27 39 9
29 37 5
34 41 13
30 37 8
28 37 6
32 42 12
26 38 8
22 31 9
23 31 14
28 40 3
28 40 7
31 42 16
31 41 17
28 38 27
16 25 28
2 5 35
0 0 41
0 0 42
0 0 42
0 0 42
0 0 42
0 0 42
0 0 42
0 0 42
0 0 42
0 0 42
0 0 42
0 0 42
0 0 42
0 0 42
108 116 133
201 217 239
216 232 255
216 232 255
216 232 255
216 232 255
216 232 255
216 232 255
216 232 255
216 232 255
216 232 255
216 232 255
216 232 255
216 232 255
216 232 255
216 232 255
216 232 255
216 232 255
216 232 255
216 232 255
216 232 255
216 232 255
216 232 255
216 232 255
216 232 255
216 232 255
216 232 255
216 232 255
216 232 255
216 232 255
216 232 255
216 232 255
216 232 255
216 232 255
216 232 255
216 232 255
216 232 255
216 232 255
216 232 255
216 232 255
216 232 255
216 232 255
216 232 255
216 232 255
216 232 255
216 232 255
216 233 255
216 233 255
216 233 255
216 233 255
216 233 255
216 233 255
216 233 255
216 233 255
216 233 255
216 233 255
216 233 255
216 233 255
216 233 255
216 233 255
216 233 255
216 233 255
216 233 255
216 233 255
216 233 255
216 233 255
216 233 255
216 233 255
216 233 255
216 233 255
216 233 255
216 233 255
216 233 255
216 233 255
216 233 255
216 233 255
216 233 255
216 233 255
216 233 255
216 233 255
216 233 255
216 233 255
216 233 255
216 233 255
216 233 255
216 233 255
216 233 255
216 233 255
216 233 255
216 233 255
216 233 255
216 233 255
216 233 255
216 233 255
216 233 255
216 233 255
216 233 255
216 233 255
216 233 255
216 233 255
216 233 255
216 233 255
216 233 255
216 233 255
216 233 255
216 233 255
216 233 255
216 233 255
216 233 255
216 233 255
216 233 255
216 233 255
216 233 255
216 233 255
216 233 255
216 233 255
216 233 255
216 233 255
216 233 255
216 233 255
216 233 255
216 233 255
216 233 255
216 233 255
216 233 255
216 233 255
216 233 255
216 233 255
216 233 255
216 233 255
216 233 255
216 233 255
216 233 255
216 233 255
216 233 255
216 233 255
216 233 255
216 233 255
216 233 255
216 233 255
216 233 255
216 233 255
216 233 255
216 233 255
216 233 255
216 233 255
216 233 255
216 233 255
216 233 255
216 233 255
216 233 255
216 233 255
216 233 255
216 233 255
216 233 255
216 233 255
216 233 255
216 233 255
216 233 255
216 233 255
216 233 255
216 233 255
216 233 255
216 233 255
216 233 255
216 233 255
216 233 255
216 233 255
216 233 255
216 233 255
216 233 255
216 233 255
216 233 255
216 233 255
216 233 255
216 233 255
216 233 255
216 233 255
216 233 255
216 233 255
216 233 255
216 233 255
216 233 255
216 233 255
216 233 255
216 233 255
216 233 255
216 233 255
216 233 255
216 233 255
216 233 255
216 233 255
216 233 255
216 233 255
216 233 255
216 233 255
216 233 255
216 233 255
216 233 255
216 233 255
216 233 255
216 233 255
216 233 255
216 233 255
216 233 255
216 233 255
216 233 255
216 233 255
216 233 255
216 233 255
216 233 255
216 233 255
216 233 255
216 233 255
216 233 255
216 233 255
216 233 255
216 233 255
216 233 255
216 233 255
216 233 255
216 233 255
216 233 255
216 233 255
216 233 255
216 233 255
216 233 255
216 233 255
216 233 255
216 233 255
216 233 255
216 233 255
216 233 255
216 233 255
216 233 255
216 233 255
216 233 255
216 233 255
216 233 255
216 233 255
216 233 255
216 233 255
216 233 255
216 233 255
216 233 255
216 233 255
216 233 255
216 233 255
216 233 255
216 233 255
216 233 255
216 233 255
216 233 255
216 233 255
216 233 255
216 233 255
216 233 255
216 233 255
216 233 255
216 233 255
216 233 255
216 233 255
216 233 255
216 233 255
216 233 255
216 233 255
216 233 255
216 233 255
216 233 255
216 233 255
216 233 255
216 233 255
216 233 255
216 233 255
216 233 255
216 233 255
216 233 255
216 233 255
216 233 255
216 233 255
216 233 255
216 233 255
216 233 255
216 233 255
216 233 255
216 233 255
216 233 255
216 233 255
216 233 255
216 233 255
216 233 255
216 233 255
201 217 238
134 145 160
37 43 55
1 1 41
0 0 42
0 0 42
0 0 39
0 0 42
0 0 44
2 5 40
13 20 37
7 13 34
26 41 30
48 67 52
47 62 49
17 29 11
18 30 6
22 36 9
18 36 4
15 33 3
53 71 53
39 52 35
50 61 40
46 60 38
17 32 9
25 44 8
40 62 18
45 69 20
55 74 31
64 77 39
70 78 43
81 88 54
82 91 53
75 83 45
75 82 44
80 88 51
74 84 47
65 78 37
61 78 37
46 66 27
45 66 25
38 58 22
34 57 19
29 51 9
25 49 8
27 52 11
35 53 17
27 39 10
31 44 11
23 36 0
17 31 0
19 33 6
18 32 4
14 28 0
15 29 4
17 31 3
17 35 0
16 33 5
17 33 6
21 35 3
22 37 0
24 39 0
27 40 0
30 42 5
29 39 0
32 42 3
33 42 6
30 38 22
14 19 23
27 34 29
33 42 17
31 42 9
31 42 11
31 44 6
29 40 5
28 39 9
29 40 7
30 41 6
30 43 9
31 41 7
36 46 15
32 40 8
31 40 7
31 42 5
22 34 0
23 33 11
23 33 12
27 39 10
27 40 13
22 36 3
17 30 11
25 41 18
19 35 4
22 37 12
21 34 28
8 12 38
0 0 43
0 0 42
0 0 42
0 0 42
0 0 42
0 0 42
0 0 42
0 0 42
0 0 42
0 0 42
0 0 42
0 0 42
0 0 42
21 23 49
120 129 146
207 223 245
216 233 255
216 233 255
216 233 255
216 233 255
216 233 255
216 233 255
216 233 255
216 233 255
216 233 255
216 233 255
216 233 255
216 233 255
216 233 255
216 233 255
216 233 255
216 233 255
216 233 255
216 233 255
216 233 255
216 233 255
216 233 255
216 233 255
216 233 255
216 233 255
216 233 255
216 233 255
216 233 255
216 233 255
216 233 255
216 233 255
216 233 255
216 233 255
216 233 255
216 233 255
216 233 255
216 233 255
216 233 255
216 233 255
216 233 255
216 233 255
216 233 255
216 233 255
216 233 255
216 233 255
216 233 255
216 233 255
216 233 255
216 233 255
216 233 255
216 233 255
216 233 255
216 233 255
216 233 255
216 233 255
216 233 255
216 233 255
216 233 255
216 233 255
216 233 255
216 233 255
216 233 255
216 233 255
216 233 255
216 233 255
216 233 255
216 233 255
216 233 255
216 233 255
216 233 255
216 233 255
216 233 255
216 233 255
216 233 255
216 233 255
216 233 255
216 233 255
216 233 255
216 233 255
216 233 255
216 233 255
216 233 255
216 233 255
216 233 255
216 233 255
216 233 255
216 233 255
216 233 255
216 233 255
216 233 255
216 233 255
216 233 255
216 233 255
216 233 255
216 233 255
216 233 255
216 233 255
216 233 255
216 233 255
216 233 255
216 233 255
216 233 255
216 233 255
216 233 255
216 233 255
216 233 255
216 233 255
216 233 255
216 233 255
216 233 255
216 233 255
216 233 255
216 233 255
216 233 255
216 233 255
216 233 255
216 233 255
216 233 255
216 233 255
216 233 255
216 233 255
216 233 255
216 233 255
216 233 255
216 233 255
216 233 255
216 233 255
216 233 255
216 233 255
216 233 255
216 233 255
216 233 255
216 233 255
216 233 255
216 233 255
216 233 255
216 233 255
216 233 255
216 233 255
216 233 255
216 233 255
216 233 255
216 233 255
216 233 255
216 233 255
216 233 255
216 233 255
216 233 255
216 233 255
216 233 255
216 233 255
216 233 255
216 233 255
216 233 255
216 233 255
216 233 255
216 233 255
216 233 255
216 233 255
216 233 255
216 233 255
216 233 255
216 233 255
216 233 255
216 233 255
216 233 255
216 233 255
216 233 255
216 233 255
216 233 255
216 233 255
216 233 255
216 233 255
216 233 255
216 233 255
216 233 255
216 233 255
216 233 255
216 233 255
216 233 255
216 233 255
216 233 255
216 233 255
216 233 255
216 233 255
216 233 255
216 233 255
216 233 255
216 233 255
216 233 255
216 233 255
216 233 255
216 233 255
216 233 255
216 233 255
216 233 255
216 233 255
216 233 255
216 233 255
216 233 255
216 233 255
216 233 255
216 233 255
216 233 255
216 233 255
216 233 255
216 233 255
216 233 255
216 233 255
216 233 255
216 233 255
216 233 255
216 233 255
216 233 255
216 233 255
216 233 255
216 233 255
216 233 255
216 233 255
216 233 255
216 233 255
216 233 255
216 233 255
216 233 255
216 233 255
216 233 255
216 233 255
216 233 255
216 233 255
216 233 255
216 233 255
216 233 255
216 233 255
216 233 255
216 233 255
216 233 255
216 233 255
216 233 255
216 233 255
216 233 255
216 233 255
216 233 255
216 233 255
216 233 255
216 233 255
216 233 255
216 233 255
216 233 255
216 233 255
216 233 255
216 233 255
216 233 255
216 233 255
216 233 255
216 233 255
216 233 255
216 233 255
216 233 255
216 233 255
216 233 255
216 233 255
216 233 255
216 233 255
216 233 255
216 233 255
216 233 255
216 233 255
216 233 255
216 233 255
216 233 255
216 233 255
216 233 255
216 233 255
216 233 255
216 233 255
216 233 255
216 233 255
216 233 255
216 233 255
216 233 255
216 233 255
216 233 255
216 233 255
216 233 255
216 233 255
216 233 255
216 233 255
215 231 254
177 191 210
72 79 94
3 4 41
0 0 42
0 0 42
0 0 42
0 0 43
0 0 39
0 0 41
0 0 38
12 21 30
8 13 32
8 15 30
16 29 14
63 80 67
41 53 41
30 41 14
36 47 18
27 41 4
21 36 3
16 31 5
28 40 21
52 63 49
61 72 57
67 80 62
43 54 31
39 52 20
55 71 30
71 85 43
84 88 56
92 91 62
99 97 69
105 103 73
104 103 69
94 96 66
83 87 57
81 87 55
71 81 47
67 80 43
56 74 32
53 74 30
49 73 27
44 70 23
37 62 17
39 64 18
35 59 15
35 58 14
42 63 19
32 49 6
33 48 10
25 39 2
25 41 10
23 38 10
21 36 13
19 32 8
16 30 6
13 26 0
15 30 2
19 34 18
21 35 18
19 35 4
24 42 6
21 38 5
22 38 0
25 41 0
27 42 5
28 43 1
29 44 0
26 42 2
30 46 12
35 47 23
31 45 7
27 40 5
24 37 8
23 36 0
25 37 8
27 39 13
27 38 16
20 30 9
22 34 8
27 40 5
25 36 8
32 43 17
20 29 5
19 30 6
22 36 8
23 36 3
27 40 7
29 43 13
24 37 4
23 39 8
18 34 4
21 37 2
24 40 18
20 37 7
26 42 14
22 35 17
7 11 41
0 0 42
0 0 42
0 0 42
0 0 42
0 0 42
0 0 42
0 0 42
0 0 42
0 0 42
0 0 42
0 0 42
0 0 42
0 0 42
0 0 42
61 65 83
178 192 212
216 233 255
216 233 255
216 233 255
216 233 255
216 233 255
216 233 255
216 233 255
216 233 255
216 233 255
216 233 255
216 233 255
216 233 255
216 233 255
216 233 255
216 233 255
216 233 255
216 233 255
216 233 255
216 233 255
216 233 255
216 233 255
216 233 255
216 233 255
216 233 255
216 233 255
216 233 255
216 233 255
216 233 255
216 233 255
216 233 255
216 233 255
216 233 255
216 233 255
216 233 255
216 233 255
216 233 255
216 233 255
216 233 255
216 233 255
216 233 255
216 233 255
216 233 255
216 233 255
216 233 255
216 233 255
216 233 255
216 233 255
216 233 255
216 233 255
216 233 255
216 233 255
216 233 255
216 233 255
216 233 255
216 233 255
216 233 255
216 233 255
216 233 255
216 233 255
216 233 255
216 233 255
216 233 255
216 233 255
216 233 255
216 233 255
216 233 255
216 233 255
216 233 255
216 233 255
216 233 255
216 233 255
216 233 255
216 233 255
216 233 255
216 233 255
216 233 255
216 233 255
216 233 255
216 233 255
216 233 255
216 233 255
216 233 255
216 233 255
216 233 255
216 233 255
216 233 255
216 233 255
216 233 255
216 233 255
216 233 255
216 233 255
216 233 255
216 233 255
216 233 255
216 233 255
216 233 255
216 233 255
216 233 255
216 233 255
216 233 255
216 233 255
216 233 255
216 233 255
216 233 255
216 233 255
216 233 255
216 233 255
216 233 255
216 233 255
216 233 255
216 233 255
216 233 255
216 233 255
216 233 255
216 233 255
216 233 255
216 233 255
216 233 255
216 233 255
216 233 255
216 233 255
216 233 255
216 233 255
216 233 255
216 233 255
216 233 255
216 233 255
216 233 255
216 233 255
216 233 255
216 233 255
216 233 255
216 233 255
216 233 255
216 233 255
216 233 255
216 233 255
216 233 255
216 233 255
216 233 255
216 233 255
216 233 255
216 233 255
216 233 255
216 233 255
216 233 255
216 233 255
216 233 255
216 233 255
216 233 255
216 233 255
216 233 255
216 233 255
216 233 255
216 233 255
216 233 255
216 233 255
216 233 255
216 233 255
216 233 255
216 233 255
216 233 255
216 233 255
216 233 255
216 233 255
216 233 255
216 233 255
216 233 255
216 233 255
216 233 255
216 233 255
216 233 255
216 233 255
216 233 255
216 233 255
216 233 255
216 233 255
216 233 255
216 233 255
216 233 255
216 233 255
216 233 255
216 233 255
216 233 255
216 233 255
216 233 255
216 233 255
216 233 255
216 233 255
216 233 255
216 233 255
216 233 255
216 233 255
216 233 255
216 233 255
216 233 255
216 233 255
216 233 255
216 233 255
216 233 255
216 233 255
216 233 255
216 233 255
216 233 255
216 233 255
216 233 255
216 233 255
216 233 255
216 233 255
216 233 255
216 233 255
216 233 255
216 233 255
216 233 255
216 233 255
216 233 255
216 233 255
216 233 255
216 233 255
216 233 255
216 233 255
216 233 255
216 233 255
216 233 255
216 233 255
216 233 255
216 233 255
216 233 255
216 233 255
216 233 255
216 233 255
216 233 255
216 233 255
216 233 255
216 233 255
216 233 255
216 233 255
216 233 255
216 233 255
216 233 255
216 233 255
216 233 255
216 233 255
216 233 255
216 233 255
216 233 255
216 233 255
216 233 255
216 233 255
216 233 255
216 233 255
216 233 255
216 233 255
216 233 255
216 233 255
216 233 255
216 233 255
216 233 255
216 233 255
216 233 255
216 233 255
216 233 255
216 233 255
216 233 255
216 233 255
216 233 255
216 233 255
216 233 255
216 233 255
216 233 255
216 233 255
216 233 255
216 233 255
216 233 255
216 233 255
216 233 255
216 233 255
216 233 255
216 233 255
216 233 255
216 233 255
216 233 255
216 233 255
216 233 255
196 211 232
102 111 125
0 0 43
0 0 41
0 0 42
0 0 42
0 0 42
0 0 42
0 0 42
0 0 41
0 0 43
0 0 39
10 12 39
0 0 45
7 13 30
32 47 32
101 124 117
76 90 84
56 66 58
31 40 15
32 43 17
26 39 13
21 34 8
23 36 19
37 48 32
47 56 39
32 39 15
37 46 20
61 70 39
82 89 52
88 91 56
93 93 63
100 98 70
106 104 76
96 94 63
97 99 66
86 92 59
82 90 57
77 86 51
60 74 34
57 74 31
56 75 30
44 66 19
44 69 20
45 72 21
47 74 25
44 68 20
43 69 22
41 66 15
48 72 19
39 59 11
33 50 11
23 37 8
23 38 6
25 41 5
26 41 8
22 37 3
23 38 7
19 34 6
23 38 13
19 29 14
18 30 16
23 39 7
24 42 0
23 41 0
22 41 5
22 43 3
19 40 0
23 43 4
22 41 4
24 43 4
24 41 8
26 41 12
31 47 5
27 43 2
26 42 12
25 44 0
27 45 0
23 39 3
23 39 7
28 44 17
27 43 8
25 41 3
21 36 6
21 34 2
26 40 17
16 31 8
16 31 9
18 32 6
18 32 8
19 34 10
21 35 14
22 37 12
17 32 8
22 37 11
17 32 8
21 37 13
18 29 21
23 32 30
17 27 24
3 6 44
0 0 42
0 0 42
0 0 42
0 0 42
0 0 42
0 0 42
0 0 42
0 0 42
0 0 42
0 0 42
0 0 42
0 0 42
0 0 42
0 0 42
0 0 42
116 125 142
200 216 237
216 233 255
216 233 255
216 233 255
216 233 255
216 233 255
216 233 255
216 233 255
216 233 255
216 233 255
216 233 255
216 233 255
216 233 255
216 233 255
216 233 255
216 233 255
216 233 255
216 233 255
216 233 255
216 233 255
216 233 255
216 233 255
216 233 255
216 233 255
216 233 255
216 233 255
216 233 255
216 233 255
216 233 255
216 233 255
216 233 255
216 233 255
216 233 255
216 233 255
216 233 255
216 233 255
216 233 255
216 233 255
216 233 255
216 233 255
216 233 255
216 233 255
216 233 255
216 233 255
216 233 255
216 233 255
216 233 255
216 233 255
216 233 255
216 233 255
216 233 255
216 233 255
216 233 255
216 233 255
216 233 255
216 233 255
216 233 255
216 233 255
216 233 255
216 233 255
216 233 255
216 233 255
216 233 255
216 233 255
216 233 255
216 233 255
216 233 255
216 233 255
216 233 255
216 233 255
216 233 255
216 233 255
216 233 255
216 233 255
216 233 255
216 233 255
216 233 255
216 233 255
216 233 255
216 233 255
216 233 255
216 233 255
216 233 255
216 233 255
216 233 255
216 233 255
216 233 255
216 233 255
216 233 255
216 233 255
216 233 255
216 233 255
216 233 255
216 233 255
216 233 255
216 233 255
216 233 255
216 233 255
216 233 255
216 233 255
216 233 255
216 233 255
216 233 255
216 233 255
216 233 255
216 233 255
216 233 255
216 233 255
216 233 255
216 233 255
216 233 255
216 233 255
216 233 255
216 233 255
216 233 255
216 233 255
216 233 255
216 233 255
216 233 255
216 233 255
216 233 255
216 233 255
216 233 255
216 233 255
216 233 255
216 233 255
216 233 255
216 233 255
216 233 255
216 233 255
216 233 255
216 233 255
216 233 255
216 233 255
216 233 255
216 233 255
216 233 255
216 233 255
216 233 255
216 233 255
216 233 255
216 233 255
216 233 255
216 233 255
216 233 255
216 233 255
216 233 255
216 233 255
216 233 255
216 233 255
216 233 255
216 233 255
216 233 255
216 233 255
216 233 255
216 233 255
216 233 255
216 233 255
216 233 255
216 233 255
216 233 255
216 233 255
216 233 255
216 233 255
216 233 255
216 233 255
216 233 255
216 233 255
216 233 255
216 233 255
216 233 255
216 233 255
216 233 255
216 233 255
216 233 255
216 233 255
216 233 255
216 233 255
216 233 255
216 233 255
216 233 255
216 233 255
216 233 255
216 233 255
216 233 255
216 233 255
216 233 255
216 233 255
216 233 255
216 233 255
216 233 255
216 233 255
216 233 255
216 233 255
216 233 255
216 233 255
216 233 255
216 233 255
216 233 255
216 233 255
216 233 255
216 233 255
216 233 255
216 233 255
216 233 255
216 233 255
216 233 255
216 233 255
216 233 255
216 233 255
216 233 255
216 233 255
216 233 255
216 233 255
216 233 255
216 233 255
216 233 255
216 233 255
216 233 255
216 233 255
216 233 255
216 233 255
216 233 255
216 233 255
216 233 255
216 233 255
216 233 255
216 233 255
216 233 255
216 233 255
216 233 255
216 233 255
216 233 255
216 233 255
216 233 255
216 233 255
216 233 255
216 233 255
216 233 255
216 233 255
216 233 255
216 233 255
216 233 255
216 233 255
216 233 255
216 233 255
216 233 255
216 233 255
216 233 255
216 233 255
216 233 255
216 233 255
216 233 255
216 233 255
216 233 255
216 233 255
216 233 255
216 233 255
216 233 255
216 233 255
216 233 255
216 233 255
216 233 255
216 233 255
216 233 255
216 233 255
216 233 255
216 233 255
216 233 255
216 233 255
216 233 255
216 233 255
216 233 255
216 233 255
216 233 255
216 233 255
216 233 255
216 233 255
216 233 255
216 233 255
216 233 255
215 231 254
156 168 187
31 33 55
0 0 42
0 0 42
0 0 42
0 0 42
0 0 42
0 0 42
0 0 42
0 0 42
0 0 42
0 0 39
0 0 41
0 0 42
11 16 37
14 27 17
21 33 23
44 54 51
81 95 94
66 80 73
30 40 22
31 41 14
30 42 17
23 39 10
19 33 11
19 31 9
36 47 24
30 41 12
42 53 25
78 86 54
91 94 60
104 105 71
104 103 72
94 91 62
97 96 68
99 101 71
90 92 64
85 90 61
74 83 50
71 83 44
68 82 41
62 76 34
55 73 27
49 72 23
51 77 25
49 73 24
44 64 20
50 71 26
47 72 21
46 69 29
43 66 22
40 61 16
35 54 20
25 39 18
29 48 14
22 39 10
27 43 16
20 35 6
23 40 5
21 39 4
26 45 11
28 47 12
22 36 14
18 30 25
23 38 16
26 43 9
24 41 4
24 42 6
27 47 8
27 49 7
24 46 10
23 46 3
25 47 6
31 49 13
33 52 14
27 46 4
28 48 0
23 46 5
26 44 11
26 42 8
21 37 4
25 42 8
25 43 10
25 43 9
23 41 5
19 36 6
21 37 11
27 44 19
18 33 15
16 25 33
4 9 22
0 5 28
5 9 30
16 24 30
19 29 28
15 23 29
14 21 31
15 21 24
1 3 37
3 6 39
30 45 20
7 13 21
0 0 36
0 0 41
0 0 42
0 0 42
0 0 42
0 0 42
0 0 42
0 0 42
0 0 42
0 0 42
0 0 42
0 0 42
0 0 42
0 0 42
0 0 42
0 0 42
30 32 55
154 166 185
214 230 253
216 233 255
216 233 255
216 233 255
216 233 255
216 233 255
216 233 255
216 233 255
216 233 255
216 233 255
216 233 255
216 233 255
216 233 255
216 233 255
216 233 255
216 233 255
216 233 255
216 233 255
216 233 255
216 233 255
216 233 255
216 233 255
216 233 255
216 233 255
216 233 255
216 233 255
216 233 255
216 233 255
216 233 255
216 233 255
216 233 255
216 233 255
216 233 255
216 233 255
216 233 255
216 233 255
216 233 255
216 233 255
216 233 255
216 233 255
216 233 255
216 233 255
216 233 255
216 233 255
216 233 255
216 233 255
216 233 255
216 233 255
216 233 255
216 233 255
216 233 255
216 233 255
216 233 255
216 233 255
216 233 255
216 233 255
216 233 255
216 233 255
216 233 255
216 233 255
216 233 255
216 233 255
216 233 255
216 233 255
216 233 255
216 233 255
216 233 255
216 233 255
216 233 255
216 233 255
216 233 255
216 233 255
216 233 255
216 233 255
216 233 255
216 233 255
216 233 255
216 233 255
216 233 255
216 233 255
216 233 255
216 233 255
216 233 255
216 233 255
216 233 255
216 233 255
216 233 255
216 233 255
216 233 255
216 233 255
216 233 255
216 233 255
216 233 255
216 233 255
216 233 255
216 233 255
216 233 255
216 233 255
216 233 255
216 233 255
216 233 255
216 233 255
216 233 255
216 233 255
216 233 255
216 233 255
216 233 255
216 233 255
216 233 255
216 233 255
216 233 255
216 233 255
216 233 255
216 233 255
216 233 255
216 233 255
216 233 255
216 233 255
216 233 255
216 233 255
216 233 255
216 233 255
216 233 255
216 233 255
216 233 255
216 233 255
216 233 255
216 233 255
216 233 255
216 233 255
216 233 255
216 233 255
216 233 255
216 233 255
216 233 255
216 233 255
216 233 255
216 233 255
216 233 255
216 233 255
216 233 255
216 233 255
216 233 255
216 233 255
216 233 255
216 233 255
216 233 255
216 233 255
216 233 255
216 233 255
216 233 255
216 233 255
216 233 255
216 233 255
216 233 255
216 233 255
216 233 255
216 233 255
216 233 255
216 233 255
216 233 255
216 233 255
216 233 255
216 233 255
216 233 255
216 233 255
216 233 255
216 233 255
216 233 255
216 233 255
216 233 255
216 233 255
216 233 255
216 233 255
216 233 255
216 233 255
216 233 255
216 233 255
216 233 255
216 233 255
216 233 255
216 233 255
216 233 255
216 233 255
216 233 255
216 233 255
216 233 255
216 233 255
216 233 255
216 233 255
216 233 255
216 233 255
216 233 255
216 233 255
216 233 255
216 233 255
216 233 255
216 233 255
216 233 255
216 233 255
216 233 255
216 233 255
216 233 255
216 233 255
216 233 255
216 233 255
216 233 255
216 233 255
216 233 255
216 233 255
216 233 255
216 233 255
216 233 255
216 233 255
216 233 255
216 233 255
216 233 255
216 233 255
216 233 255
216 233 255
216 233 255
216 233 255
216 233 255
216 233 255
216 233 255
216 233 255
216 233 255
216 233 255
216 233 255
216 233 255
216 233 255
216 233 255
216 233 255
216 233 255
216 233 255
216 233 255
216 233 255
216 233 255
216 233 255
216 233 255
216 233 255
216 233 255
216 233 255
216 233 255
216 233 255
216 233 255
216 233 255
216 233 255
216 233 255
216 233 255
216 233 255
216 233 255
216 233 255
216 233 255
216 233 255
216 233 255
216 233 255
216 233 255
216 233 255
216 233 255
216 233 255
216 233 255
216 233 255
216 233 255
216 233 255
216 233 255
216 233 255
216 233 255
216 233 255
216 233 255
216 233 255
216 233 255
216 233 255
216 233 255
216 233 255
216 233 255
216 233 255
216 233 255
204 219 241
103 111 128
0 0 42
0 0 42
0 0 42
0 0 42
0 0 42
0 0 42
0 0 42
0 0 42
0 0 41
0 0 42
0 0 37
0 0 42
0 0 41
0 0 43
9 17 28
15 32 11
15 29 18
8 16 10
25 39 22
35 48 30
19 30 3
29 37 11
40 48 25
21 36 8
15 34 2
24 38 13
24 36 6
30 42 9
33 40 10
87 95 67
107 107 73
117 114 83
117 115 86
104 102 74
96 95 66
92 91 63
89 89 63
84 87 59
73 82 48
68 78 41
66 77 38
67 81 40
57 76 33
52 73 28
50 74 23
48 72 23
51 74 26
43 66 18
45 69 21
49 72 30
48 71 26
45 67 17
37 56 20
30 47 19
28 51 6
29 50 3
25 44 3
20 37 5
24 39 15
23 38 14
26 41 17
11 21 27
0 2 29
0 0 41
0 0 42
16 27 24
22 38 13
22 40 14
22 39 8
23 43 0
21 43 2
23 44 0
26 48 4
29 50 5
27 47 7
25 45 2
30 51 10
22 44 5
23 43 6
20 38 1
20 37 5
20 39 4
23 43 7
23 43 12
21 42 12
26 48 13
22 44 5
21 39 11
15 27 18
24 40 21
23 42 18
25 42 19
23 40 24
17 27 28
13 19 31
23 34 28
7 10 39
0 0 39
0 0 45
0 2 38
27 42 20
24 38 15
18 28 27
7 12 34
6 9 36
0 0 41
0 0 42
0 0 42
0 0 42
0 0 42
0 0 42
0 0 42
0 0 42
0 0 42
0 0 42
0 0 42
0 0 42
0 0 42
0 0 42
0 0 42
114 123 140
198 213 235
216 233 255
216 233 255
216 233 255
216 233 255
216 233 255
216 233 255
216 233 255
216 233 255
216 233 255
216 233 255
216 233 255
216 233 255
216 233 255
216 233 255
216 233 255
216 233 255
216 233 255
216 233 255
216 233 255
216 233 255
216 233 255
216 233 255
216 233 255
216 233 255
216 233 255
216 233 255
216 233 255
216 233 255
216 233 255
216 233 255
216 233 255
216 233 255
216 233 255
216 233 255
216 233 255
216 233 255
216 233 255
216 233 255
216 233 255
216 233 255
216 233 255
216 233 255
216 233 255
216 233 255
216 233 255
216 233 255
216 233 255
216 233 255
216 233 255
216 233 255
216 233 255
216 233 255
216 233 255
216 233 255
216 233 255
216 233 255
216 233 255
216 233 255
216 233 255
216 233 255
216 233 255
216 233 255
216 233 255
216 233 255
216 233 255
216 233 255
216 233 255
216 233 255
216 233 255
216 233 255
216 233 255
216 233 255
216 233 255
216 233 255
216 233 255
216 233 255
216 233 255
216 233 255
216 233 255
216 233 255
216 233 255
216 233 255
216 233 255
216 233 255
216 233 255
216 233 255
216 233 255
216 233 255
216 233 255
216 233 255
216 233 255
216 233 255
216 233 255
216 233 255
216 233 255
216 233 255
216 233 255
216 233 255
216 233 255
216 233 255
216 233 255
216 233 255
216 233 255
216 233 255
216 233 255
216 233 255
216 233 255
216 233 255
216 233 255
216 233 255
216 233 255
216 233 255
216 233 255
216 233 255
216 233 255
216 233 255
216 233 255
216 233 255
216 233 255
216 233 255
216 233 255
216 233 255
216 233 255
216 233 255
216 233 255
216 233 255
216 233 255
216 233 255
216 233 255
216 233 255
216 233 255
216 233 255
216 233 255
216 233 255
216 233 255
216 233 255
216 233 255
216 233 255
216 233 255
216 233 255
216 233 255
216 233 255
216 233 255
216 233 255
216 233 255
216 233 255
216 233 255
216 233 255
216 233 255
216 233 255
216 233 255
216 233 255
216 233 255
216 233 255
216 233 255
216 233 255
216 233 255
216 233 255
216 233 255
216 233 255
216 233 255
216 233 255
216 233 255
216 233 255
216 233 255
216 233 255
216 233 255
216 233 255
216 233 255
216 233 255
216 233 255
216 233 255
216 233 255
216 233 255
216 233 255
216 233 255
216 233 255
216 233 255
216 233 255
216 233 255
216 233 255
216 233 255
216 233 255
216 233 255
216 233 255
216 233 255
216 233 255
216 233 255
216 233 255
216 233 255
216 233 255
216 233 255
216 233 255
216 233 255
216 233 255
216 233 255
216 233 255
216 233 255
216 233 255
216 233 255
216 233 255
216 233 255
216 233 255
216 233 255
216 233 255
216 233 255
216 233 255
216 233 255
216 233 255
216 233 255
216 233 255
216 233 255
216 233 255
216 233 255
216 233 255
216 233 255
216 233 255
216 233 255
216 233 255
216 233 255
216 233 255
216 233 255
216 233 255
216 233 255
216 233 255
216 233 255
216 233 255
216 233 255
216 233 255
216 233 255
216 233 255
216 233 255
216 233 255
216 233 255
216 233 255
216 233 255
216 233 255
216 233 255
216 233 255
216 233 255
216 233 255
216 233 255
216 233 255
216 233 255
216 233 255
216 233 255
216 233 255
216 233 255
216 233 255
216 233 255
216 233 255
216 233 255
216 233 255
216 233 255
216 233 255
216 233 255
216 233 255
216 233 255
216 233 255
216 233 255
216 233 255
216 233 255
216 233 255
216 233 255
216 233 255
216 233 255
216 233 255
216 233 255
216 233 255
216 233 255
216 233 255
216 233 255
216 233 255
216 233 255
216 233 255
170 183 203
57 61 79
0 0 42
0 0 42
0 0 42
0 0 42
0 0 42
0 0 42
0 0 42
0 0 42
0 0 41
0 0 39
0 0 45
0 0 41
0 0 42
0 0 41
0 0 42
0 0 37
8 17 22
13 27 17
12 24 22
33 51 27
24 39 18
36 43 20
63 68 45
36 43 17
35 47 13
26 40 8
20 36 8
34 49 22
38 50 26
27 32 8
77 82 54
107 110 79
110 112 81
105 106 77
84 84 54
85 86 58
94 95 65
87 90 61
84 89 58
80 87 54
76 83 49
73 83 48
62 77 39
53 70 30
52 70 28
50 70 25
48 70 20
48 71 20
45 68 17
47 70 22
46 69 23
46 70 22
42 65 16
34 55 13
28 48 10
27 49 7
30 54 11
32 53 10
27 42 20
17 27 26
3 5 30
10 16 32
20 29 32
22 31 43
7 12 34
0 0 40
0 0 41
0 1 38
17 31 25
25 45 8
21 40 5
20 38 4
21 41 0
21 42 0
21 40 0
31 53 15
25 44 5
18 39 0
18 40 0
16 38 0
18 38 0
22 44 3
18 40 0
24 45 9
21 42 5
20 43 7
13 38 0
19 43 3
24 46 17
29 53 18
24 48 6
22 46 6
21 44 12
21 40 19
21 32 31
3 6 38
0 0 39
0 0 44
0 0 41
0 0 42
0 1 41
23 35 21
31 48 10
29 46 9
29 46 8
29 46 15
15 25 24
4 7 41
0 0 46
0 0 41
0 0 43
0 0 42
0 0 42
0 0 42
0 0 42
0 0 42
0 0 42
0 0 42
0 0 42
0 0 42
0 0 42
0 0 42
57 61 79
159 171 190
216 233 255
216 233 255
216 233 255
216 233 255
216 233 255
216 233 255
216 233 255
216 233 255
216 233 255
216 233 255
216 233 255
216 233 255
216 233 255
216 233 255
216 233 255
216 233 255
216 233 255
216 233 255
216 233 255
216 233 255
216 233 255
216 233 255
216 233 255
216 233 255
216 233 255
216 233 255
216 233 255
216 233 255
216 233 255
216 233 255
216 233 255
216 233 255
216 233 255
216 233 255
216 233 255
216 233 255
216 233 255
216 233 255
216 233 255
216 233 255
216 233 255
216 233 255
216 233 255
216 233 255
216 233 255
216 233 255
216 233 255
216 233 255
216 233 255
216 233 255
216 233 255
216 233 255
216 233 255
216 233 255
216 233 255
216 233 255
216 233 255
216 233 255
216 233 255
216 233 255
216 233 255
216 233 255
216 233 255
216 233 255
216 233 255
216 233 255
216 233 255
216 233 255
216 233 255
216 233 255
216 233 255
216 233 255
216 233 255
216 233 255
216 233 255
216 233 255
216 233 255
216 233 255
216 233 255
216 233 255
216 233 255
216 233 255
216 233 255
216 233 255
216 233 255
216 233 255
216 233 255
216 233 255
216 233 255
216 233 255
216 233 255
216 233 255
216 233 255
216 233 255
216 233 255
216 233 255
216 233 255
216 233 255
216 233 255
216 233 255
216 233 255
216 233 255
216 233 255
216 233 255
216 233 255
216 233 255
216 233 255
216 233 255
216 233 255
216 233 255
216 233 255
216 233 255
216 233 255
216 233 255
216 233 255
216 233 255
216 233 255
216 233 255
216 233 255
216 233 255
216 233 255
216 233 255
216 233 255
216 233 255
216 233 255
216 233 255
216 233 255
216 233 255
216 233 255
216 233 255
216 233 255
216 233 255
216 233 255
216 233 255
216 233 255
216 233 255
216 233 255
216 233 255
216 233 255
216 233 255
216 233 255
216 233 255
216 233 255
216 233 255
216 233 255
216 233 255
216 233 255
216 233 255
216 233 255
216 233 255
216 233 255
216 233 255
216 233 255
216 233 255
216 233 255
216 233 255
216 233 255
216 233 255
216 233 255
216 233 255
216 233 255
216 233 255
216 233 255
216 233 255
216 233 255
216 233 255
216 233 255
216 233 255
216 233 255
216 233 255
216 233 255
216 233 255
216 233 255
216 233 255
216 233 255
216 233 255
216 233 255
216 233 255
216 233 255
216 233 255
216 233 255
216 233 255
216 233 255
216 233 255
216 233 255
216 233 255
216 233 255
216 233 255
216 233 255
216 233 255
216 233 255
216 233 255
216 233 255
216 233 255
216 233 255
216 233 255
216 233 255
216 233 255
216 233 255
216 233 255
216 233 255
216 233 255
216 233 255
216 233 255
216 233 255
216 233 255
216 233 255
216 233 255
216 233 255
216 233 255
216 233 255
216 233 255
216 233 255
216 233 255
216 233 255
216 233 255
216 233 255
216 233 255
216 233 255
216 233 255
216 233 255
216 233 255
216 233 255
216 233 255
216 233 255
216 233 255
216 233 255
216 233 255
216 233 255
216 233 255
216 233 255
216 233 255
216 233 255
216 233 255
216 233 255
216 233 255
216 233 255
216 233 255
216 233 255
216 233 255
216 233 255
216 233 255
216 233 255
216 233 255
216 233 255
216 233 255
216 233 255
216 233 255
216 233 255
216 233 255
216 233 255
216 233 255
216 233 255
216 233 255
216 233 255
216 233 255
216 233 255
216 233 255
216 233 255
216 233 255
216 233 255
216 233 255
216 233 255
216 233 255
216 233 255
216 233 255
216 233 255
216 233 255
216 233 255
216 233 255
216 233 255
216 233 255
211 227 249
120 129 146
0 0 42
0 0 42
0 0 42
0 0 42
0 0 42
0 0 42
0 0 42
0 0 42
0 0 42
0 0 42
0 0 42
0 0 42
0 0 42
0 0 42
0 0 42
0 0 41
0 0 42
0 0 42
14 25 26
12 27 16
18 33 21
26 42 17
37 43 23
87 92 68
97 103 75
85 93 60
62 71 34
21 38 4
20 37 0
39 53 28
46 58 33
37 45 17
70 75 44
72 77 46
65 69 41
90 94 64
84 86 59
97 99 70
104 108 77
111 116 84
106 110 78
89 95 62
85 92 58
74 83 47
60 73 37
56 68 30
61 76 37
59 74 33
55 73 28
50 70 21
49 72 24
46 68 20
46 69 20
46 69 19
37 58 10
44 68 21
37 58 14
28 47 11
33 53 15
31 52 10
28 50 7
32 54 20
29 51 7
30 50 15
31 52 14
28 49 6
27 44 18
29 44 21
29 44 25
28 44 24
25 44 16
33 56 18
21 39 13
20 38 10
23 41 0
29 47 12
28 46 21
22 39 10
23 45 5
21 44 0
21 44 5
20 43 0
21 46 0
26 48 7
24 47 4
23 46 0
19 43 0
25 48 8
25 51 8
31 57 16
30 56 19
23 49 3
25 51 6
30 58 3
21 49 5
19 45 3
25 48 15
9 16 30
8 10 45
0 0 43
6 7 48
1 2 40
0 0 34
23 31 41
29 41 30
30 43 30
29 43 27
32 47 20
33 48 25
18 28 30
7 9 45
0 0 42
0 0 39
0 0 42
0 0 42
0 0 42
0 0 42
0 0 42
0 0 42
0 0 42
0 0 42
0 0 42
0 0 42
0 0 42
0 0 42
0 0 42
116 125 142
210 226 248
216 233 255
216 233 255
216 233 255
216 233 255
216 233 255
216 233 255
216 233 255
216 233 255
216 233 255
216 233 255
216 233 255
216 233 255
216 233 255
216 233 255
216 233 255
216 233 255
216 233 255
216 233 255
216 233 255
216 233 255
216 233 255
216 233 255
216 233 255
216 233 255
216 233 255
216 233 255
216 233 255
216 233 255
216 233 255
216 233 255
216 233 255
216 233 255
216 233 255
216 233 255
216 233 255
216 233 255
216 233 255
216 233 255
216 233 255
216 233 255
216 233 255
216 233 255
216 233 255
216 233 255
216 233 255
216 233 255
216 233 255
216 233 255
216 233 255
216 233 255
216 233 255
216 233 255
216 233 255
216 233 255
216 233 255
216 233 255
216 233 255
216 233 255
216 233 255
216 233 255
216 233 255
216 233 255
216 233 255
216 233 255
216 233 255
216 233 255
216 233 255
216 233 255
216 233 255
216 233 255
216 233 255
216 233 255
216 233 255
216 233 255
216 233 255
216 233 255
216 233 255
216 233 255
216 233 255
216 233 255
216 233 255
216 233 255
216 233 255
216 233 255
216 233 255
216 233 255
216 233 255
216 233 255
216 233 255
216 233 255
216 233 255
216 233 255
216 233 255
216 233 255
216 233 255
216 233 255
216 233 255
216 233 255
216 233 255
216 233 255
216 233 255
216 233 255
216 233 255
216 233 255
216 233 255
216 233 255
216 233 255
216 233 255
216 233 255
216 233 255
216 233 255
216 233 255
216 233 255
216 233 255
216 233 255
216 233 255
216 233 255
216 233 255
216 233 255
216 233 255
216 233 255
216 233 255
216 233 255
216 233 255
216 233 255
216 233 255
216 233 255
216 233 255
216 233 255
216 233 255
216 233 255
216 233 255
216 233 255
216 233 255
216 233 255
216 233 255
216 233 255
216 233 255
216 233 255
216 233 255
216 233 255
216 233 255
216 233 255
216 233 255
216 233 255
216 233 255
216 233 255
216 233 255
216 233 255
216 233 255
216 233 255
216 233 255
216 233 255
216 233 255
216 233 255
216 233 255
216 233 255
216 233 255
216 233 255
216 233 255
216 233 255
216 233 255
216 233 255
216 233 255
216 233 255
216 233 255
216 233 255
216 233 255
216 233 255
216 233 255
216 233 255
216 233 255
216 233 255
216 233 255
216 233 255
216 233 255
216 233 255
216 233 255
216 233 255
216 233 255
216 233 255
216 233 255
216 233 255
216 233 255
216 233 255
216 233 255
216 233 255
216 233 255
216 233 255
216 233 255
216 233 255
216 233 255
216 233 255
216 233 255
216 233 255
216 233 255
216 233 255
216 233 255
216 233 255
216 233 255
216 233 255
216 233 255
216 233 255
216 233 255
216 233 255
216 233 255
216 233 255
216 233 255
216 233 255
216 233 255
216 233 255
216 233 255
216 233 255
216 233 255
216 233 255
216 233 255
216 233 255
216 233 255
216 233 255
216 233 255
216 233 255
216 233 255
216 233 255
216 233 255
216 233 255
216 233 255
216 233 255
216 233 255
216 233 255
216 233 255
216 233 255
216 233 255
216 233 255
216 233 255
216 233 255
216 233 255
216 233 255
216 233 255
216 233 255
216 233 255
216 233 255
216 233 255
216 233 255
216 233 255
216 233 255
216 233 255
216 233 255
216 233 255
216 233 255
216 233 255
216 233 255
216 233 255
216 233 255
216 233 255
216 233 255
216 233 255
216 233 255
216 233 255
216 233 255
216 233 255
216 233 255
216 233 255
216 233 255
216 233 255
216 233 255
216 233 255
216 233 255
216 233 255
216 233 255
191 205 226
68 73 90
0 0 42
0 0 42
0 0 42
0 0 42
0 0 42
0 0 42
0 0 42
0 0 42
0 0 42
0 0 42
0 0 42
0 0 42
0 0 42
0 0 42
0 0 42
0 0 42
0 0 41
0 0 42
2 4 36
21 39 14
24 45 8
24 40 15
56 63 41
78 80 54
79 80 49
87 93 62
76 82 46
51 65 30
27 40 8
28 40 10
40 51 24
45 53 22
56 63 34
78 85 55
71 78 49
69 75 44
97 102 74
99 101 75
97 98 69
90 93 61
93 93 60
94 95 62
89 93 59
76 83 46
73 80 43
67 76 39
68 77 42
69 78 42
59 71 33
56 72 29
51 70 23
48 69 24
46 68 18
46 69 20
41 64 17
40 63 20
41 65 19
45 68 24
46 68 24
39 62 12
36 59 8
32 56 7
29 53 7
32 57 12
27 50 7
27 51 2
29 52 5
31 50 23
19 31 23
13 20 30
9 16 32
24 42 23
27 44 17
10 19 21
11 18 37
19 30 29
11 20 21
20 30 27
29 46 26
26 50 7
18 45 0
20 44 3
30 54 8
30 54 3
27 51 4
28 53 7
27 50 5
37 62 17
37 60 11
37 60 16
29 55 4
26 52 0
25 50 5
24 48 6
28 54 7
26 52 1
25 50 9
23 48 3
26 47 11
24 37 32
31 40 35
30 40 44
5 7 41
27 37 32
8 13 37
0 0 43
0 0 42
0 0 35
10 12 31
25 33 40
16 28 19
29 42 30
4 6 30
0 0 39
0 0 39
0 0 42
0 0 42
0 0 42
0 0 42
0 0 42
0 0 42
0 0 42
0 0 42
0 0 42
0 0 42
0 0 42
0 0 42
0 0 42
86 93 109
190 204 225
216 233 255
216 233 255
216 233 255
216 233 255
216 233 255
216 233 255
216 233 255
216 233 255
216 233 255
216 233 255
216 233 255
216 233 255
216 233 255
216 233 255
216 233 255
216 233 255
216 233 255
216 233 255
216 233 255
216 233 255
216 233 255
216 233 255
216 233 255
216 233 255
216 233 255
216 233 255
216 233 255
216 233 255
216 233 255
216 233 255
216 233 255
216 233 255
216 233 255
216 233 255
216 233 255
216 233 255
216 233 255
216 233 255
216 233 255
216 233 255
216 233 255
216 233 255
216 233 255
216 233 255
216 233 255
216 233 255
216 233 255
216 233 255
216 233 255
216 233 255
216 233 255
216 233 255
216 233 255
216 233 255
216 233 255
216 233 255
216 233 255
216 233 255
216 233 255
216 233 255
216 233 255
216 233 255
216 233 255
216 233 255
216 233 255
216 233 255
216 233 255
216 233 255
216 233 255
216 233 255
216 233 255
216 233 255
216 233 255
216 233 255
216 233 255
216 233 255
216 233 255
216 233 255
216 233 255
216 233 255
216 233 255
216 233 255
216 233 255
216 233 255
216 233 255
216 233 255
216 233 255
216 233 255
216 233 255
216 233 255
216 233 255
216 233 255
216 233 255
216 233 255
216 233 255
216 233 255
216 233 255
216 233 255
216 233 255
216 233 255
216 233 255
216 233 255
216 233 255
216 233 255
216 233 255
216 233 255
216 233 255
216 233 255
216 233 255
216 233 255
216 233 255
216 233 255
216 233 255
216 233 255
216 233 255
216 233 255
216 233 255
216 233 255
216 233 255
216 233 255
216 233 255
216 233 255
216 233 255
216 233 255
216 233 255
216 233 255
216 233 255
216 233 255
216 233 255
216 233 255
216 233 255
216 233 255
216 233 255
216 233 255
216 233 255
216 233 255
216 233 255
216 233 255
216 233 255
216 233 255
216 233 255
216 233 255
216 233 255
216 233 255
216 233 255
216 233 255
216 233 255
216 233 255
216 233 255
216 233 255
216 233 255
216 233 255
216 233 255
216 233 255
216 233 255
216 233 255
216 233 255
216 233 255
216 233 255
216 233 255
216 233 255
216 233 255
216 233 255
216 233 255
216 233 255
216 233 255
216 233 255
216 233 255
216 233 255
216 233 255
216 233 255
216 233 255
216 233 255
216 233 255
216 233 255
216 233 255
216 233 255
216 233 255
216 233 255
216 233 255
216 233 255
216 233 255
216 233 255
216 233 255
216 233 255
216 233 255
216 233 255
216 233 255
216 233 255
216 233 255
216 233 255
216 233 255
216 233 255
216 233 255
216 233 255
216 233 255
216 233 255
216 233 255
216 233 255
216 233 255
216 233 255
216 233 255
216 233 255
216 233 255
216 233 255
216 233 255
216 233 255
216 233 255
216 233 255
216 233 255
216 233 255
216 233 255
216 233 255
216 233 255
216 233 255
216 233 255
216 233 255
216 233 255
216 233 255
216 233 255
216 233 255
216 233 255
216 233 255
216 233 255
216 233 255
216 233 255
216 233 255
216 233 255
216 233 255
216 233 255
216 233 255
216 233 255
216 233 255
216 233 255
216 233 255
216 233 255
216 233 255
216 233 255
216 233 255
216 233 255
216 233 255
216 233 255
216 233 255
216 233 255
216 233 255
216 233 255
216 233 255
216 233 255
216 233 255
216 233 255
216 233 255
216 233 255
216 233 255
216 233 255
216 233 255
216 233 255
216 233 255
216 233 255
216 233 255
216 233 255
216 233 255
216 233 255
216 233 255
216 233 255
216 233 255
216 233 255
216 233 255
159 171 190
48 52 70
0 0 42
0 0 42
0 0 42
0 0 42
0 0 42
0 0 42
0 0 42
0 0 42
0 0 42
0 0 42
0 0 42
0 0 42
0 0 42
0 0 42
0 0 42
0 0 42
0 0 42
0 0 42
0 0 44
14 26 30
23 46 8
16 35 8
47 49 29
82 82 55
88 89 59
70 75 46
49 57 30
47 57 24
38 48 22
28 36 11
31 39 12
51 56 32
62 67 43
70 77 48
57 63 37
48 53 27
63 65 38
98 98 72
97 93 65
85 85 56
88 90 57
90 89 56
96 97 63
83 85 51
83 92 56
81 89 54
77 84 49
77 83 51
70 76 42
63 74 38
64 77 36
56 73 31
53 73 29
50 70 25
49 72 27
45 68 23
39 64 17
38 64 16
39 62 17
41 63 17
44 67 19
41 64 14
41 66 13
37 61 11
43 68 19
37 63 14
33 57 11
41 62 22
29 43 31
12 17 34
14 22 30
32 51 16
37 60 19
32 53 0
36 55 27
7 9 37
0 0 43
10 17 31
22 32 30
14 28 17
26 49 18
22 48 1
24 48 4
28 50 9
30 53 5
39 65 16
44 70 20
39 62 15
41 64 18
40 63 16
31 54 5
29 53 5
25 49 0
27 51 2
27 50 2
25 49 6
21 44 0
25 49 5
25 47 15
29 53 14
31 51 19
29 44 28
30 45 24
22 35 21
29 47 28
20 33 27
5 7 39
4 0 42
0 0 37
0 0 37
3 3 37
3 4 39
14 20 35
9 12 29
0 0 43
0 0 48
0 0 42
0 0 42
0 0 42
0 0 42
0 0 42
0 0 42
0 0 42
0 0 42
0 0 42
0 0 42
0 0 42
0 0 42
0 0 42
0 0 42
30 32 55
170 183 203
216 233 255
216 233 255
216 233 255
216 233 255
216 233 255
216 233 255
216 233 255
216 233 255
216 233 255
216 233 255
216 233 255
216 233 255
216 233 255
216 233 255
216 233 255
216 233 255
216 233 255
216 233 255
216 233 255
216 233 255
216 233 255
216 233 255
216 233 255
216 233 255
216 233 255
216 233 255
216 233 255
216 233 255
216 233 255
216 233 255
216 233 255
216 233 255
216 233 255
216 233 255
216 233 255
216 233 255
216 233 255
216 233 255
216 233 255
216 233 255
216 233 255
216 233 255
216 233 255
216 233 255
216 233 255
216 233 255
216 233 255
216 233 255
216 233 255
216 233 255
216 233 255
216 233 255
216 233 255
216 233 255
216 233 255
216 233 255
216 233 255
216 233 255
216 233 255
216 233 255
216 233 255
216 233 255
216 233 255
216 233 255
216 233 255
216 233 255
216 233 255
216 233 255
216 233 255
216 233 255
216 233 255
216 233 255
216 233 255
216 233 255
216 233 255
216 233 255
216 233 255
216 233 255
216 233 255
216 233 255
216 233 255
216 233 255
216 233 255
216 233 255
216 233 255
216 233 255
216 233 255
216 233 255
216 233 255
216 233 255
216 233 255
216 233 255
216 233 255
216 233 255
216 233 255
216 233 255
216 233 255
216 233 255
216 233 255
216 233 255
216 233 255
216 233 255
216 233 255
216 233 255
216 233 255
216 233 255
216 233 255
216 233 255
216 233 255
216 233 255
216 233 255
216 233 255
216 233 255
216 233 255
216 233 255
216 233 255
216 233 255
216 233 255
216 233 255
216 233 255
216 233 255
216 233 255
216 233 255
216 233 255
216 233 255
216 233 255
216 233 255
216 233 255
216 233 255
216 233 255
216 233 255
216 233 255
216 233 255
217 233 255
217 233 255
217 233 255
217 233 255
217 233 255
217 233 255
217 233 255
217 233 255
217 233 255
217 233 255
217 233 255
217 233 255
217 233 255
217 233 255
217 233 255
217 233 255
217 233 255
217 233 255
217 233 255
217 233 255
217 233 255
217 233 255
217 233 255
217 233 255
216 233 255
216 233 255
216 233 255
216 233 255
216 233 255
216 233 255
216 233 255
216 233 255
216 233 255
216 233 255
216 233 255
216 233 255
216 233 255
216 233 255
216 233 255
216 233 255
216 233 255
216 233 255
216 233 255
216 233 255
216 233 255
216 233 255
216 233 255
216 233 255
216 233 255
216 233 255
216 233 255
216 233 255
216 233 255
216 233 255
216 233 255
216 233 255
216 233 255
216 233 255
216 233 255
216 233 255
216 233 255
216 233 255
216 233 255
216 233 255
216 233 255
216 233 255
216 233 255
216 233 255
216 233 255
216 233 255
216 233 255
216 233 255
216 233 255
216 233 255
216 233 255
216 233 255
216 233 255
216 233 255
216 233 255
216 233 255
216 233 255
216 233 255
216 233 255
216 233 255
216 233 255
216 233 255
216 233 255
216 233 255
216 233 255
216 233 255
216 233 255
216 233 255
216 233 255
216 233 255
216 233 255
216 233 255
216 233 255
216 233 255
216 233 255
216 233 255
216 233 255
216 233 255
216 233 255
216 233 255
216 233 255
216 233 255
216 233 255
216 233 255
216 233 255
216 233 255
216 233 255
216 233 255
216 233 255
216 233 255
216 233 255
216 233 255
216 233 255
216 233 255
216 233 255
216 233 255
216 233 255
216 233 255
216 233 255
216 233 255
216 233 255
216 233 255
216 233 255
216 233 255
216 233 255
216 233 255
216 233 255
213 229 252
145 156 174
0 0 42
0 0 42
0 0 42
0 0 42
0 0 42
0 0 42
0 0 42
0 0 42
0 0 42
0 0 42
0 0 42
0 0 42
0 0 42
0 0 42
0 0 42
0 0 42
0 0 42
0 0 42
0 0 43
0 0 37
11 18 32
28 47 25
31 54 18
46 50 31
83 81 58
88 87 62
63 66 40
60 68 45
48 54 26
48 56 24
41 48 19
45 49 26
65 66 48
70 69 45
80 84 57
55 60 30
47 51 24
46 47 22
68 65 38
134 132 103
153 152 123
65 64 41
103 106 74
107 107 73
95 94 60
63 67 33
46 55 25
72 81 42
75 83 45
75 83 45
69 79 40
65 80 41
60 76 36
58 77 35
57 75 33
52 73 30
45 67 22
43 67 22
38 63 16
36 63 16
36 60 12
38 61 14
41 64 17
44 67 21
37 58 9
38 61 13
36 58 7
37 61 14
41 63 21
44 65 19
45 60 41
0 0 37
35 48 41
32 52 10
41 62 19
36 56 14
37 55 22
29 40 35
13 17 47
38 51 45
45 68 25
42 65 20
40 61 29
46 67 38
43 63 25
42 64 18
40 59 26
31 53 15
37 60 13
29 49 2
24 44 4
28 50 12
26 51 8
26 51 6
23 47 6
28 53 8
29 55 3
29 53 4
27 48 14
22 40 17
7 16 24
10 19 20
27 47 19
27 48 16
31 52 17
29 46 24
25 41 16
5 12 29
0 0 38
3 0 41
3 4 45
0 0 43
0 0 39
0 0 42
0 0 43
0 0 46
0 0 46
1 1 46
0 0 43
0 0 41
0 0 42
0 0 42
0 0 42
0 0 42
0 0 42
0 0 42
0 0 42
0 0 42
0 0 42
0 0 42
0 0 42
0 0 42
0 0 42
0 0 42
137 147 165
215 232 254
216 233 255
216 233 255
216 233 255
216 233 255
216 233 255
216 233 255
216 233 255
216 233 255
216 233 255
216 233 255
216 233 255
216 233 255
216 233 255
216 233 255
216 233 255
216 233 255
216 233 255
216 233 255
216 233 255
216 233 255
216 233 255
216 233 255
216 233 255
216 233 255
216 233 255
216 233 255
216 233 255
216 233 255
216 233 255
216 233 255
216 233 255
216 233 255
216 233 255
216 233 255
216 233 255
216 233 255
216 233 255
216 233 255
216 233 255
216 233 255
216 233 255
216 233 255
216 233 255
216 233 255
216 233 255
216 233 255
216 233 255
216 233 255
216 233 255
216 233 255
216 233 255
216 233 255
216 233 255
216 233 255
216 233 255
216 233 255
216 233 255
216 233 255
216 233 255
216 233 255
216 233 255
216 233 255
216 233 255
216 233 255
216 233 255
216 233 255
216 233 255
216 233 255
216 233 255
216 233 255
216 233 255
216 233 255
216 233 255
216 233 255
216 233 255
216 233 255
216 233 255
216 233 255
216 233 255
216 233 255
216 233 255
216 233 255
216 233 255
216 233 255
216 233 255
216 233 255
216 233 255
216 233 255
216 233 255
216 233 255
216 233 255
216 233 255
216 233 255
216 233 255
216 233 255
216 233 255
216 233 255
216 233 255
216 233 255
216 233 255
216 233 255
216 233 255
216 233 255
216 233 255
216 233 255
216 233 255
216 233 255
217 233 255
217 233 255
217 233 255
217 233 255
217 233 255
217 233 255
217 233 255
217 233 255
217 233 255
217 233 255
217 233 255
217 233 255
217 233 255
217 233 255
217 233 255
217 233 255
217 233 255
217 233 255
217 233 255
217 233 255
217 233 255
217 233 255
217 233 255
217 233 255
217 233 255
217 233 255
217 233 255
217 233 255
217 233 255
217 233 255
217 233 255
217 233 255
217 233 255
217 233 255
217 233 255
217 233 255
217 233 255
217 233 255
217 233 255
217 233 255
217 233 255
217 233 255
217 233 255
217 233 255
217 233 255
217 233 255
217 233 255
217 233 255
217 233 255
217 233 255
217 233 255
217 233 255
217 233 255
217 233 255
217 233 255
217 233 255
217 233 255
217 233 255
217 233 255
217 233 255
217 233 255
217 233 255
217 233 255
217 233 255
217 233 255
217 233 255
217 233 255
217 233 255
217 233 255
217 233 255
217 233 255
217 233 255
217 233 255
217 233 255
217 233 255
217 233 255
217 233 255
217 233 255
217 233 255
217 233 255
217 233 255
217 233 255
216 233 255
216 233 255
216 233 255
216 233 255
216 233 255
216 233 255
216 233 255
216 233 255
216 233 255
216 233 255
216 233 255
216 233 255
216 233 255
216 233 255
216 233 255
216 233 255
216 233 255
216 233 255
216 233 255
216 233 255
216 233 255
216 233 255
216 233 255
216 233 255
216 233 255
216 233 255
216 233 255
216 233 255
216 233 255
216 233 255
216 233 255
216 233 255
216 233 255
216 233 255
216 233 255
216 233 255
216 233 255
216 233 255
216 233 255
216 233 255
216 233 255
216 233 255
216 233 255
216 233 255
216 233 255
216 233 255
216 233 255
216 233 255
216 233 255
216 233 255
216 233 255
216 233 255
216 233 255
216 233 255
216 233 255
216 233 255
216 233 255
216 233 255
216 233 255
216 233 255
216 233 255
216 233 255
216 233 255
216 233 255
216 233 255
216 233 255
216 233 255
216 233 255
216 233 255
216 233 255
216 233 255
216 233 255
210 226 248
84 90 106
0 0 42
0 0 42
0 0 42
0 0 42
0 0 42
0 0 42
0 0 42
0 0 42
0 0 42
0 0 42
0 0 42
0 0 42
0 0 42
0 0 42
0 0 42
0 0 42
0 0 42
0 0 42
0 0 42
0 0 43
2 5 30
26 45 21
31 53 21
34 42 24
75 73 51
68 66 42
57 59 33
59 60 36
85 86 62
81 85 55
54 58 29
54 55 29
54 53 31
82 80 56
92 92 67
84 95 61
59 69 40
48 54 30
53 55 33
84 83 66
117 112 86
114 112 84
95 94 64
115 117 84
104 102 67
99 99 64
91 99 64
61 71 33
87 100 56
80 94 51
75 88 45
65 79 35
60 76 33
56 75 31
50 68 27
52 70 27
48 69 25
44 66 21
39 62 14
37 60 12
38 62 16
37 59 11
42 64 18
40 63 15
42 65 18
42 65 16
36 58 6
38 60 5
37 60 6
43 64 18
47 68 17
25 36 30
0 0 45
27 37 35
41 61 19
42 63 16
46 69 17
53 76 28
53 75 35
30 44 30
35 48 39
51 72 39
50 70 28
49 68 35
29 41 25
27 39 29
25 35 33
22 32 27
26 44 19
29 52 12
26 48 8
24 46 0
27 50 12
27 52 11
25 52 0
25 48 9
29 52 14
29 48 14
18 32 27
3 8 26
0 1 33
0 0 39
13 22 25
28 47 19
22 38 18
6 13 33
1 3 34
0 0 35
0 0 43
0 0 45
0 0 44
0 0 41
0 0 42
0 0 42
0 0 42
0 0 41
0 0 40
0 0 42
1 1 35
1 1 40
0 0 39
0 0 42
0 0 42
0 0 42
0 0 42
0 0 42
0 0 42
0 0 42
0 0 42
0 0 42
0 0 42
0 0 42
0 0 42
0 0 42
0 0 42
0 0 42
101 109 125
208 223 245
216 233 255
216 233 255
216 233 255
216 233 255
216 233 255
216 233 255
216 233 255
216 233 255
216 233 255
216 233 255
216 233 255
216 233 255
216 233 255
216 233 255
216 233 255
216 233 255
216 233 255
216 233 255
216 233 255
216 233 255
216 233 255
216 233 255
216 233 255
216 233 255
216 233 255
216 233 255
216 233 255
216 233 255
216 233 255
216 233 255
216 233 255
216 233 255
216 233 255
216 233 255
216 233 255
216 233 255
216 233 255
216 233 255
216 233 255
216 233 255
216 233 255
216 233 255
216 233 255
216 233 255
216 233 255
216 233 255
216 233 255
216 233 255
216 233 255
216 233 255
216 233 255
216 233 255
216 233 255
216 233 255
216 233 255
216 233 255
216 233 255
216 233 255
216 233 255
216 233 255
216 233 255
216 233 255
216 233 255
216 233 255
216 233 255
216 233 255
216 233 255
216 233 255
216 233 255
216 233 255
216 233 255
217 233 255
216 233 255
217 233 255
216 233 255
217 233 255
217 233 255
217 233 255
217 233 255
217 233 255
217 233 255
217 233 255
217 233 255
217 233 255
217 233 255
217 233 255
217 233 255
217 233 255
217 233 255
217 233 255
217 233 255
217 233 255
217 233 255
217 233 255
217 233 255
217 233 255
217 233 255
217 233 255
217 233 255
217 233 255
217 233 255
217 233 255
217 233 255
217 233 255
217 233 255
217 233 255
217 233 255
217 233 255
217 233 255
217 233 255
217 233 255
217 233 255
217 233 255
217 233 255
217 233 255
217 233 255
217 233 255
217 233 255
217 233 255
217 233 255
217 233 255
217 233 255
217 233 255
217 233 255
217 233 255
217 233 255
217 233 255
217 233 255
217 233 255
217 233 255
217 233 255
217 233 255
217 233 255
217 233 255
217 233 255
217 233 255
217 233 255
217 233 255
217 233 255
217 233 255
217 233 255
217 233 255
217 233 255
217 233 255
217 233 255
217 233 255
217 233 255
217 233 255
217 233 255
217 233 255
217 233 255
217 233 255
217 233 255
217 233 255
217 233 255
217 233 255
217 233 255
217 233 255
217 233 255
217 233 255
217 233 255
217 233 255
217 233 255
217 233 255
217 233 255
217 233 255
217 233 255
217 233 255
217 233 255
217 233 255
217 233 255
217 233 255
217 233 255
217 233 255
217 233 255
217 233 255
217 233 255
217 233 255
217 233 255
217 233 255
217 233 255
217 233 255
217 233 255
217 233 255
217 233 255
217 233 255
217 233 255
217 233 255
217 233 255
217 233 255
217 233 255
217 233 255
217 233 255
217 233 255
217 233 255
217 233 255
217 233 255
217 233 255
217 233 255
217 233 255
217 233 255
217 233 255
217 233 255
217 233 255
217 233 255
217 233 255
217 233 255
217 233 255
217 233 255
217 233 255
217 233 255
217 233 255
217 233 255
217 233 255
217 233 255
217 233 255
217 233 255
217 233 255
217 233 255
217 233 255
217 233 255
217 233 255
217 233 255
217 233 255
217 233 255
217 233 255
217 233 255
216 233 255
216 233 255
216 233 255
216 233 255
216 233 255
216 233 255
216 233 255
216 233 255
216 233 255
216 233 255
216 233 255
216 233 255
216 233 255
216 233 255
216 233 255
216 233 255
216 233 255
216 233 255
216 233 255
216 233 255
216 233 255
216 233 255
216 233 255
216 233 255
216 233 255
216 233 255
216 233 255
216 233 255
216 233 255
216 233 255
216 233 255
216 233 255
198 213 235
68 73 90
0 0 42
0 0 42
0 0 42
0 0 42
0 0 42
0 0 42
0 0 42
0 0 42
0 0 42
0 0 42
0 0 42
0 0 42
0 0 42
0 0 42
0 0 42
0 0 42
0 0 42
0 0 42
0 0 42
0 0 44
2 5 38
15 32 17
26 45 17
21 31 11
63 62 39
94 95 74
86 86 64
81 80 57
86 82 58
92 87 62
102 101 72
86 84 61
77 76 51
83 84 57
85 84 55
86 90 57
69 80 45
48 55 25
65 69 47
69 68 46
101 97 76
132 128 101
139 136 105
117 116 81
95 93 58
101 99 64
99 100 65
82 90 53
76 86 47
71 78 38
83 90 53
81 90 52
76 87 50
68 81 44
62 77 39
57 75 34
53 73 31
47 67 24
45 66 22
42 64 21
40 62 17
39 61 14
36 59 12
37 59 9
40 62 14
40 62 14
40 62 16
43 66 14
42 65 16
43 68 15
43 64 19
43 63 18
33 45 34
0 0 36
15 22 20
46 67 25
38 59 10
43 64 25
42 64 18
50 71 31
44 65 25
51 72 39
43 60 38
47 63 51
28 41 25
29 47 18
42 68 15
43 70 16
39 64 15
37 64 17
30 56 13
34 59 14
34 58 11
33 57 10
29 53 8
24 51 0
28 55 3
35 55 30
12 19 29
0 0 48
0 0 46
0 0 42
0 0 37
0 0 36
12 18 33
6 10 30
0 0 57
0 0 44
0 0 34
0 0 40
0 0 42
0 0 45
0 0 43
0 0 41
0 0 42
0 0 42
0 0 42
0 0 42
0 0 42
0 0 42
0 0 42
0 0 41
0 0 42
0 0 42
0 0 42
0 0 42
0 0 42
0 0 42
0 0 42
0 0 42
0 0 42
0 0 42
0 0 42
0 0 42
0 0 42
0 0 42
0 0 42
0 0 42
86 93 109
204 220 241
216 233 255
216 233 255
216 233 255
216 233 255
216 233 255
216 233 255
216 233 255
216 233 255
216 233 255
216 233 255
216 233 255
216 233 255
216 233 255
216 233 255
216 233 255
216 233 255
216 233 255
216 233 255
216 233 255
216 233 255
216 233 255
216 233 255
216 233 255
216 233 255
216 233 255
216 233 255
216 233 255
216 233 255
216 233 255
216 233 255
217 233 255
216 233 255
216 233 255
217 233 255
217 233 255
217 233 255
217 233 255
217 233 255
217 233 255
217 233 255
217 233 255
217 233 255
217 233 255
217 233 255
217 233 255
217 233 255
217 233 255
217 233 255
217 233 255
217 233 255
217 233 255
217 233 255
217 233 255
217 233 255
217 233 255
217 233 255
217 233 255
217 233 255
217 233 255
217 233 255
217 233 255
217 233 255
217 233 255
217 233 255
217 233 255
217 233 255
217 233 255
217 233 255
217 233 255
217 233 255
217 233 255
217 233 255
217 233 255
217 233 255
217 233 255
217 233 255
217 233 255
217 233 255
217 233 255
217 233 255
217 233 255
217 233 255
217 233 255
217 233 255
217 233 255
217 233 255
217 233 255
217 233 255
217 233 255
217 233 255
217 233 255
217 233 255
217 233 255
217 233 255
217 233 255
217 233 255
217 233 255
217 233 255
217 233 255
217 233 255
217 233 255
217 233 255
217 233 255
217 233 255
217 233 255
217 233 255
217 233 255
217 233 255
217 233 255
217 233 255
217 233 255
217 233 255
217 233 255
217 233 255
217 233 255
217 233 255
217 233 255
217 233 255
217 233 255
217 233 255
217 233 255
217 233 255
217 233 255
217 233 255
217 233 255
217 233 255
217 233 255
217 233 255
217 233 255
217 233 255
217 233 255
217 233 255
217 233 255
217 233 255
217 233 255
217 233 255
217 233 255
217 233 255
217 233 255
217 233 255
217 233 255
217 233 255
217 233 255
217 233 255
217 233 255
217 233 255
217 233 255
217 233 255
217 233 255
217 233 255
217 233 255
217 233 255
217 233 255
217 233 255
217 233 255
217 233 255
217 233 255
217 233 255
217 233 255
217 233 255
217 233 255
217 233 255
217 233 255
217 233 255
217 233 255
217 233 255
217 233 255
217 233 255
217 233 255
217 233 255
217 233 255
217 233 255
217 233 255
217 233 255
217 233 255
217 233 255
217 233 255
217 233 255
217 233 255
217 233 255
217 233 255
217 233 255
217 233 255
217 233 255
217 233 255
217 233 255
217 233 255
217 233 255
217 233 255
217 233 255
217 233 255
217 233 255
217 233 255
217 233 255
217 233 255
217 233 255
217 233 255
217 233 255
217 233 255
217 233 255
217 233 255
217 233 255
217 233 255
217 233 255
217 233 255
217 233 255
217 233 255
217 233 255
217 233 255
217 233 255
217 233 255
217 233 255
217 233 255
217 233 255
217 233 255
217 233 255
217 233 255
217 233 255
217 233 255
217 233 255
217 233 255
217 233 255
217 233 255
217 233 255
217 233 255
217 233 255
217 233 255
217 233 255
217 233 255
217 233 255
217 233 255
217 233 255
217 233 255
217 233 255
217 233 255
217 233 255
217 233 255
217 233 255
217 233 255
217 233 255
217 233 255
217 233 255
217 233 255
217 233 255
217 233 255
217 233 255
217 233 255
217 233 255
217 233 255
217 233 255
217 233 255
217 233 255
217 233 255
217 233 255
217 233 255
217 233 255
217 233 255
187 202 222
48 52 70
0 0 42
0 0 42
0 0 42
0 0 42
0 0 42
0 0 42
0 0 42
0 0 42
0 0 42
0 0 42
0 0 42
0 0 42
0 0 42
0 0 42
0 0 42
0 0 42
0 0 42
0 0 42
0 0 42
0 0 42
3 5 38
21 35 36
25 42 16
22 31 7
52 57 32
82 82 60
97 96 74
99 95 73
92 84 63
104 94 73
83 75 50
103 99 75
109 107 84
88 86 59
91 92 63
92 92 61
71 76 46
66 71 43
66 68 44
127 129 105
119 118 90
128 123 88
137 132 95
127 125 91
107 108 74
99 101 71
82 80 47
97 101 68
89 97 61
84 89 58
91 95 65
90 94 64
83 88 58
80 87 56
79 90 59
71 85 51
61 80 40
47 67 25
46 66 24
44 64 22
40 60 17
44 64 21
42 63 19
39 62 14
42 65 18
40 63 17
41 63 16
41 64 16
40 63 14
39 61 11
35 60 3
36 59 12
43 65 20
54 73 46
20 29 29
37 54 27
42 63 25
40 61 15
42 62 19
44 66 21
42 62 27
33 47 39
21 29 27
14 21 30
27 43 26
30 51 21
29 55 19
27 51 14
25 51 7
31 59 0
31 59 9
32 59 4
33 58 8
32 54 0
27 49 0
32 54 0
31 54 13
29 52 10
33 55 15
18 29 21
0 5 29
0 0 42
0 0 46
0 0 41
0 0 48
0 0 48
0 0 40
0 0 40
0 0 42
0 0 36
0 0 40
0 0 41
0 0 42
0 0 42
0 0 40
0 0 41
0 0 42
0 0 42
0 0 42
0 0 42
0 0 42
0 0 42
0 0 42
0 0 42
0 0 42
0 0 42
0 0 42
0 0 42
0 0 42
0 0 42
0 0 42
0 0 42
0 0 42
0 0 42
0 0 42
0 0 42
0 0 42
0 0 42
0 0 42
0 0 42
48 52 70
181 195 215
217 233 255
217 233 255
217 233 255
217 233 255
217 233 255
217 233 255
217 233 255
217 233 255
217 233 255
217 233 255
217 233 255
217 233 255
217 233 255
217 233 255
217 233 255
217 233 255
217 233 255
217 233 255
217 233 255
217 233 255
217 233 255
217 233 255
217 233 255
217 233 255
217 233 255
217 233 255
217 233 255
217 233 255
217 233 255
217 233 255
217 233 255
217 233 255
217 233 255
217 233 255
217 233 255
217 233 255
217 233 255
217 233 255
217 233 255
217 233 255
217 233 255
217 233 255
217 233 255
217 233 255
217 233 255
217 233 255
217 233 255
217 233 255
217 233 255
217 233 255
217 233 255
217 233 255
217 233 255
217 233 255
217 233 255
217 233 255
217 233 255
217 233 255
217 233 255
217 233 255
217 233 255
217 233 255
217 233 255
217 233 255
217 233 255
217 233 255
217 233 255
217 233 255
217 233 255
217 233 255
217 233 255
217 233 255
217 233 255
217 233 255
217 233 255
217 233 255
217 233 255
217 233 255
217 233 255
217 233 255
217 233 255
217 233 255
217 233 255
217 233 255
217 233 255
217 233 255
217 233 255
217 233 255
217 233 255
217 233 255
217 233 255
217 233 255
217 233 255
217 233 255
217 233 255
217 233 255
217 233 255
217 233 255
217 233 255
217 233 255
217 233 255
217 233 255
217 233 255
217 233 255
217 233 255
217 233 255
217 233 255
217 233 255
217 233 255
217 233 255
217 233 255
217 233 255
217 233 255
217 233 255
217 233 255
217 233 255
217 233 255
217 233 255
217 233 255
217 233 255
217 233 255
217 233 255
217 233 255
217 233 255
217 233 255
217 233 255
217 233 255
217 233 255
217 233 255
217 233 255
217 233 255
217 233 255
217 233 255
217 233 255
217 233 255
217 233 255
217 233 255
217 233 255
217 233 255
217 233 255
217 233 255
217 233 255
217 233 255
217 233 255
217 233 255
217 233 255
217 233 255
217 233 255
217 233 255
217 233 255
217 233 255
217 233 255
217 233 255
217 233 255
217 233 255
217 233 255
217 233 255
217 233 255
217 233 255
217 233 255
217 233 255
217 233 255
217 233 255
217 233 255
217 233 255
217 233 255
217 233 255
217 233 255
217 233 255
217 233 255
217 233 255
217 233 255
217 233 255
217 233 255
217 233 255
217 233 255
217 233 255
217 233 255
217 233 255
217 233 255
217 233 255
217 233 255
217 233 255
217 233 255
217 233 255
217 233 255
217 233 255
217 233 255
217 233 255
217 233 255
217 233 255
217 233 255
217 233 255
217 233 255
217 233 255
217 233 255
217 233 255
217 233 255
217 233 255
217 233 255
217 233 255
217 233 255
217 233 255
217 233 255
217 233 255
217 233 255
217 233 255
217 233 255
217 233 255
217 233 255
217 233 255
217 233 255
217 233 255
217 233 255
217 233 255
217 233 255
217 233 255
217 233 255
217 233 255
217 233 255
217 233 255
217 233 255
217 233 255
217 233 255
217 233 255
217 233 255
217 233 255
217 233 255
217 233 255
217 233 255
217 233 255
217 233 255
217 233 255
217 233 255
217 233 255
217 233 255
217 233 255
217 233 255
217 233 255
217 233 255
217 233 255
217 233 255
217 233 255
217 233 255
217 233 255
217 233 255
217 233 255
217 233 255
217 233 255
217 233 255
217 233 255
217 233 255
217 233 255
217 233 255
217 233 255
181 195 215
30 33 55
0 0 42
0 0 42
0 0 42
0 0 42
0 0 42
0 0 42
0 0 42
0 0 42
0 0 42
0 0 42
0 0 42
0 0 42
0 0 42
0 0 42
0 0 42
0 0 42
0 0 42
0 0 42
0 0 42
0 0 42
0 0 40
9 16 39
17 32 12
41 53 26
48 52 33
66 67 42
66 63 38
95 90 68
103 93 71
106 96 74
108 98 75
97 88 63
84 78 51
95 93 66
90 89 60
109 109 87
116 120 96
66 72 44
84 88 62
130 132 109
148 149 124
134 131 99
142 138 103
124 124 92
104 109 78
75 80 54
102 107 80
92 93 64
93 98 69
89 96 66
86 92 65
84 89 62
85 90 62
80 88 56
70 79 44
58 71 33
59 74 35
55 75 34
46 66 23
46 66 24
47 67 25
47 67 24
41 61 18
46 68 24
43 67 19
42 65 17
42 64 16
42 66 16
42 65 17
39 61 10
38 61 11
35 61 0
33 58 0
37 61 7
38 61 20
40 61 30
41 64 16
39 62 14
43 64 13
47 70 15
48 72 20
47 68 27
43 63 29
47 65 36
42 63 24
38 63 10
33 60 7
28 52 2
30 52 14
27 49 4
26 49 0
31 53 10
30 55 6
30 54 5
28 48 0
33 53 6
30 50 2
30 48 22
28 44 27
29 43 26
24 38 28
19 28 34
4 6 44
0 0 48
0 0 43
0 0 40
0 0 38
0 0 39
0 0 38
0 0 42
0 0 43
0 0 42
0 0 42
0 0 42
0 0 42
0 0 42
0 0 39
0 0 42
0 0 42
0 0 42
0 0 42
0 0 42
0 0 42
0 0 42
0 0 42
0 0 42
0 0 42
0 0 42
0 0 42
0 0 42
0 0 42
0 0 42
0 0 42
0 0 42
0 0 42
0 0 42
0 0 42
0 0 42
0 0 42
0 0 42
0 0 42
0 0 42
21 23 49
173 186 206
217 233 255
217 233 255
217 233 255
217 233 255
217 233 255
217 233 255
217 233 255
217 233 255
217 233 255
217 233 255
217 233 255
217 233 255
217 233 255
217 233 255
217 233 255
217 233 255
217 233 255
217 233 255
217 233 255
217 233 255
217 233 255
217 233 255
217 233 255
217 233 255
217 233 255
217 233 255
217 233 255
217 233 255
217 233 255
217 233 255
217 233 255
217 233 255
217 233 255
217 233 255
217 233 255
217 233 255
217 233 255
217 233 255
217 233 255
217 233 255
217 233 255
217 233 255
217 233 255
217 233 255
217 233 255
217 233 255
217 233 255
217 233 255
217 233 255
217 233 255
217 233 255
217 233 255
217 233 255
217 233 255
217 233 255
217 233 255
217 233 255
217 233 255
217 233 255
217 233 255
217 233 255
217 233 255
217 233 255
217 233 255
217 233 255
217 233 255
217 233 255
217 233 255
217 233 255
217 233 255
217 233 255
217 233 255
217 233 255
217 233 255
217 233 255
217 233 255
217 233 255
217 233 255
217 233 255
217 233 255
217 233 255
217 233 255
217 233 255
217 233 255
217 233 255
217 233 255
217 233 255
217 233 255
217 233 255
217 233 255
217 233 255
217 233 255
217 233 255
217 233 255
217 233 255
217 233 255
217 233 255
217 233 255
217 233 255
217 233 255
217 233 255
217 233 255
217 233 255
217 233 255
217 233 255
217 233 255
217 233 255
217 233 255
217 233 255
217 233 255
217 233 255
217 233 255
217 233 255
217 233 255
217 233 255
217 233 255
217 233 255
217 233 255
217 233 255
217 233 255
217 233 255
217 233 255
217 233 255
217 233 255
217 233 255
217 233 255
217 233 255
217 233 255
217 233 255
217 233 255
217 233 255
217 233 255
217 233 255
217 233 255
217 233 255
217 233 255
217 233 255
217 233 255
217 233 255
217 233 255
217 233 255
217 233 255
217 233 255
217 233 255
217 233 255
217 233 255
217 233 255
217 233 255
217 233 255
217 233 255
217 233 255
217 233 255
217 233 255
217 233 255
217 233 255
217 233 255
217 233 255
217 233 255
217 233 255
217 233 255
217 233 255
217 233 255
217 233 255
217 233 255
217 233 255
217 233 255
217 233 255
217 233 255
217 233 255
217 233 255
217 233 255
217 233 255
217 233 255
217 233 255
217 233 255
217 233 255
217 233 255
217 233 255
217 233 255
217 233 255
217 233 255
217 233 255
217 233 255
217 233 255
217 233 255
217 233 255
217 233 255
217 233 255
217 233 255
217 233 255
217 233 255
217 233 255
217 233 255
217 233 255
217 233 255
217 233 255
217 233 255
217 233 255
217 233 255
217 233 255
217 233 255
217 233 255
217 233 255
217 233 255
217 233 255
217 233 255
217 233 255
217 233 255
217 233 255
217 233 255
217 233 255
217 233 255
217 233 255
217 233 255
217 233 255
217 233 255
217 233 255
217 233 255
217 233 255
217 233 255
217 233 255
217 233 255
217 233 255
217 233 255
217 233 255
217 233 255
217 233 255
217 233 255
217 233 255
217 233 255
217 233 255
217 233 255
217 233 255
217 233 255
217 233 255
217 233 255
217 233 255
217 233 255
217 233 255
217 233 255
217 233 255
217 233 255
217 233 255
217 233 255
217 233 255
217 233 255
217 233 255
217 233 255
217 233 255
217 233 255
217 233 255
217 233 255
217 233 255
166 179 198
21 23 49
0 0 42
0 0 42
0 0 42
0 0 42
0 0 42
0 0 42
0 0 42
0 0 42
0 0 42
0 0 42
0 0 42
0 0 42
0 0 42
0 0 42
0 0 42
0 0 42
0 0 42
0 0 42
0 0 42
0 0 42
0 0 42
0 0 37
17 29 21
34 45 25
59 67 43
63 65 43
77 75 51
103 97 76
124 118 101
123 116 94
108 99 74
102 93 67
96 90 63
99 97 71
102 101 77
160 165 151
157 164 153
73 78 55
58 68 34
65 69 41
66 64 40
97 95 74
104 101 77
124 124 98
77 81 47
50 54 27
68 76 51
56 59 34
88 92 66
87 97 68
82 90 61
80 88 60
80 88 58
75 83 51
75 86 51
65 78 39
51 64 21
46 61 18
52 68 26
43 60 16
49 66 24
52 71 28
44 63 20
41 63 16
45 68 20
43 66 18
43 66 19
42 65 17
43 67 18
41 63 16
39 61 11
39 62 13
39 65 14
35 61 6
36 61 11
37 62 7
37 62 9
38 63 9
35 60 4
39 62 10
40 63 12
41 63 13
41 62 20
40 63 14
38 61 7
45 68 15
34 58 7
33 59 7
35 60 8
34 57 7
32 53 0
32 52 0
36 57 6
35 57 8
34 57 7
35 54 9
36 53 15
41 57 35
23 36 27
16 25 25
4 7 29
0 0 36
5 6 40
4 4 41
0 0 38
0 0 44
0 0 44
0 0 41
0 0 42
0 0 42
0 0 41
0 0 44
0 0 47
0 0 43
0 0 42
0 0 41
0 0 40
0 0 39
0 0 40
0 0 42
0 0 42
0 0 42
0 0 42
0 0 42
0 0 42
0 0 42
0 0 42
0 0 42
0 0 42
0 0 42
0 0 42
0 0 42
0 0 42
0 0 42
0 0 42
0 0 42
0 0 42
0 0 42
0 0 42
0 0 42
0 0 42
0 0 42
0 0 42
0 0 42
0 0 42
166 179 198
217 233 255
217 233 255
217 233 255
217 233 255
217 233 255
217 233 255
217 233 255
217 233 255
217 233 255
217 233 255
217 233 255
217 233 255
217 233 255
217 233 255
217 233 255
217 233 255
217 233 255
217 233 255
217 233 255
217 233 255
217 233 255
217 233 255
217 233 255
217 233 255
217 233 255
217 233 255
217 233 255
217 233 255
217 233 255
217 233 255
217 233 255
217 233 255
217 233 255
217 233 255
217 233 255
217 233 255
217 233 255
217 233 255
217 233 255
217 233 255
217 233 255
217 233 255
217 233 255
217 233 255
217 233 255
217 233 255
217 233 255
217 233 255
217 233 255
217 233 255
217 233 255
217 233 255
217 233 255
217 233 255
217 233 255
217 233 255
217 233 255
217 233 255
217 233 255
217 233 255
217 233 255
217 233 255
217 233 255
217 233 255
217 233 255
217 233 255
217 233 255
217 233 255
217 233 255
217 233 255
217 233 255
217 233 255
217 233 255
217 233 255
217 233 255
217 233 255
217 233 255
217 233 255
217 233 255
217 233 255
217 233 255
217 233 255
217 233 255
217 233 255
217 233 255
217 233 255
217 233 255
217 233 255
217 233 255
217 233 255
217 233 255
217 233 255
217 233 255
217 233 255
217 233 255
217 233 255
217 233 255
217 233 255
217 233 255
217 233 255
217 233 255
217 233 255
217 233 255
217 233 255
217 233 255
217 233 255
217 233 255
217 233 255
217 233 255
217 233 255
217 233 255
217 233 255
217 233 255
217 233 255
217 233 255
217 233 255
217 233 255
217 233 255
217 233 255
217 233 255
217 233 255
217 233 255
217 233 255
217 233 255
217 233 255
217 233 255
217 233 255
217 233 255
217 233 255
217 233 255
217 233 255
217 233 255
217 233 255
217 233 255
217 233 255
217 233 255
217 233 255
217 233 255
217 233 255
217 233 255
217 233 255
217 233 255
217 233 255
217 233 255
217 233 255
217 233 255
217 233 255
217 233 255
217 233 255
217 233 255
217 233 255
217 233 255
217 233 255
217 233 255
217 233 255
217 233 255
217 233 255
217 233 255
217 233 255
217 233 255
217 233 255
217 233 255
217 233 255
217 233 255
217 233 255
217 233 255
217 233 255
217 233 255
217 233 255
217 233 255
217 233 255
217 233 255
217 233 255
217 233 255
217 233 255
217 233 255
217 233 255
217 233 255
217 233 255
217 233 255
217 233 255
217 233 255
217 233 255
217 233 255
217 233 255
217 233 255
217 233 255
217 233 255
217 233 255
217 233 255
217 233 255
217 233 255
217 233 255
217 233 255
217 233 255
217 233 255
217 233 255
217 233 255
217 233 255
217 233 255
217 233 255
217 233 255
217 233 255
217 233 255
217 233 255
217 233 255
217 233 255
217 233 255
217 233 255
217 233 255
217 233 255
217 233 255
217 233 255
217 233 255
217 233 255
217 233 255
217 233 255
217 233 255
217 233 255
217 233 255
217 233 255
217 233 255
217 233 255
217 233 255
217 233 255
217 233 255
217 233 255
217 233 255
217 233 255
217 233 255
217 233 255
217 233 255
217 233 255
217 233 255
217 233 255
217 233 255
217 233 255
217 233 255
217 233 255
217 233 255
217 233 255
217 233 255
217 233 255
217 233 255
217 233 255
217 233 255
217 233 255
217 233 255
217 233 255
217 233 255
217 233 255
152 163 181
0 0 42
0 0 42
0 0 42
0 0 42
0 0 42
0 0 42
0 0 42
0 0 42
0 0 42
0 0 42
0 0 42
0 0 42
0 0 42
0 0 42
0 0 42
0 0 42
0 0 42
0 0 42
0 0 42
0 0 42
0 0 42
0 0 42
0 0 39
11 18 32
20 33 9
29 36 13
39 40 20
65 65 41
83 79 57
122 118 99
146 142 125
114 108 85
115 111 88
108 102 76
103 98 70
112 110 84
125 123 103
192 205 192
121 115 92
98 100 65
53 59 27
91 89 69
120 114 92
137 139 112
94 92 62
74 78 48
51 62 31
50 59 30
38 44 19
58 65 42
89 99 71
85 96 64
83 91 58
83 89 56
87 96 62
85 94 60
79 90 54
75 88 48
73 87 44
69 84 42
68 82 40
63 78 37
59 74 35
50 68 27
46 66 23
41 62 13
44 67 18
43 66 19
44 67 19
42 66 17
42 65 16
42 65 16
39 61 13
38 61 10
36 60 9
36 61 7
33 58 5
34 58 5
35 60 8
39 65 15
45 70 20
37 62 6
38 63 9
40 65 14
36 60 8
46 72 25
35 59 10
33 57 0
32 57 6
27 54 0
31 58 0
30 54 0
30 52 5
32 52 10
40 61 15
42 63 14
38 60 11
42 61 17
41 57 20
28 35 32
0 0 39
0 0 40
0 0 42
0 0 42
0 0 42
0 0 44
0 0 40
0 0 40
0 0 42
0 0 42
0 0 45
0 0 47
0 0 45
0 0 38
0 0 41
0 0 43
0 0 42
0 0 42
0 0 40
0 0 39
0 0 39
0 0 42
0 0 42
0 0 42
0 0 42
0 0 42
0 0 42
0 0 42
0 0 42
0 0 42
0 0 42
0 0 42
0 0 42
0 0 42
0 0 42
0 0 42
0 0 42
0 0 42
0 0 42
0 0 42
0 0 42
0 0 42
0 0 42
0 0 42
0 0 42
0 0 42
0 0 42
21 23 49
156 168 186
217 233 255
217 233 255
217 233 255
217 233 255
217 233 255
217 233 255
217 233 255
217 233 255
217 233 255
217 233 255
217 233 255
217 233 255
217 233 255
217 233 255
217 233 255
217 233 255
217 233 255
217 233 255
217 233 255
217 233 255
217 233 255
217 233 255
217 233 255
217 233 255
217 233 255
217 233 255
217 233 255
217 233 255
217 233 255
217 233 255
217 233 255
217 233 255
217 233 255
217 233 255
217 233 255
217 233 255
217 233 255
217 233 255
217 233 255
217 233 255
217 233 255
217 233 255
217 233 255
217 233 255
217 233 255
217 233 255
217 233 255
217 233 255
217 233 255
217 233 255
217 233 255
217 233 255
217 233 255
217 233 255
217 233 255
217 233 255
217 233 255
217 233 255
217 233 255
217 233 255
217 233 255
217 233 255
217 233 255
217 233 255
217 233 255
217 233 255
217 233 255
217 233 255
217 233 255
217 233 255
217 233 255
217 233 255
217 233 255
217 233 255
217 233 255
217 233 255
217 233 255
217 233 255
217 233 255
217 233 255
217 233 255
217 233 255
217 233 255
217 233 255
217 233 255
217 233 255
217 233 255
217 233 255
217 233 255
217 233 255
217 233 255
217 233 255
217 233 255
217 233 255
217 233 255
217 233 255
217 233 255
217 233 255
217 233 255
217 233 255
217 233 255
217 233 255
217 233 255
217 233 255
217 233 255
217 233 255
217 233 255
217 233 255
217 233 255
217 233 255
217 233 255
217 233 255
217 233 255
217 233 255
217 233 255
217 233 255
217 233 255
217 233 255
217 233 255
217 233 255
217 233 255
217 233 255
217 233 255
217 233 255
217 233 255
217 233 255
217 233 255
217 233 255
217 233 255
217 233 255
217 233 255
217 233 255
217 233 255
217 233 255
217 233 255
217 233 255
217 233 255
217 233 255
217 233 255
217 233 255
217 233 255
217 233 255
217 233 255
217 233 255
217 233 255
217 233 255
217 233 255
217 233 255
217 233 255
217 233 255
217 233 255
217 233 255
217 233 255
217 233 255
217 233 255
217 233 255
217 233 255
217 233 255
217 233 255
217 233 255
217 233 255
217 233 255
217 233 255
217 233 255
217 233 255
217 233 255
217 233 255
217 233 255
217 233 255
217 233 255
217 233 255
217 233 255
217 233 255
217 233 255
217 233 255
217 233 255
217 233 255
217 233 255
217 233 255
217 233 255
217 233 255
217 233 255
217 233 255
217 233 255
217 233 255
217 233 255
217 233 255
217 233 255
217 233 255
217 233 255
217 233 255
217 233 255
217 233 255
217 233 255
217 233 255
217 233 255
217 233 255
217 233 255
217 233 255
217 233 255
217 233 255
217 233 255
217 233 255
217 233 255
217 233 255
217 233 255
217 233 255
217 233 255
217 233 255
217 233 255
217 233 255
217 233 255
217 233 255
217 233 255
217 233 255
217 233 255
217 233 255
217 233 255
217 233 255
217 233 255
217 233 255
217 233 255
217 233 255
217 233 255
217 233 255
217 233 255
217 233 255
217 233 255
217 233 255
217 233 255
217 233 255
217 233 255
217 233 255
217 233 255
217 233 255
217 233 255
217 233 255
217 233 255
217 233 255
217 233 255
217 233 255
217 233 255
217 233 255
217 233 255
217 233 255
217 233 255
217 233 255
217 233 255
217 233 255
161 173 191
0 0 42
0 0 42
0 0 42
0 0 42
0 0 42
0 0 42
0 0 42
0 0 42
0 0 42
0 0 42
0 0 42
0 0 42
0 0 42
0 0 42
0 0 42
0 0 42
0 0 42
0 0 42
0 0 42
0 0 42
0 0 42
0 0 42
0 0 41
5 7 39
26 40 22
39 45 19
86 86 54
38 39 13
59 64 41
109 112 90
134 127 104
131 120 97
120 114 93
110 105 82
111 108 84
99 95 68
107 102 74
128 124 102
147 143 120
122 119 91
85 93 58
74 80 57
94 88 67
105 101 77
102 106 82
75 77 53
51 59 31
42 50 21
45 49 25
58 61 40
49 50 30
85 90 61
83 89 55
84 90 55
85 92 57
87 95 59
84 92 57
75 83 46
79 89 50
77 88 47
71 82 41
69 82 40
65 79 39
60 76 37
51 69 28
47 67 22
45 67 20
45 68 21
42 65 18
43 66 18
40 63 16
43 65 17
41 64 16
40 63 14
38 60 12
37 62 12
40 66 17
39 64 15
38 63 13
39 64 13
36 61 8
32 57 4
35 61 0
36 62 6
39 64 14
39 64 13
30 54 4
29 53 0
32 56 0
30 54 0
29 55 5
29 56 4
29 54 0
27 50 3
35 59 13
37 60 11
36 59 15
28 51 11
38 61 22
32 47 23
15 21 21
0 0 38
0 0 46
0 0 40
0 0 42
0 0 42
0 0 42
0 0 42
0 0 42
0 0 42
0 0 42
0 0 42
0 0 42
0 0 42
0 0 42
0 0 42
0 0 42
0 0 42
0 0 42
0 0 42
0 0 42
0 0 42
0 0 42
0 0 42
0 0 42
0 0 42
0 0 42
0 0 42
0 0 42
0 0 42
0 0 42
0 0 42
0 0 42
0 0 42
0 0 42
0 0 42
0 0 42
0 0 42
0 0 42
0 0 42
0 0 42
0 0 42
0 0 42
0 0 42
0 0 42
0 0 42
0 0 42
0 0 42
0 0 42
0 0 42
152 163 181
217 233 255
217 233 255
217 233 255
217 233 255
217 233 255
217 233 255
217 233 255
217 233 255
217 233 255
217 233 255
217 233 255
217 233 255
217 233 255
217 233 255
217 233 255
217 233 255
217 233 255
217 233 255
217 233 255
217 233 255
217 233 255
217 233 255
217 233 255
217 233 255
217 233 255
217 233 255
217 233 255
217 233 255
217 233 255
217 233 255
217 233 255
217 233 255
217 233 255
217 233 255
217 233 255
217 233 255
217 233 255
217 233 255
217 233 255
217 233 255
217 233 255
217 233 255
217 233 255
217 233 255
217 233 255
217 233 255
217 233 255
217 233 255
217 233 255
217 233 255
217 233 255
217 233 255
217 233 255
217 233 255
217 233 255
217 233 255
217 233 255
217 233 255
217 233 255
217 233 255
217 233 255
217 233 255
217 233 255
217 233 255
217 233 255
217 233 255
217 233 255
217 233 255
217 233 255
217 233 255
217 233 255
217 233 255
217 233 255
217 233 255
217 233 255
217 233 255
217 233 255
217 233 255
217 233 255
217 233 255
217 233 255
217 233 255
217 233 255
217 233 255
217 233 255
217 233 255
217 233 255
217 233 255
217 233 255
217 233 255
217 233 255
217 233 255
217 233 255
217 233 255
217 233 255
217 233 255
217 233 255
217 233 255
217 233 255
217 233 255
217 233 255
217 233 255
217 233 255
217 233 255
217 233 255
217 233 255
217 233 255
217 233 255
217 233 255
217 233 255
217 233 255
217 233 255
217 233 255
217 233 255
217 233 255
217 233 255
217 233 255
217 233 255
217 233 255
217 233 255
217 233 255
217 233 255
217 233 255
217 233 255
217 233 255
217 233 255
217 233 255
217 233 255
217 233 255
217 233 255
217 233 255
217 233 255
217 233 255
217 233 255
217 233 255
217 233 255
217 233 255
217 233 255
217 233 255
217 233 255
217 233 255
217 233 255
217 233 255
217 233 255
217 233 255
217 233 255
217 233 255
217 233 255
217 233 255
217 233 255
217 233 255
217 233 255
217 233 255
217 233 255
217 233 255
217 233 255
217 233 255
217 233 255
217 233 255
217 233 255
217 233 255
217 233 255
217 233 255
217 233 255
217 233 255
217 233 255
217 233 255
217 233 255
217 233 255
217 233 255
217 233 255
217 233 255
217 233 255
217 233 255
217 233 255
217 233 255
217 233 255
217 233 255
217 233 255
217 233 255
217 233 255
217 233 255
217 233 255
217 233 255
217 233 255
217 233 255
217 233 255
217 233 255
217 233 255
217 233 255
217 233 255
217 233 255
217 233 255
217 233 255
217 233 255
217 233 255
217 233 255
217 233 255
217 233 255
217 233 255
217 233 255
217 233 255
217 233 255
217 233 255
217 233 255
217 233 255
217 233 255
217 233 255
217 233 255
217 233 255
217 233 255
217 233 255
217 233 255
217 233 255
217 233 255
217 233 255
217 233 255
217 233 255
217 233 255
217 233 255
217 233 255
217 233 255
217 233 255
217 233 255
217 233 255
217 233 255
217 233 255
217 233 255
217 233 255
217 233 255
217 233 255
217 233 255
217 233 255
217 233 255
217 233 255
217 233 255
217 233 255
217 233 255
217 233 255
217 233 255
217 233 255
217 233 255
217 233 255
217 233 255
217 233 255
217 233 255
217 233 255
153 165 183
0 0 42
0 0 42
0 0 42
0 0 42
0 0 42
0 0 42
0 0 42
0 0 42
0 0 42
0 0 42
0 0 42
0 0 42
0 0 42
0 0 42
0 0 42
0 0 42
0 0 42
0 0 42
0 0 42
0 0 42
0 0 42
0 0 42
0 0 39
0 0 44
6 10 27
33 43 16
66 69 41
81 81 49
36 38 12
59 62 38
110 108 85
140 131 111
113 104 80
117 113 87
103 95 70
112 107 83
100 96 69
100 96 69
143 140 117
145 143 122
88 84 58
104 101 80
145 134 113
170 150 131
141 128 109
93 89 72
99 103 89
57 64 44
54 60 35
55 57 36
68 70 49
76 79 57
100 104 74
97 100 65
95 100 63
99 104 68
87 92 55
83 90 54
86 93 56
87 95 58
84 93 55
75 84 45
74 85 46
69 83 41
64 80 37
53 72 29
50 71 28
49 71 26
44 66 21
43 66 17
39 61 14
39 61 13
41 64 15
39 60 11
37 59 11
44 67 22
39 64 14
41 67 15
43 69 17
40 65 12
39 64 11
34 58 7
35 59 2
37 64 10
33 60 1
40 67 10
38 64 14
25 51 0
31 55 0
31 56 0
31 56 0
29 56 2
23 50 1
22 48 0
35 60 16
31 56 10
30 54 7
33 56 9
20 40 12
36 60 24
26 39 29
0 0 30
0 0 40
0 0 43
0 0 42
0 0 42
0 0 42
0 0 42
0 0 42
0 0 42
0 0 42
0 0 42
0 0 42
0 0 42
0 0 42
0 0 42
0 0 42
0 0 42
0 0 42
0 0 42
0 0 42
0 0 42
0 0 42
0 0 42
0 0 42
0 0 42
0 0 42
0 0 42
0 0 42
0 0 42
0 0 42
0 0 42
0 0 42
0 0 42
0 0 42
0 0 42
0 0 42
0 0 42
0 0 42
0 0 42
0 0 42
0 0 42
0 0 42
0 0 42
0 0 42
0 0 42
0 0 42
0 0 42
0 0 42
0 0 42
0 0 42
0 0 42
144 154 172
217 233 255
217 233 255
217 233 255
217 233 255
217 233 255
217 233 255
217 233 255
217 233 255
217 233 255
217 233 255
217 233 255
217 233 255
217 233 255
217 233 255
217 233 255
217 233 255
217 233 255
217 233 255
217 233 255
217 233 255
217 233 255
217 233 255
217 233 255
217 233 255
217 233 255
217 233 255
217 233 255
217 233 255
217 233 255
217 233 255
217 233 255
217 233 255
217 233 255
217 233 255
217 233 255
217 233 255
217 233 255
217 233 255
217 233 255
217 233 255
217 233 255
217 233 255
217 233 255
217 233 255
217 233 255
217 233 255
217 233 255
217 233 255
217 233 255
217 233 255
217 233 255
217 233 255
217 233 255
217 233 255
217 233 255
217 233 255
217 233 255
217 233 255
217 233 255
217 233 255
217 233 255
217 233 255
217 233 255
217 233 255
217 233 255
217 233 255
217 233 255
217 233 255
217 233 255
217 233 255
217 233 255
217 233 255
217 233 255
217 233 255
217 233 255
217 233 255
217 233 255
217 233 255
217 233 255
217 233 255
217 233 255
217 233 255
217 233 255
217 233 255
217 233 255
217 233 255
217 233 255
217 233 255
217 233 255
217 233 255
217 233 255
217 233 255
217 233 255
217 233 255
217 233 255
217 233 255
217 233 255
217 233 255
217 233 255
217 233 255
217 233 255
217 233 255
217 233 255
217 233 255
217 233 255
217 233 255
217 233 255
217 233 255
217 233 255
217 233 255
217 233 255
217 233 255
217 233 255
217 233 255
217 233 255
217 233 255
217 233 255
217 233 255
217 233 255
217 233 255
217 233 255
217 233 255
217 233 255
217 233 255
217 233 255
217 233 255
217 233 255
217 233 255
217 233 255
217 233 255
217 233 255
217 233 255
217 233 255
217 233 255
217 233 255
217 233 255
217 233 255
217 233 255
217 233 255
217 233 255
217 233 255
217 233 255
217 233 255
217 233 255
217 233 255
217 233 255
217 233 255
217 233 255
217 233 255
217 233 255
217 233 255
217 233 255
217 233 255
217 233 255
217 233 255
217 233 255
217 233 255
217 233 255
217 233 255
217 233 255
217 233 255
217 233 255
217 233 255
217 233 255
217 233 255
217 233 255
217 233 255
217 233 255
217 233 255
217 233 255
217 233 255
217 233 255
217 233 255
217 233 255
217 233 255
217 233 255
217 233 255
217 233 255
217 233 255
217 233 255
217 233 255
217 233 255
217 233 255
217 233 255
217 233 255
217 233 255
217 233 255
217 233 255
217 233 255
217 233 255
217 233 255
217 233 255
217 233 255
217 233 255
217 233 255
217 233 255
217 233 255
217 233 255
217 233 255
217 233 255
217 233 255
217 233 255
217 233 255
217 233 255
217 233 255
217 233 255
217 233 255
217 233 255
217 233 255
217 233 255
217 233 255
217 233 255
217 233 255
217 233 255
217 233 255
217 233 255
217 233 255
217 233 255
217 233 255
217 233 255
217 233 255
217 233 255
217 233 255
217 233 255
217 233 255
217 233 255
217 233 255
217 233 255
217 233 255
217 233 255
217 233 255
217 233 255
217 233 255
217 233 255
217 233 255
217 233 255
217 233 255
217 233 255
217 233 255
217 233 255
217 233 255
217 233 255
217 233 255
217 233 255
217 233 255
142 153 170
0 0 42
0 0 42
0 0 42
0 0 42
0 0 42
0 0 42
0 0 42
0 0 42
0 0 42
0 0 42
0 0 42
0 0 42
0 0 42
0 0 42
0 0 42
0 0 42
0 0 42
0 0 42
0 0 42
0 0 42
0 0 42
0 0 42
0 0 40
0 0 38
0 0 45
17 22 36
46 55 22
77 81 44
81 85 50
42 44 20
68 68 47
108 104 86
128 122 104
118 112 87
108 102 76
124 118 97
133 130 110
99 94 67
104 97 70
127 121 97
82 76 52
73 69 45
124 114 95
161 142 118
138 117 93
113 101 80
91 91 75
54 61 37
46 53 25
53 60 36
80 87 67
55 58 32
92 97 72
105 109 78
94 98 62
94 99 58
90 94 56
83 88 50
74 79 41
82 87 49
90 97 58
80 86 46
78 84 43
77 86 44
71 85 40
59 75 30
52 72 26
55 76 31
52 72 28
45 65 20
41 62 16
36 56 10
42 63 16
36 57 10
36 57 10
32 51 7
34 55 8
40 64 15
34 58 7
40 65 15
39 64 11
42 68 14
36 60 6
38 63 9
37 63 9
39 66 5
44 73 16
33 59 7
32 58 0
29 54 0
28 53 0
28 52 0
29 55 0
26 52 0
26 51 6
30 54 10
34 58 11
31 56 1
33 59 0
22 44 10
28 49 25
20 33 25
0 0 44
0 0 45
0 0 40
0 0 42
0 0 41
0 0 42
0 0 42
0 0 42
0 0 42
0 0 42
0 0 42
0 0 42
0 0 42
0 0 42
0 0 42
0 0 42
0 0 42
0 0 42
0 0 42
0 0 42
0 0 42
0 0 42
0 0 42
0 0 42
0 0 42
0 0 42
0 0 42
0 0 42
0 0 42
0 0 42
0 0 42
0 0 42
0 0 42
0 0 42
0 0 42
0 0 42
0 0 42
0 0 42
0 0 42
0 0 42
0 0 42
0 0 42
0 0 42
0 0 42
0 0 42
0 0 42
0 0 42
0 0 42
0 0 42
0 0 42
0 0 42
0 0 42
150 161 179
217 233 255
217 233 255
217 233 255
217 233 255
217 233 255
217 233 255
217 233 255
217 233 255
217 233 255
217 233 255
217 233 255
217 233 255
217 233 255
217 233 255
217 233 255
217 233 255
217 233 255
217 233 255
217 233 255
217 233 255
217 233 255
217 233 255
217 233 255
217 233 255
217 233 255
217 233 255
217 233 255
217 233 255
217 233 255
217 233 255
217 233 255
217 233 255
217 233 255
217 233 255
217 233 255
217 233 255
217 233 255
217 233 255
217 233 255
217 233 255
217 233 255
217 233 255
217 233 255
217 233 255
217 233 255
217 233 255
217 233 255
217 233 255
217 233 255
217 233 255
217 233 255
217 233 255
217 233 255
217 233 255
217 233 255
217 233 255
217 233 255
217 233 255
217 233 255
217 233 255
217 233 255
217 233 255
217 233 255
217 233 255
217 233 255
217 233 255
217 233 255
217 233 255
217 233 255
217 233 255
217 233 255
217 233 255
217 233 255
217 233 255
217 233 255
217 233 255
217 233 255
217 233 255
217 233 255
217 233 255
217 233 255
217 233 255
217 233 255
217 233 255
217 233 255
217 233 255
217 233 255
217 233 255
217 233 255
217 233 255
217 233 255
217 233 255
217 233 255
217 233 255
217 233 255
217 233 255
217 233 255
217 233 255
217 233 255
217 233 255
217 233 255
217 233 255
217 233 255
217 233 255
217 233 255
217 233 255
217 233 255
217 233 255
217 233 255
217 233 255
217 233 255
217 233 255
217 233 255
217 233 255
217 233 255
217 233 255
217 233 255
217 233 255
217 233 255
217 233 255
217 233 255
217 233 255
217 233 255
217 233 255
217 233 255
217 233 255
217 233 255
217 233 255
217 233 255
217 233 255
217 233 255
217 233 255
217 233 255
217 233 255
217 233 255
217 233 255
217 233 255
217 233 255
217 233 255
217 233 255
217 233 255
217 233 255
217 233 255
217 233 255
217 233 255
217 233 255
217 233 255
217 233 255
217 233 255
217 233 255
217 233 255
217 233 255
217 233 255
217 233 255
217 233 255
217 233 255
217 233 255
217 233 255
217 233 255
217 233 255
217 233 255
217 233 255
217 233 255
217 233 255
217 233 255
217 233 255
217 233 255
217 233 255
217 233 255
217 233 255
217 233 255
217 233 255
217 233 255
217 233 255
217 233 255
217 233 255
217 233 255
217 233 255
217 233 255
217 233 255
217 233 255
217 233 255
217 233 255
217 233 255
217 233 255
217 233 255
217 233 255
217 233 255
217 233 255
217 233 255
217 233 255
217 233 255
217 233 255
217 233 255
217 233 255
217 233 255
217 233 255
217 233 255
217 233 255
217 233 255
217 233 255
217 233 255
217 233 255
217 233 255
217 233 255
217 233 255
217 233 255
217 233 255
217 233 255
217 233 255
217 233 255
217 233 255
217 233 255
217 233 255
217 233 255
217 233 255
217 233 255
217 233 255
217 233 255
217 233 255
217 233 255
217 233 255
217 233 255
217 233 255
217 233 255
217 233 255
217 233 255
217 233 255
217 233 255
217 233 255
217 233 255
217 233 255
217 233 255
217 233 255
217 233 255
217 233 255
217 233 255
217 233 255
217 233 255
217 233 255
217 233 255
217 233 255
217 233 255
172 185 204
0 0 42
0 0 42
0 0 42
0 0 42
0 0 42
0 0 42
0 0 42
0 0 42
0 0 42
0 0 42
0 0 42
0 0 42
0 0 42
0 0 42
0 0 42
0 0 42
0 0 42
0 0 42
0 0 42
0 0 42
0 0 42
0 0 42
0 0 42
0 0 39
0 0 39
0 0 47
19 22 31
72 80 57
81 83 43
93 95 59
42 42 16
77 79 59
101 97 76
123 118 94
142 138 110
130 122 98
122 112 87
117 110 85
103 96 71
95 85 63
101 94 76
77 75 54
106 95 75
151 128 105
145 121 94
117 98 78
112 100 80
55 53 26
40 43 12
39 43 17
47 51 30
85 93 72
63 68 48
87 92 66
106 112 84
86 90 52
94 99 59
87 93 54
79 84 45
79 84 44
83 89 49
80 87 44
81 87 43
79 84 39
78 86 41
72 86 38
62 80 30
56 76 25
58 79 31
58 78 32
49 70 25
50 71 26
46 68 23
43 64 16
43 64 16
29 49 5
31 50 0
32 52 9
46 71 21
40 65 14
40 65 14
36 60 8
36 61 7
38 63 9
40 65 11
40 66 9
36 64 6
36 64 5
34 62 0
33 59 0
31 58 0
29 56 0
29 55 0
30 55 0
30 54 0
31 56 0
33 57 0
30 54 0
30 55 0
32 57 0
30 54 12
25 43 29
3 11 19
0 2 43
0 0 47
0 0 41
0 0 41
0 0 42
0 0 42
0 0 42
0 0 42
0 0 42
0 0 42
0 0 42
0 0 42
0 0 42
0 0 42
0 0 42
0 0 42
0 0 42
0 0 42
0 0 42
0 0 42
0 0 42
0 0 42
0 0 42
0 0 42
0 0 42
0 0 42
0 0 42
0 0 42
0 0 42
0 0 42
0 0 42
0 0 42
0 0 42
0 0 42
0 0 42
0 0 42
0 0 42
0 0 42
0 0 42
0 0 42
0 0 42
0 0 42
0 0 42
0 0 42
0 0 42
0 0 42
0 0 42
0 0 42
0 0 42
0 0 42
0 0 42
0 0 42
0 0 42
144 154 172
217 233 255
217 233 255
217 233 255
217 233 255
217 233 255
217 233 255
217 233 255
217 233 255
217 233 255
217 233 255
217 233 255
217 233 255
217 233 255
217 233 255
217 233 255
217 233 255
217 233 255
217 233 255
217 233 255
217 233 255
217 233 255
217 233 255
217 233 255
217 233 255
217 233 255
217 233 255
217 233 255
217 233 255
217 233 255
217 233 255
217 233 255
217 233 255
217 233 255
217 233 255
217 233 255
217 233 255
217 233 255
217 233 255
217 233 255
217 233 255
217 233 255
217 233 255
217 233 255
217 233 255
217 233 255
217 233 255
217 233 255
217 233 255
217 233 255
217 233 255
217 233 255
217 233 255
217 233 255
217 233 255
217 233 255
217 233 255
217 233 255
217 233 255
217 233 255
217 233 255
217 233 255
217 233 255
217 233 255
217 233 255
217 233 255
217 233 255
217 233 255
217 233 255
217 233 255
217 233 255
217 233 255
217 233 255
217 233 255
217 233 255
217 233 255
217 233 255
217 233 255
217 233 255
217 233 255
217 233 255
217 233 255
217 233 255
217 233 255
217 233 255
217 233 255
217 233 255
217 233 255
217 233 255
217 233 255
217 233 255
217 233 255
217 233 255
217 233 255
217 233 255
217 233 255
217 233 255
217 233 255
217 233 255
217 233 255
217 233 255
217 233 255
217 233 255
217 233 255
217 233 255
217 233 255
217 233 255
217 233 255
217 233 255
217 233 255
217 233 255
217 233 255
217 233 255
217 233 255
217 233 255
217 233 255
217 233 255
217 233 255
217 233 255
217 233 255
217 233 255
217 233 255
217 233 255
217 233 255
217 233 255
217 233 255
217 233 255
217 233 255
217 233 255
217 233 255
217 233 255
217 233 255
217 233 255
217 233 255
217 233 255
217 233 255
217 233 255
217 233 255
217 233 255
217 233 255
217 233 255
217 233 255
217 233 255
217 233 255
217 233 255
217 233 255
217 233 255
217 233 255
217 233 255
217 233 255
217 233 255
217 233 255
217 233 255
217 233 255
217 233 255
217 233 255
217 233 255
217 233 255
217 233 255
217 233 255
217 233 255
217 233 255
217 233 255
217 233 255
217 233 255
217 233 255
217 233 255
217 233 255
217 233 255
217 233 255
217 233 255
217 233 255
217 233 255
217 233 255
217 233 255
217 233 255
217 233 255
217 233 255
217 233 255
217 233 255
217 233 255
217 233 255
217 233 255
217 233 255
217 233 255
217 233 255
217 233 255
217 233 255
217 233 255
217 233 255
217 233 255
217 233 255
217 233 255
217 233 255
217 233 255
217 233 255
217 233 255
217 233 255
217 233 255
217 233 255
217 233 255
217 233 255
217 233 255
217 233 255
217 233 255
217 233 255
217 233 255
217 233 255
217 233 255
217 233 255
217 233 255
217 233 255
217 233 255
217 233 255
217 233 255
217 233 255
217 233 255
217 233 255
217 233 255
217 233 255
217 233 255
217 233 255
217 233 255
217 233 255
217 233 255
217 233 255
217 233 255
217 233 255
217 233 255
217 233 255
217 233 255
217 233 255
217 233 255
217 233 255
217 233 255
217 233 255
217 233 255
217 233 255
217 233 255
217 233 255
217 233 255
217 233 255
159 171 190
21 23 49
0 0 42
0 0 42
0 0 42
0 0 42
0 0 42
0 0 42
0 0 42
0 0 42
0 0 42
0 0 42
0 0 42
0 0 42
0 0 42
0 0 42
0 0 42
0 0 42
0 0 42
0 0 42
0 0 42
0 0 42
0 0 42
0 0 42
0 0 43
0 0 41
0 0 37
0 0 46
7 8 33
68 73 48
91 89 57
92 94 62
61 64 41
63 63 41
108 105 82
112 106 81
124 114 89
118 108 84
127 118 94
120 111 88
117 106 85
130 117 98
117 103 86
121 108 93
162 131 115
143 106 83
170 142 123
165 142 128
175 166 148
119 115 84
94 94 66
70 69 41
59 60 35
88 91 70
47 47 27
81 81 58
85 84 58
88 93 56
91 97 58
90 96 58
87 93 53
94 101 61
90 96 52
86 93 47
83 87 41
84 87 40
80 89 39
73 88 36
57 76 20
52 73 19
55 75 25
48 66 20
42 61 15
37 58 13
38 58 13
40 61 13
43 65 19
39 59 10
42 61 18
52 74 28
48 73 25
39 64 11
40 64 13
28 51 3
38 64 12
41 67 12
39 64 10
36 62 5
29 57 0
27 55 0
29 57 0
34 63 7
37 66 9
36 64 1
30 57 0
33 58 0
32 55 0
32 54 2
36 59 6
32 55 0
31 54 0
36 60 8
35 59 13
37 54 36
4 8 25
0 2 44
0 0 42
0 0 42
0 0 40
0 0 45
0 0 43
0 0 42
0 0 42
0 0 42
0 0 42
0 0 42
0 0 42
0 0 42
0 0 42
0 0 42
0 0 42
0 0 42
0 0 42
0 0 42
0 0 42
0 0 42
0 0 42
0 0 42
0 0 42
0 0 42
0 0 42
0 0 42
0 0 42
0 0 42
0 0 42
0 0 42
0 0 42
0 0 42
0 0 42
0 0 42
0 0 42
0 0 42
0 0 42
0 0 42
0 0 42
0 0 42
0 0 42
0 0 42
0 0 42
0 0 42
0 0 42
0 0 42
0 0 42
0 0 42
0 0 41
0 0 42
0 0 42
0 0 42
0 0 42
171 183 203
217 233 255
217 233 255
217 233 255
217 233 255
217 233 255
217 233 255
217 233 255
217 233 255
217 233 255
217 233 255
217 233 255
217 233 255
217 233 255
217 233 255
217 233 255
217 233 255
217 233 255
217 233 255
217 233 255
217 233 255
217 233 255
217 233 255
217 233 255
217 233 255
217 233 255
217 233 255
217 233 255
217 233 255
217 233 255
217 233 255
217 233 255
217 233 255
217 233 255
217 233 255
217 233 255
217 233 255
217 233 255
217 233 255
217 233 255
217 233 255
217 233 255
217 233 255
217 233 255
217 233 255
217 233 255
217 233 255
217 233 255
217 233 255
217 233 255
217 233 255
217 233 255
217 233 255
217 233 255
217 233 255
217 233 255
217 233 255
217 233 255
217 233 255
217 233 255
217 233 255
217 233 255
217 233 255
217 233 255
217 233 255
217 233 255
217 233 255
217 233 255
217 233 255
217 233 255
217 233 255
217 233 255
217 233 255
217 233 255
217 233 255
217 233 255
217 233 255
217 233 255
217 233 255
217 233 255
217 233 255
217 233 255
217 233 255
217 233 255
217 233 255
217 233 255
217 233 255
217 233 255
217 233 255
217 233 255
217 233 255
217 233 255
217 233 255
217 233 255
217 233 255
217 233 255
217 233 255
217 233 255
217 233 255
217 233 255
217 233 255
217 233 255
217 233 255
217 233 255
217 233 255
217 233 255
217 233 255
217 233 255
217 233 255
217 233 255
217 233 255
217 233 255
217 233 255
217 233 255
217 233 255
217 233 255
217 233 255
217 233 255
217 233 255
217 233 255
217 233 255
217 233 255
217 233 255
217 233 255
217 233 255
217 233 255
217 233 255
217 233 255
217 233 255
217 233 255
217 233 255
217 233 255
217 233 255
217 233 255
217 233 255
217 233 255
217 233 255
217 233 255
217 233 255
217 233 255
217 233 255
217 233 255
217 233 255
217 233 255
217 233 255
217 233 255
217 233 255
217 233 255
217 233 255
217 233 255
217 233 255
217 233 255
217 233 255
217 233 255
217 233 255
217 233 255
217 233 255
217 233 255
217 233 255
217 233 255
217 233 255
217 233 255
217 233 255
217 233 255
217 233 255
217 233 255
217 233 255
217 233 255
217 233 255
217 233 255
217 233 255
217 233 255
217 233 255
217 233 255
217 233 255
217 233 255
217 233 255
217 233 255
217 233 255
217 233 255
217 233 255
217 233 255
217 233 255
217 233 255
217 233 255
217 233 255
217 233 255
217 233 255
217 233 255
217 233 255
217 233 255
217 233 255
217 233 255
217 233 255
217 233 255
217 233 255
217 233 255
217 233 255
217 233 255
217 233 255
217 233 255
217 233 255
217 233 255
217 233 255
217 233 255
217 233 255
217 233 255
217 233 255
217 233 255
217 233 255
217 233 255
217 233 255
217 233 255
217 233 255
217 233 255
217 233 255
217 233 255
217 233 255
217 233 255
217 233 255
217 233 255
217 233 255
217 233 255
217 233 255
217 233 255
217 233 255
217 233 255
217 233 255
217 233 255
217 233 255
217 233 255
217 233 255
217 233 255
217 233 255
217 233 255
217 233 255
217 233 255
217 233 255
217 233 255
217 233 255
180 194 213
0 0 42
0 0 42
0 0 42
0 0 42
0 0 42
0 0 42
0 0 42
0 0 42
0 0 42
0 0 42
0 0 42
0 0 42
0 0 42
0 0 42
0 0 42
0 0 42
0 0 42
0 0 42
0 0 42
0 0 42
0 0 42
0 0 42
0 0 42
0 0 42
0 0 45
0 0 39
0 0 38
0 0 48
8 9 27
68 70 59
100 93 63
90 93 61
91 99 67
56 56 30
120 117 96
123 115 93
137 130 107
128 120 99
128 118 97
143 132 113
119 104 85
122 105 88
109 95 80
113 96 82
178 148 132
152 127 103
125 110 89
126 111 96
151 149 124
148 149 117
126 123 96
75 70 47
94 93 73
55 53 39
76 75 57
93 93 73
103 102 79
96 99 65
82 87 48
80 86 45
83 90 47
84 91 47
79 84 41
79 83 34
78 81 31
81 86 39
78 88 40
62 76 26
54 71 21
52 70 21
53 73 24
43 61 10
41 62 12
34 55 6
33 52 9
34 54 6
32 51 0
45 64 17
54 75 28
54 75 29
49 71 25
53 76 32
40 63 12
32 54 0
34 58 6
39 66 7
39 66 12
38 65 9
32 59 0
32 59 8
35 64 9
33 59 4
34 60 10
26 49 0
31 53 4
39 60 8
41 63 12
42 65 12
33 56 7
34 57 2
39 65 11
42 70 13
32 57 2
26 44 18
6 18 23
0 1 35
0 0 40
0 0 42
0 0 41
0 0 45
0 0 44
0 0 42
0 0 42
0 0 42
0 0 42
0 0 42
0 0 42
0 0 42
0 0 42
0 0 42
0 0 42
0 0 42
0 0 42
0 0 42
0 0 42
0 0 42
0 0 42
0 0 42
0 0 42
0 0 42
0 0 42
0 0 42
0 0 42
0 0 42
0 0 42
0 0 42
0 0 42
0 0 42
0 0 42
0 0 42
0 0 42
0 0 42
0 0 42
0 0 42
0 0 42
0 0 42
0 0 42
0 0 42
0 0 42
0 0 42
0 0 42
0 0 42
0 0 42
0 0 42
0 0 42
0 0 43
0 0 40
0 0 42
0 0 42
0 0 42
180 194 213
217 233 255
217 233 255
217 233 255
217 233 255
217 233 255
217 233 255
217 233 255
217 233 255
217 233 255
217 233 255
217 233 255
217 233 255
217 233 255
217 233 255
217 233 255
217 233 255
217 233 255
217 233 255
217 233 255
217 233 255
217 233 255
217 233 255
217 233 255
217 233 255
217 233 255
217 233 255
217 233 255
217 233 255
217 233 255
217 233 255
217 233 255
217 233 255
217 233 255
217 233 255
217 233 255
217 233 255
217 233 255
217 233 255
217 233 255
217 233 255
217 233 255
217 233 255
217 233 255
217 233 255
217 233 255
217 233 255
217 233 255
217 233 255
217 233 255
217 233 255
217 233 255
217 233 255
217 233 255
217 233 255
217 233 255
217 233 255
217 233 255
217 233 255
217 233 255
217 233 255
217 233 255
217 233 255
217 233 255
217 233 255
217 233 255
217 233 255
217 233 255
217 233 255
217 233 255
217 233 255
217 233 255
217 233 255
217 233 255
217 233 255
217 233 255
217 233 255
217 233 255
217 233 255
217 233 255
217 233 255
217 233 255
217 233 255
217 233 255
217 233 255
217 233 255
217 233 255
217 233 255
217 233 255
217 233 255
217 233 255
217 233 255
217 233 255
217 233 255
217 233 255
217 233 255
217 233 255
217 233 255
217 233 255
217 233 255
217 233 255
217 233 255
217 233 255
217 233 255
217 233 255
217 233 255
217 233 255
217 233 255
217 233 255
217 233 255
217 233 255
217 233 255
217 233 255
217 233 255
217 233 255
217 233 255
217 233 255
217 233 255
217 233 255
217 233 255
217 233 255
217 233 255
217 233 255
217 233 255
217 233 255
217 233 255
217 233 255
217 233 255
217 233 255
217 233 255
217 233 255
217 233 255
217 233 255
217 233 255
217 233 255
217 233 255
217 233 255
217 233 255
217 233 255
217 233 255
217 233 255
217 233 255
217 233 255
217 233 255
217 233 255
217 233 255
217 233 255
217 233 255
217 233 255
217 233 255
217 233 255
217 233 255
217 233 255
217 233 255
217 233 255
217 233 255
217 233 255
217 233 255
217 233 255
217 233 255
217 233 255
217 233 255
217 233 255
217 233 255
217 233 255
217 233 255
217 233 255
217 233 255
217 233 255
217 233 255
217 233 255
217 233 255
217 233 255
217 233 255
217 233 255
217 233 255
217 233 255
217 233 255
217 233 255
217 233 255
217 233 255
217 233 255
217 233 255
217 233 255
217 233 255
217 233 255
217 233 255
217 233 255
217 233 255
217 233 255
217 233 255
217 233 255
217 233 255
217 233 255
217 233 255
217 233 255
217 233 255
217 233 255
217 233 255
217 233 255
217 233 255
217 233 255
217 233 255
217 233 255
217 233 255
217 233 255
217 233 255
217 233 255
217 233 255
217 233 255
217 233 255
217 233 255
217 233 255
217 233 255
217 233 255
217 233 255
217 233 255
217 233 255
217 233 255
217 233 255
217 233 255
217 233 255
217 233 255
217 233 255
217 233 255
217 233 255
217 233 255
217 233 255
217 233 255
217 233 255
217 233 255
217 233 255
217 233 255
217 233 255
217 233 255
217 233 255
217 233 255
217 233 255
193 207 228
21 23 49
0 0 42
0 0 42
0 0 42
0 0 42
0 0 42
0 0 42
0 0 42
0 0 42
0 0 42
0 0 42
0 0 42
0 0 42
0 0 42
0 0 42
0 0 42
0 0 42
0 0 42
0 0 42
0 0 42
0 0 42
0 0 42
0 0 42
0 0 42
0 0 41
0 0 42
0 0 41
0 0 42
0 0 42
7 6 35
73 69 53
97 92 64
95 96 65
95 95 66
59 54 30
136 129 102
120 109 79
133 125 96
131 127 98
131 121 96
133 116 95
111 93 74
103 89 69
131 122 105
109 93 74
175 156 136
154 136 113
132 114 89
96 84 58
121 117 90
132 129 100
131 125 100
116 108 87
112 107 89
64 60 42
87 85 66
97 92 73
108 106 84
107 107 77
97 99 60
96 101 56
82 87 44
86 90 48
84 87 43
83 84 36
82 84 35
80 84 36
80 89 44
56 69 21
54 72 24
49 69 20
47 66 16
52 71 22
50 72 22
41 62 13
40 61 11
41 63 17
43 64 19
50 71 25
49 70 21
53 74 25
49 72 25
42 63 19
36 58 8
32 54 0
36 61 5
40 65 9
38 63 8
33 59 4
34 60 3
36 62 7
29 55 0
27 53 0
26 50 0
32 53 8
41 62 11
40 60 6
42 64 10
33 54 5
35 57 11
41 67 11
44 71 19
41 68 22
29 56 12
25 46 16
24 40 31
4 7 29
0 0 43
0 0 43
0 0 40
0 0 43
0 0 45
0 0 42
0 0 42
0 0 42
0 0 42
0 0 42
0 0 42
0 0 42
0 0 42
0 0 42
0 0 42
0 0 42
0 0 42
0 0 42
0 0 42
0 0 42
0 0 42
0 0 42
0 0 42
0 0 42
0 0 42
0 0 42
0 0 42
0 0 42
0 0 42
0 0 42
0 0 42
0 0 42
0 0 42
0 0 42
0 0 42
0 0 42
0 0 42
0 0 42
0 0 42
0 0 42
0 0 42
0 0 42
0 0 42
0 0 42
0 0 42
0 0 42
0 0 42
0 0 42
0 0 42
0 0 42
0 0 41
3 4 40
5 5 43
0 0 42
43 46 65
184 198 218
217 233 255
217 233 255
217 233 255
217 233 255
217 233 255
217 233 255
217 233 255
217 233 255
217 233 255
217 233 255
217 233 255
217 233 255
217 233 255
217 233 255
217 233 255
217 233 255
217 233 255
217 233 255
217 233 255
217 233 255
217 233 255
217 233 255
217 233 255
217 233 255
217 233 255
217 233 255
217 233 255
217 233 255
217 233 255
217 233 255
217 233 255
217 233 255
217 233 255
217 233 255
217 233 255
217 233 255
217 233 255
217 233 255
217 233 255
217 233 255
217 233 255
217 233 255
217 233 255
217 233 255
217 233 255
217 233 255
217 233 255
217 233 255
217 233 255
217 233 255
217 233 255
217 233 255
217 233 255
217 233 255
217 233 255
217 233 255
217 233 255
217 233 255
217 233 255
217 233 255
217 233 255
217 233 255
217 233 255
217 233 255
217 233 255
217 233 255
217 233 255
217 233 255
217 233 255
217 233 255
217 233 255
217 233 255
217 233 255
217 233 255
217 233 255
217 233 255
217 233 255
217 233 255
217 233 255
217 233 255
217 233 255
217 233 255
217 233 255
217 233 255
217 233 255
217 233 255
217 233 255
217 233 255
217 233 255
217 233 255
217 233 255
217 233 255
217 233 255
217 233 255
217 233 255
217 233 255
217 233 255
217 233 255
217 233 255
217 233 255
217 233 255
217 233 255
217 233 255
217 233 255
217 233 255
217 233 255
217 233 255
217 233 255
217 233 255
217 233 255
217 233 255
217 233 255
217 233 255
217 233 255
217 233 255
217 233 255
217 233 255
217 233 255
217 233 255
217 233 255
217 233 255
217 233 255
217 233 255
217 233 255
217 233 255
217 233 255
217 233 255
217 233 255
217 233 255
217 233 255
217 233 255
217 233 255
217 233 255
217 233 255
217 233 255
217 233 255
217 233 255
217 233 255
217 233 255
217 233 255
217 233 255
217 233 255
217 233 255
217 233 255
217 233 255
217 233 255
217 233 255
217 233 255
217 233 255
217 233 255
217 233 255
217 233 255
217 233 255
217 233 255
217 233 255
217 233 255
217 233 255
217 233 255
217 233 255
217 233 255
217 233 255
217 233 255
217 233 255
217 233 255
217 233 255
217 233 255
217 233 255
217 233 255
217 233 255
217 233 255
217 233 255
217 233 255
217 233 255
217 233 255
217 233 255
217 233 255
217 233 255
217 233 255
217 233 255
217 233 255
217 233 255
217 233 255
217 233 255
217 233 255
217 233 255
217 233 255
217 233 255
217 233 255
217 233 255
217 233 255
217 233 255
217 233 255
217 233 255
217 233 255
217 233 255
217 233 255
217 233 255
217 233 255
217 233 255
217 233 255
217 233 255
217 233 255
217 233 255
217 233 255
217 233 255
217 233 255
217 233 255
217 233 255
217 233 255
217 233 255
217 233 255
217 233 255
217 233 255
217 233 255
217 233 255
217 233 255
217 233 255
217 233 255
217 233 255
217 233 255
217 233 255
217 233 255
217 233 255
217 233 255
217 233 255
217 233 255
217 233 255
217 233 255
217 233 255
217 233 255
217 233 255
217 233 255
217 233 255
217 233 255
217 233 255
204 219 240
78 84 100
0 0 42
0 0 42
0 0 42
0 0 42
0 0 42
0 0 42
0 0 42
0 0 42
0 0 42
0 0 42
0 0 42
0 0 42
0 0 42
0 0 42
0 0 42
0 0 42
0 0 42
0 0 42
0 0 42
0 0 42
0 0 42
0 0 42
0 0 42
0 0 42
0 0 41
0 0 42
0 0 42
0 0 40
0 0 42
0 0 31
53 53 41
105 98 72
120 111 76
112 107 80
121 117 96
165 154 121
156 145 116
161 154 125
135 129 97
128 116 88
129 112 91
113 99 78
100 97 74
65 67 43
78 64 47
154 128 117
167 131 120
161 135 121
113 103 83
86 86 61
107 101 72
128 120 95
102 90 68
116 110 92
99 94 73
104 99 78
109 98 76
104 96 73
92 90 60
88 86 51
87 87 49
79 77 39
86 85 50
89 86 49
87 85 44
82 83 39
80 84 38
69 78 30
64 77 31
55 72 25
45 65 17
40 60 11
36 55 8
35 54 4
36 54 1
33 52 0
34 53 4
50 72 23
44 66 16
52 76 25
43 66 10
39 63 8
33 55 3
40 63 10
35 58 1
42 66 15
43 69 14
35 61 8
40 65 10
36 61 0
31 55 0
30 56 0
28 53 3
36 59 12
43 66 18
35 56 3
37 56 3
38 60 6
39 60 7
43 66 19
42 65 16
34 58 10
34 57 18
27 46 24
21 36 39
5 11 24
0 0 37
0 0 47
0 0 44
0 0 40
0 0 40
0 0 42
0 0 42
0 0 42
0 0 42
0 0 42
0 0 42
0 0 42
0 0 42
0 0 42
0 0 42
0 0 42
0 0 42
0 0 42
0 0 42
0 0 42
0 0 42
0 0 42
0 0 42
0 0 42
0 0 42
0 0 42
0 0 42
0 0 42
0 0 42
0 0 42
0 0 42
0 0 42
0 0 42
0 0 42
0 0 42
0 0 42
0 0 42
0 0 42
0 0 42
0 0 42
0 0 42
0 0 42
0 0 42
0 0 42
0 0 42
0 0 42
0 0 42
0 0 42
0 0 42
0 0 42
0 0 42
0 0 42
0 0 40
4 5 38
0 0 41
0 0 41
87 93 109
203 218 239
217 233 255
217 233 255
217 233 255
217 233 255
217 233 255
217 233 255
217 233 255
217 233 255
217 233 255
217 233 255
217 233 255
217 233 255
217 233 255
217 233 255
217 233 255
217 233 255
217 233 255
217 233 255
217 233 255
217 233 255
217 233 255
217 233 255
217 233 255
217 233 255
217 233 255
217 233 255
217 233 255
217 233 255
217 233 255
217 233 255
217 233 255
217 233 255
217 233 255
217 233 255
217 233 255
217 233 255
217 233 255
217 233 255
217 233 255
217 233 255
217 233 255
217 233 255
217 233 255
217 233 255
217 233 255
217 233 255
217 233 255
217 233 255
217 233 255
217 233 255
217 233 255
217 233 255
217 233 255
217 233 255
217 233 255
217 233 255
217 233 255
217 233 255
217 233 255
217 233 255
217 233 255
217 233 255
217 233 255
217 233 255
217 233 255
217 233 255
217 233 255
217 233 255
217 233 255
217 233 255
217 233 255
217 233 255
217 233 255
217 233 255
217 233 255
217 233 255
217 233 255
217 233 255
217 233 255
217 233 255
217 233 255
217 233 255
217 233 255
217 233 255
217 233 255
217 233 255
217 233 255
217 233 255
217 233 255
217 233 255
217 233 255
217 233 255
217 233 255
217 233 255
217 233 255
217 233 255
217 233 255
217 233 255
217 233 255
217 233 255
217 233 255
217 233 255
217 233 255
217 233 255
217 233 255
217 233 255
217 233 255
217 233 255
217 233 255
217 233 255
217 233 255
217 233 255
217 233 255
217 233 255
217 233 255
217 233 255
217 233 255
217 233 255
217 233 255
217 233 255
217 233 255
217 233 255
217 233 255
217 233 255
217 233 255
217 233 255
217 233 255
217 233 255
217 233 255
217 233 255
217 233 255
217 233 255
217 233 255
217 233 255
217 233 255
217 233 255
217 233 255
217 233 255
217 233 255
217 233 255
217 233 255
217 233 255
217 233 255
217 233 255
217 233 255
217 233 255
217 233 255
217 233 255
217 233 255
217 233 255
217 233 255
217 233 255
217 233 255
217 233 255
217 233 255
217 233 255
217 233 255
217 233 255
217 233 255
217 233 255
217 233 255
217 233 255
217 233 255
217 233 255
217 233 255
217 233 255
217 233 255
217 233 255
217 233 255
217 233 255
217 233 255
217 233 255
217 233 255
217 233 255
217 233 255
217 233 255
217 233 255
217 233 255
217 233 255
217 233 255
217 233 255
217 233 255
217 233 255
217 233 255
217 233 255
217 233 255
217 233 255
217 233 255
217 233 255
217 233 255
217 233 255
217 233 255
217 233 255
217 233 255
217 233 255
217 233 255
217 233 255
217 233 255
217 233 255
217 233 255
217 233 255
217 233 255
217 233 255
217 233 255
217 233 255
217 233 255
217 233 255
217 233 255
217 233 255
217 233 255
217 233 255
217 233 255
217 233 255
217 233 255
217 233 255
217 233 255
217 233 255
217 233 255
217 233 255
217 233 255
217 233 255
217 233 255
217 233 255
217 233 255
217 233 255
217 233 255
217 233 255
217 233 255
217 233 255
217 233 255
217 233 255
217 233 255
217 233 255
212 227 249
89 96 112
0 0 42
0 0 42
0 0 42
0 0 42
0 0 42
0 0 42
0 0 42
0 0 42
0 0 42
0 0 42
0 0 42
0 0 42
0 0 42
0 0 42
0 0 42
0 0 42
0 0 42
0 0 42
0 0 42
0 0 42
0 0 42
0 0 42
0 0 42
0 0 42
0 0 42
0 0 42
0 0 42
0 0 41
0 0 39
0 0 42
0 0 39
63 64 68
82 81 59
102 103 65
100 101 76
176 170 150
175 158 134
163 151 127
153 147 121
152 145 119
136 123 97
133 121 99
112 102 77
86 85 61
88 89 65
63 56 32
87 73 57
116 100 86
122 113 97
112 109 93
95 90 70
107 99 72
125 116 94
110 99 79
106 98 78
114 109 88
121 111 89
115 102 81
109 100 78
100 94 69
96 91 62
97 92 63
95 89 62
97 91 63
99 93 62
102 98 60
100 101 59
88 94 50
76 84 39
57 69 22
53 71 21
53 73 25
44 66 17
40 60 14
38 55 10
40 57 12
33 51 0
30 49 0
32 54 3
44 69 18
42 67 11
47 74 18
36 61 0
39 62 6
42 66 12
37 60 1
36 62 7
38 63 11
41 67 13
38 63 12
34 59 0
35 60 9
40 64 13
39 62 13
32 54 8
31 51 4
34 53 6
39 59 13
37 58 3
46 69 17
39 61 13
43 65 20
31 51 15
28 44 29
5 12 22
0 0 35
0 0 41
0 0 46
0 0 50
0 0 43
0 0 38
0 0 38
0 0 41
0 0 42
0 0 42
0 0 42
0 0 42
0 0 42
0 0 42
0 0 42
0 0 42
0 0 42
0 0 42
0 0 42
0 0 42
0 0 42
0 0 42
0 0 42
0 0 42
0 0 42
0 0 42
0 0 42
0 0 42
0 0 42
0 0 42
0 0 42
0 0 42
0 0 42
0 0 42
0 0 42
0 0 42
0 0 42
0 0 42
0 0 42
0 0 42
0 0 42
0 0 42
0 0 42
0 0 42
0 0 42
0 0 42
0 0 42
0 0 42
0 0 42
0 0 42
0 0 42
0 0 42
0 0 42
0 0 42
0 0 42
0 0 40
0 0 38
10 11 48
0 0 42
89 96 112
213 229 250
217 233 255
217 233 255
217 233 255
217 233 255
217 233 255
217 233 255
217 233 255
217 233 255
217 233 255
217 233 255
217 233 255
217 233 255
217 233 255
217 233 255
217 233 255
217 233 255
217 233 255
217 233 255
217 233 255
217 233 255
217 233 255
217 233 255
217 233 255
217 233 255
217 233 255
217 233 255
217 233 255
217 233 255
217 233 255
217 233 255
217 233 255
217 233 255
217 233 255
217 233 255
217 233 255
217 233 255
217 233 255
217 233 255
217 233 255
217 233 255
217 233 255
217 233 255
217 233 255
217 233 255
217 233 255
217 233 255
217 233 255
217 233 255
217 233 255
217 233 255
217 233 255
217 233 255
217 233 255
217 233 255
217 233 255
217 233 255
217 233 255
217 233 255
217 233 255
217 233 255
217 233 255
217 233 255
217 233 255
217 233 255
217 233 255
217 233 255
217 233 255
217 233 255
217 233 255
217 233 255
217 233 255
217 233 255
217 233 255
217 233 255
217 233 255
217 233 255
217 233 255
217 233 255
217 233 255
217 233 255
217 233 255
217 233 255
217 233 255
217 233 255
217 233 255
217 233 255
217 233 255
217 233 255
217 233 255
217 233 255
217 233 255
217 233 255
217 233 255
217 233 255
217 233 255
217 233 255
217 233 255
217 233 255
217 233 255
217 233 255
217 233 255
217 233 255
217 233 255
217 233 255
217 233 255
217 233 255
217 233 255
217 233 255
217 233 255
217 233 255
217 233 255
217 233 255
217 233 255
217 233 255
217 233 255
217 233 255
217 233 255
217 233 255
217 233 255
217 233 255
217 233 255
217 233 255
217 233 255
217 233 255
217 233 255
217 233 255
217 233 255
217 233 255
217 233 255
217 233 255
217 233 255
217 233 255
217 233 255
217 233 255
217 233 255
217 233 255
217 233 255
217 233 255
217 233 255
217 233 255
217 233 255
217 233 255
217 233 255
217 233 255
217 233 255
217 233 255
217 233 255
217 233 255
217 233 255
217 233 255
217 233 255
217 233 255
217 233 255
217 233 255
217 233 255
217 233 255
217 233 255
217 233 255
217 233 255
217 233 255
217 233 255
217 233 255
217 233 255
217 233 255
217 233 255
217 233 255
217 233 255
217 233 255
217 233 255
217 233 255
217 233 255
217 233 255
217 233 255
217 233 255
217 233 255
217 233 255
217 233 255
217 233 255
217 233 255
217 233 255
217 233 255
217 233 255
217 233 255
217 233 255
217 233 255
217 233 255
217 233 255
217 233 255
217 233 255
217 233 255
217 233 255
217 233 255
217 233 255
217 233 255
217 233 255
217 233 255
217 233 255
217 233 255
217 233 255
217 233 255
217 233 255
217 233 255
217 233 255
217 233 255
217 233 255
217 233 255
217 233 255
217 233 255
217 233 255
217 233 255
217 233 255
217 233 255
217 233 255
217 233 255
217 233 255
217 233 255
217 233 255
217 233 255
217 233 255
217 233 255
217 233 255
217 233 255
217 233 255
217 233 255
217 233 255
217 233 255
217 233 255
217 233 255
217 233 255
217 233 255
217 233 255
217 233 255
130 140 157
0 0 42
0 0 42
0 0 42
0 0 42
0 0 42
0 0 42
0 0 42
0 0 42
0 0 42
0 0 42
0 0 42
0 0 42
0 0 42
0 0 42
0 0 42
0 0 42
0 0 42
0 0 42
0 0 42
0 0 42
0 0 42
0 0 42
0 0 42
0 0 42
0 0 42
0 0 42
0 0 42
0 0 42
0 0 42
0 0 40
0 0 41
0 0 41
16 17 29
22 24 20
66 73 66
84 87 77
101 90 69
108 95 75
154 149 125
167 162 137
178 176 151
153 143 119
154 141 116
140 127 102
114 106 82
96 91 64
69 70 42
67 71 42
50 55 27
44 46 22
56 56 33
99 97 75
94 86 65
129 120 102
116 106 87
96 89 70
119 112 92
119 111 90
117 103 81
110 96 74
109 98 76
116 107 83
112 102 79
102 92 71
94 86 63
106 101 71
98 93 58
91 93 51
76 81 36
75 84 38
68 81 36
66 82 35
55 74 28
48 68 23
43 64 18
43 60 16
42 58 16
27 45 0
28 48 0
25 46 3
42 68 16
44 71 17
43 70 15
35 60 0
32 57 0
43 69 16
31 55 3
32 55 4
39 63 12
37 60 3
36 58 7
39 61 0
37 60 0
41 63 10
35 56 2
31 51 0
35 56 7
41 62 13
42 64 16
41 63 11
34 55 5
38 58 12
32 49 17
12 19 14
9 16 41
0 0 40
0 0 43
0 0 43
0 0 45
0 0 42
0 0 40
0 0 39
0 0 39
0 0 41
0 0 43
0 0 42
0 0 42
0 0 42
0 0 42
0 0 42
0 0 42
0 0 42
0 0 42
0 0 42
0 0 42
0 0 42
0 0 42
0 0 42
0 0 42
0 0 42
0 0 42
0 0 42
0 0 42
0 0 42
0 0 42
0 0 42
0 0 42
0 0 42
0 0 42
0 0 42
0 0 42
0 0 42
0 0 42
0 0 42
0 0 42
0 0 42
0 0 42
0 0 42
0 0 42
0 0 42
0 0 42
0 0 42
0 0 42
0 0 42
0 0 42
0 0 42
0 0 42
0 0 42
0 0 42
0 0 42
0 0 42
0 0 40
0 0 41
0 0 40
0 0 42
0 0 42
115 123 140
217 233 255
217 233 255
217 233 255
217 233 255
217 233 255
217 233 255
217 233 255
217 233 255
217 233 255
217 233 255
217 233 255
217 233 255
217 233 255
217 233 255
217 233 255
217 233 255
217 233 255
217 233 255
217 233 255
217 233 255
217 233 255
217 233 255
217 233 255
217 233 255
217 233 255
217 233 255
217 233 255
217 233 255
217 233 255
217 233 255
217 233 255
217 233 255
217 233 255
217 233 255
217 233 255
217 233 255
217 233 255
217 233 255
217 233 255
217 233 255
217 233 255
217 233 255
217 233 255
217 233 255
217 233 255
217 233 255
217 233 255
217 233 255
217 233 255
217 233 255
217 233 255
217 233 255
217 233 255
217 233 255
217 233 255
217 233 255
217 233 255
217 233 255
217 233 255
217 233 255
217 233 255
217 233 255
217 233 255
217 233 255
217 233 255
217 233 255
217 233 255
217 233 255
217 233 255
217 233 255
217 233 255
217 233 255
217 233 255
217 233 255
217 233 255
217 233 255
217 233 255
217 233 255
217 233 255
217 233 255
217 233 255
217 233 255
217 233 255
217 233 255
217 233 255
217 233 255
217 233 255
217 233 255
217 233 255
217 233 255
217 233 255
217 233 255
217 233 255
217 233 255
217 233 255
217 233 255
217 233 255
217 233 255
217 233 255
217 233 255
217 233 255
217 233 255
217 233 255
217 233 255
217 233 255
217 233 255
217 233 255
217 233 255
217 233 255
217 233 255
217 233 255
217 233 255
217 233 255
217 233 255
217 233 255
217 233 255
217 233 255
217 233 255
217 233 255
217 233 255
217 233 255
217 233 255
217 233 255
217 233 255
217 233 255
217 233 255
217 233 255
217 233 255
217 233 255
217 233 255
217 233 255
217 233 255
217 233 255
217 233 255
217 233 255
217 233 255
217 233 255
217 233 255
217 233 255
217 233 255
217 233 255
217 233 255
217 233 255
217 233 255
217 233 255
217 233 255
217 233 255
217 233 255
217 233 255
217 233 255
217 233 255
217 233 255
217 233 255
217 233 255
217 233 255
217 233 255
217 233 255
217 233 255
217 233 255
217 233 255
217 233 255
217 233 255
217 233 255
217 233 255
217 233 255
217 233 255
217 233 255
217 233 255
217 233 255
217 233 255
217 233 255
217 233 255
217 233 255
217 233 255
217 233 255
217 233 255
217 233 255
217 233 255
217 233 255
217 233 255
217 233 255
217 233 255
217 233 255
217 233 255
217 233 255
217 233 255
217 233 255
217 233 255
217 233 255
217 233 255
217 233 255
217 233 255
217 233 255
217 233 255
217 233 255
217 233 255
217 233 255
217 233 255
217 233 255
217 233 255
217 233 255
217 233 255
217 233 255
217 233 255
217 233 255
217 233 255
217 233 255
217 233 255
217 233 255
217 233 255
217 233 255
217 233 255
217 233 255
217 233 255
217 233 255
217 233 255
217 233 255
217 233 255
217 233 255
217 233 255
217 233 255
217 233 255
217 233 255
217 233 255
217 233 255
217 233 255
217 233 255
217 233 255
217 233 255
217 233 255
217 233 255
144 155 172
0 0 42
0 0 42
0 0 42
0 0 42
0 0 42
0 0 42
0 0 42
0 0 42
0 0 42
0 0 42
0 0 42
0 0 42
0 0 42
0 0 42
0 0 42
0 0 42
0 0 42
0 0 42
0 0 42
0 0 42
0 0 42
0 0 42
0 0 42
0 0 42
0 0 42
0 0 42
0 0 42
0 0 42
0 0 41
0 0 40
0 0 42
0 0 42
0 0 39
10 11 40
7 7 42
3 2 28
56 58 57
91 89 68
89 89 65
120 120 95
141 137 111
135 126 97
136 123 94
151 132 108
148 128 105
140 128 102
137 124 98
92 78 49
106 96 72
87 80 54
75 74 47
66 65 38
67 61 39
121 111 92
132 123 108
140 139 126
74 65 46
136 128 106
138 126 104
129 109 86
124 105 84
121 106 86
124 109 88
116 100 81
107 95 76
101 93 70
101 97 66
87 86 48
73 77 35
77 85 40
78 88 42
83 98 50
68 84 38
53 71 24
46 65 20
38 57 11
32 50 8
36 54 14
27 46 0
29 49 3
38 61 18
48 74 28
38 64 14
40 65 13
33 58 0
36 59 10
37 61 10
31 55 3
37 59 14
34 56 2
36 58 6
35 57 8
36 58 3
35 55 5
37 56 4
37 56 4
40 59 3
41 61 11
42 63 15
37 57 11
32 54 7
34 55 19
34 49 38
16 21 43
0 0 40
0 0 39
0 0 42
0 0 47
0 0 41
0 0 39
0 0 39
0 0 38
0 0 39
0 0 41
0 0 44
0 0 44
0 0 42
0 0 42
0 0 42
0 0 42
0 0 42
0 0 42
0 0 42
0 0 42
0 0 42
0 0 42
0 0 42
0 0 40
0 0 40
0 0 41
0 0 42
0 0 42
0 0 42
0 0 42
0 0 42
0 0 42
0 0 42
0 0 42
0 0 42
0 0 42
0 0 42
0 0 42
0 0 42
0 0 42
0 0 42
0 0 42
0 0 42
0 0 42
0 0 42
0 0 42
0 0 42
0 0 42
0 0 42
0 0 42
0 0 42
0 0 42
0 0 42
0 0 42
0 0 42
0 0 42
0 0 42
0 0 42
0 0 42
0 0 41
0 0 42
0 0 42
0 0 42
0 0 42
152 163 181
217 233 255
217 233 255
217 233 255
217 233 255
217 233 255
217 233 255
217 233 255
217 233 255
217 233 255
217 233 255
217 233 255
217 233 255
217 233 255
217 233 255
217 233 255
217 233 255
217 233 255
217 233 255
217 233 255
217 233 255
217 233 255
217 233 255
217 233 255
217 233 255
217 233 255
217 233 255
217 233 255
217 233 255
217 233 255
217 233 255
217 233 255
217 233 255
217 233 255
217 233 255
217 233 255
217 233 255
217 233 255
217 233 255
217 233 255
217 233 255
217 233 255
217 233 255
217 233 255
217 233 255
217 233 255
217 233 255
217 233 255
217 233 255
217 233 255
217 233 255
217 233 255
217 233 255
217 233 255
217 233 255
217 233 255
217 233 255
217 233 255
217 233 255
217 233 255
217 233 255
217 233 255
217 233 255
217 233 255
217 233 255
217 233 255
217 233 255
217 233 255
217 233 255
217 233 255
217 233 255
217 233 255
217 233 255
217 233 255
217 233 255
217 233 255
217 233 255
217 233 255
217 233 255
217 233 255
217 233 255
217 233 255
217 233 255
217 233 255
217 233 255
217 233 255
217 233 255
217 233 255
217 233 255
217 233 255
217 233 255
217 233 255
217 233 255
217 233 255
217 233 255
217 233 255
217 233 255
217 233 255
217 233 255
217 233 255
217 233 255
217 233 255
217 233 255
217 233 255
217 233 255
217 233 255
217 233 255
217 233 255
217 233 255
217 233 255
217 233 255
217 233 255
217 233 255
217 233 255
217 233 255
217 233 255
218 233 255
218 233 255
218 233 255
218 233 255
218 233 255
218 233 255
218 233 255
218 233 255
218 233 255
218 233 255
218 233 255
218 233 255
218 233 255
218 233 255
218 233 255
218 233 255
218 233 255
218 233 255
218 233 255
218 233 255
218 233 255
218 233 255
218 233 255
218 233 255
218 233 255
218 233 255
218 233 255
218 233 255
217 233 255
217 233 255
217 233 255
217 233 255
217 233 255
217 233 255
217 233 255
217 233 255
217 233 255
217 233 255
217 233 255
217 233 255
217 233 255
217 233 255
217 233 255
217 233 255
217 233 255
217 233 255
217 233 255
217 233 255
217 233 255
217 233 255
217 233 255
217 233 255
217 233 255
217 233 255
217 233 255
217 233 255
217 233 255
217 233 255
217 233 255
217 233 255
217 233 255
217 233 255
217 233 255
217 233 255
217 233 255
217 233 255
217 233 255
217 233 255
217 233 255
217 233 255
217 233 255
217 233 255
217 233 255
217 233 255
217 233 255
217 233 255
217 233 255
217 233 255
217 233 255
217 233 255
217 233 255
217 233 255
217 233 255
217 233 255
217 233 255
217 233 255
217 233 255
217 233 255
217 233 255
217 233 255
217 233 255
217 233 255
217 233 255
217 233 255
217 233 255
217 233 255
217 233 255
217 233 255
217 233 255
217 233 255
217 233 255
217 233 255
217 233 255
217 233 255
217 233 255
217 233 255
217 233 255
217 233 255
217 233 255
217 233 255
217 233 255
217 233 255
217 233 255
217 233 255
183 197 216
0 0 42
0 0 42
0 0 42
0 0 42
0 0 42
0 0 42
0 0 42
0 0 42
0 0 42
0 0 42
0 0 42
0 0 42
0 0 42
0 0 42
0 0 42
0 0 42
0 0 42
0 0 42
0 0 42
0 0 42
0 0 42
0 0 42
0 0 42
0 0 42
0 0 42
0 0 42
0 0 42
0 0 42
0 0 42
0 0 42
0 0 42
0 0 42
0 0 44
0 0 43
0 0 45
0 0 48
10 12 47
2 2 23
72 80 81
102 107 90
178 184 165
167 162 137
146 138 107
165 155 126
173 155 132
150 125 102
153 130 105
144 124 99
101 83 57
98 83 58
118 107 85
138 127 104
127 112 89
125 109 85
139 121 97
145 126 102
156 146 125
140 128 104
130 115 89
152 133 107
134 111 86
126 106 84
121 101 78
123 106 85
114 98 79
111 100 81
96 92 65
93 93 58
83 87 46
82 91 48
77 88 44
74 84 37
72 85 37
59 74 27
52 68 23
45 61 16
40 58 14
33 52 12
39 58 15
26 45 0
25 45 4
44 66 26
40 64 20
28 50 0
35 59 10
26 51 0
28 51 0
30 53 0
25 46 0
39 60 14
42 64 12
45 69 18
41 62 12
36 57 3
40 59 7
44 62 11
52 71 20
44 63 12
39 56 5
45 66 17
37 57 7
34 53 20
19 31 21
4 6 35
0 0 46
0 0 48
0 0 43
0 0 40
0 0 44
0 0 43
0 0 40
0 0 39
0 0 39
0 0 41
0 0 43
0 0 44
0 0 44
0 0 42
0 0 42
0 0 42
0 0 42
0 0 42
0 0 42
0 0 42
0 0 42
0 0 42
0 0 42
0 0 42
3 4 43
0 0 41
0 0 40
0 0 42
0 0 42
0 0 42
0 0 42
0 0 42
0 0 42
0 0 42
0 0 42
0 0 42
0 0 42
0 0 42
0 0 42
0 0 42
0 0 42
0 0 42
0 0 42
0 0 42
0 0 42
0 0 42
0 0 42
0 0 42
0 0 42
0 0 42
0 0 42
0 0 42
0 0 42
0 0 42
0 0 42
0 0 42
0 0 42
0 0 42
0 0 42
0 0 42
0 0 42
0 0 42
0 0 42
0 0 42
0 0 42
0 0 42
189 203 224
217 233 255
217 233 255
217 233 255
217 233 255
217 233 255
217 233 255
217 233 255
217 233 255
217 233 255
217 233 255
217 233 255
217 233 255
217 233 255
217 233 255
217 233 255
217 233 255
217 233 255
217 233 255
217 233 255
217 233 255
217 233 255
217 233 255
217 233 255
217 233 255
217 233 255
217 233 255
217 233 255
217 233 255
217 233 255
217 233 255
217 233 255
217 233 255
217 233 255
217 233 255
217 233 255
217 233 255
217 233 255
217 233 255
217 233 255
217 233 255
217 233 255
217 233 255
217 233 255
217 233 255
217 233 255
217 233 255
217 233 255
217 233 255
217 233 255
217 233 255
217 233 255
217 233 255
217 233 255
217 233 255
217 233 255
217 233 255
217 233 255
217 233 255
217 233 255
217 233 255
217 233 255
217 233 255
217 233 255
217 233 255
217 233 255
217 233 255
217 233 255
217 233 255
217 233 255
217 233 255
217 233 255
217 233 255
217 233 255
217 233 255
217 233 255
217 233 255
217 233 255
217 233 255
217 233 255
217 233 255
217 233 255
217 233 255
217 233 255
217 233 255
217 233 255
217 233 255
217 233 255
218 233 255
218 233 255
218 233 255
218 233 255
218 233 255
218 233 255
218 233 255
218 233 255
218 233 255
218 233 255
218 233 255
218 233 255
218 233 255
218 233 255
218 233 255
218 233 255
218 233 255
218 233 255
218 233 255
218 233 255
218 233 255
218 233 255
218 233 255
218 233 255
218 233 255
218 233 255
218 233 255
218 233 255
218 233 255
218 233 255
218 233 255
218 233 255
218 233 255
218 233 255
218 233 255
218 233 255
218 233 255
218 233 255
218 233 255
218 233 255
218 233 255
218 233 255
218 233 255
218 233 255
218 233 255
218 233 255
218 233 255
218 233 255
218 233 255
218 233 255
218 233 255
218 233 255
218 233 255
218 233 255
218 233 255
218 233 255
218 233 255
218 233 255
218 233 255
218 233 255
218 233 255
218 233 255
218 233 255
218 233 255
218 233 255
218 233 255
218 233 255
218 233 255
218 233 255
218 233 255
218 233 255
218 233 255
218 233 255
218 233 255
218 233 255
218 233 255
218 233 255
218 233 255
218 233 255
218 233 255
218 233 255
218 233 255
218 233 255
218 233 255
218 233 255
218 233 255
218 233 255
218 233 255
218 233 255
218 233 255
218 233 255
218 233 255
218 233 255
218 233 255
218 233 255
218 233 255
218 233 255
217 233 255
217 233 255
217 233 255
217 233 255
217 233 255
217 233 255
217 233 255
217 233 255
217 233 255
217 233 255
217 233 255
217 233 255
217 233 255
217 233 255
217 233 255
217 233 255
217 233 255
217 233 255
217 233 255
217 233 255
217 233 255
217 233 255
217 233 255
217 233 255
217 233 255
217 233 255
217 233 255
217 233 255
217 233 255
217 233 255
217 233 255
217 233 255
217 233 255
217 233 255
217 233 255
217 233 255
217 233 255
217 233 255
217 233 255
217 233 255
217 233 255
217 233 255
217 233 255
202 216 237
43 46 65
0 0 42
0 0 42
0 0 42
0 0 42
0 0 42
0 0 42
0 0 42
0 0 42
0 0 42
0 0 42
0 0 42
0 0 42
0 0 42
0 0 42
0 0 42
0 0 42
0 0 42
0 0 42
0 0 42
0 0 42
0 0 42
0 0 42
0 0 42
0 0 42
0 0 42
0 0 42
0 0 42
0 0 42
0 0 42
0 0 42
0 0 42
0 0 42
0 0 44
0 0 48
0 0 47
5 0 41
3 1 34
3 4 38
67 70 70
88 85 64
168 164 147
149 143 117
204 206 175
175 170 140
153 139 112
147 127 104
130 111 85
131 123 97
100 98 70
113 112 87
99 90 65
142 127 103
144 124 101
165 143 117
176 153 128
160 138 110
157 136 106
172 156 128
142 122 93
184 162 137
152 128 103
145 126 102
145 126 101
149 136 115
123 110 89
106 96 73
105 102 74
87 90 54
76 82 41
82 94 49
75 87 38
71 81 34
73 85 41
56 68 25
49 64 17
36 51 9
35 53 10
30 49 7
24 44 5
30 50 7
26 46 5
36 57 13
33 57 14
23 45 2
27 50 9
28 53 9
27 50 5
28 51 0
24 46 0
30 51 0
34 55 0
35 55 6
38 59 3
40 62 16
43 64 16
46 65 18
53 72 21
47 64 10
44 62 11
41 61 8
31 50 9
24 37 31
0 0 32
0 0 30
0 0 38
0 0 45
0 0 48
0 0 45
0 0 41
0 0 43
0 0 46
0 0 42
0 0 42
0 0 44
0 0 46
0 0 44
0 0 40
0 0 41
0 0 42
0 0 42
0 0 42
0 0 42
0 0 42
0 0 42
0 0 42
0 0 42
0 0 42
0 0 42
7 7 47
6 7 44
0 0 42
0 0 41
0 0 42
0 0 42
0 0 42
0 0 42
0 0 42
0 0 42
0 0 42
0 0 42
0 0 42
0 0 42
0 0 42
0 0 42
0 0 42
0 0 42
0 0 42
0 0 42
0 0 42
0 0 42
0 0 42
0 0 42
0 0 42
0 0 42
0 0 42
0 0 42
0 0 42
0 0 42
0 0 42
0 0 42
0 0 42
0 0 42
0 0 42
0 0 42
0 0 42
0 0 42
0 0 42
0 0 42
0 0 42
0 0 42
53 57 75
202 216 237
217 233 255
217 233 255
217 233 255
217 233 255
217 233 255
217 233 255
217 233 255
217 233 255
217 233 255
217 233 255
217 233 255
217 233 255
217 233 255
217 233 255
217 233 255
217 233 255
217 233 255
217 233 255
217 233 255
217 233 255
217 233 255
217 233 255
217 233 255
217 233 255
217 233 255
217 233 255
217 233 255
217 233 255
217 233 255
217 233 255
217 233 255
217 233 255
217 233 255
217 233 255
217 233 255
217 233 255
217 233 255
217 233 255
217 233 255
217 233 255
217 233 255
217 233 255
218 233 255
218 233 255
218 233 255
218 233 255
218 233 255
218 233 255
218 233 255
218 233 255
218 233 255
218 233 255
218 233 255
218 233 255
218 233 255
218 233 255
218 233 255
218 233 255
218 233 255
218 233 255
218 233 255
218 233 255
218 233 255
218 233 255
218 233 255
218 233 255
218 233 255
218 233 255
218 233 255
218 233 255
218 233 255
218 233 255
218 233 255
218 233 255
218 233 255
218 233 255
218 233 255
218 233 255
218 233 255
218 233 255
218 233 255
218 233 255
218 233 255
218 233 255
218 233 255
218 233 255
218 233 255
218 233 255
218 233 255
218 233 255
218 233 255
218 233 255
218 233 255
218 233 255
218 233 255
218 233 255
218 233 255
218 233 255
218 233 255
218 233 255
218 233 255
218 233 255
218 233 255
218 233 255
218 233 255
218 233 255
218 233 255
218 233 255
218 233 255
218 233 255
218 233 255
218 233 255
218 233 255
218 234 255
218 234 255
218 234 255
218 234 255
218 234 255
218 234 255
218 234 255
218 234 255
218 234 255
218 234 255
218 234 255
218 234 255
218 234 255
218 234 255
218 234 255
218 234 255
218 234 255
218 234 255
218 234 255
218 234 255
218 234 255
218 234 255
218 234 255
218 234 255
218 234 255
218 234 255
218 234 255
218 234 255
218 234 255
218 234 255
218 234 255
218 234 255
218 233 255
218 233 255
218 233 255
218 233 255
218 233 255
218 233 255
218 233 255
218 233 255
218 233 255
218 233 255
218 233 255
218 233 255
218 233 255
218 233 255
218 233 255
218 233 255
218 233 255
218 233 255
218 233 255
218 233 255
218 233 255
218 233 255
218 233 255
218 233 255
218 233 255
218 233 255
218 233 255
218 233 255
218 233 255
218 233 255
218 233 255
218 233 255
218 233 255
218 233 255
218 233 255
218 233 255
218 233 255
218 233 255
218 233 255
218 233 255
218 233 255
218 233 255
218 233 255
218 233 255
218 233 255
218 233 255
218 233 255
218 233 255
218 233 255
218 233 255
218 233 255
218 233 255
218 233 255
218 233 255
218 233 255
218 233 255
218 233 255
218 233 255
218 233 255
218 233 255
218 233 255
218 233 255
218 233 255
218 233 255
218 233 255
218 233 255
218 233 255
218 233 255
218 233 255
218 233 255
218 233 255
218 233 255
218 233 255
218 233 255
218 233 255
218 233 255
218 233 255
218 233 255
218 233 255
218 233 255
212 228 249
89 96 112
0 0 42
0 0 42
0 0 42
0 0 42
0 0 42
0 0 42
0 0 42
0 0 42
0 0 42
0 0 42
0 0 42
0 0 42
0 0 42
0 0 42
0 0 42
0 0 42
0 0 42
0 0 42
0 0 42
0 0 42
0 0 42
0 0 42
0 0 42
0 0 42
0 0 42
0 0 42
0 0 42
0 0 42
0 0 42
0 0 42
0 0 42
0 0 42
0 0 43
0 0 42
0 0 41
0 0 41
1 0 44
1 0 43
0 0 33
60 55 43
101 90 72
149 137 124
131 127 110
166 174 160
179 184 172
172 166 141
137 123 101
118 112 88
78 77 45
88 87 56
104 106 78
98 96 69
126 110 88
138 119 94
156 140 114
200 189 166
167 155 129
146 129 100
154 138 110
156 141 116
167 151 126
176 162 132
169 153 116
168 156 121
151 143 111
120 108 76
105 97 68
101 99 69
84 87 54
74 82 43
75 85 39
80 90 40
78 87 38
74 84 42
54 66 21
51 66 21
29 47 5
28 47 5
23 41 0
27 45 7
26 46 6
35 57 7
41 64 13
29 53 0
29 52 1
34 56 11
26 51 4
30 53 10
32 55 0
31 53 0
39 59 5
36 56 5
40 60 12
46 67 17
51 75 24
46 71 21
46 68 21
45 66 18
45 65 10
34 54 5
38 60 7
32 50 22
2 8 24
0 0 40
0 0 38
0 0 40
0 0 44
0 0 43
0 0 41
0 0 42
0 0 42
0 0 42
0 0 42
0 0 42
0 0 42
0 0 43
0 0 42
0 0 41
0 0 42
0 0 42
0 0 42
0 0 42
0 0 42
0 0 42
0 0 42
0 0 42
0 0 42
0 0 42
0 0 42
0 0 42
0 0 39
0 0 41
0 0 42
0 0 42
0 0 42
0 0 42
0 0 42
0 0 42
0 0 42
0 0 42
0 0 42
0 0 42
0 0 42
0 0 42
0 0 42
0 0 42
0 0 42
0 0 42
0 0 42
0 0 42
0 0 42
0 0 42
0 0 42
0 0 42
0 0 42
0 0 42
0 0 42
0 0 42
0 0 42
0 0 42
0 0 42
0 0 42
0 0 42
0 0 42
0 0 42
0 0 42
0 0 42
0 0 42
0 0 42
0 0 42
0 0 42
0 0 42
99 107 123
216 232 254
218 233 255
218 233 255
218 233 255
218 233 255
218 233 255
218 233 255
218 233 255
218 233 255
218 233 255
218 233 255
218 233 255
218 233 255
218 233 255
218 233 255
218 233 255
218 233 255
218 233 255
218 233 255
218 233 255
218 233 255
218 233 255
218 233 255
218 233 255
218 233 255
218 233 255
218 233 255
218 233 255
218 233 255
218 233 255
218 233 255
218 233 255
218 233 255
218 233 255
218 233 255
218 233 255
218 233 255
218 233 255
218 233 255
218 233 255
218 233 255
218 233 255
218 233 255
218 233 255
218 233 255
218 233 255
218 233 255
218 233 255
218 233 255
218 233 255
218 233 255
218 233 255
218 233 255
218 233 255
218 233 255
218 233 255
218 233 255
218 233 255
218 233 255
218 233 255
218 233 255
218 233 255
218 233 255
218 233 255
218 233 255
218 233 255
218 233 255
218 233 255
218 233 255
218 233 255
218 233 255
218 233 255
218 233 255
218 233 255
218 233 255
218 233 255
218 233 255
218 233 255
218 234 255
218 234 255
218 233 255
218 234 255
218 234 255
218 234 255
218 234 255
218 234 255
218 234 255
218 234 255
218 234 255
218 234 255
218 234 255
218 234 255
218 234 255
218 234 255
218 234 255
218 234 255
218 234 255
218 234 255
218 234 255
218 234 255
218 234 255
218 234 255
218 234 255
218 234 255
218 234 255
218 234 255
218 234 255
218 234 255
218 234 255
218 234 255
218 234 255
218 234 255
218 234 255
218 234 255
218 234 255
218 234 255
218 234 255
218 234 255
218 234 255
218 234 255
218 234 255
218 234 255
218 234 255
218 234 255
218 234 255
218 234 255
218 234 255
218 234 255
218 234 255
218 234 255
218 234 255
218 234 255
218 234 255
218 234 255
218 234 255
218 234 255
218 234 255
218 234 255
218 234 255
218 234 255
218 234 255
218 234 255
218 234 255
218 234 255
218 234 255
218 234 255
218 234 255
218 234 255
218 234 255
218 234 255
218 234 255
218 234 255
218 234 255
218 234 255
218 234 255
218 234 255
218 234 255
218 234 255
218 234 255
218 234 255
218 234 255
218 234 255
218 234 255
218 234 255
218 234 255
218 234 255
218 234 255
218 234 255
218 234 255
218 234 255
218 234 255
218 234 255
218 234 255
218 234 255
218 234 255
218 234 255
218 234 255
218 234 255
218 234 255
218 234 255
218 234 255
218 234 255
218 234 255
218 234 255
218 234 255
218 234 255
218 234 255
218 234 255
218 234 255
218 234 255
218 234 255
218 234 255
218 234 255
218 234 255
218 233 255
218 233 255
218 233 255
218 233 255
218 233 255
218 233 255
218 233 255
218 233 255
218 233 255
218 233 255
218 233 255
218 233 255
218 233 255
218 233 255
218 233 255
218 233 255
218 233 255
218 233 255
218 233 255
218 233 255
218 233 255
218 233 255
218 233 255
218 233 255
218 233 255
218 233 255
218 233 255
218 233 255
218 233 255
218 233 255
218 233 255
152 163 181
0 0 42
0 0 42
0 0 42
0 0 42
0 0 42
0 0 42
0 0 42
0 0 42
0 0 42
0 0 42
0 0 42
0 0 42
0 0 42
0 0 42
0 0 42
0 0 42
0 0 42
0 0 42
0 0 42
0 0 42
0 0 42
0 0 42
0 0 42
0 0 42
0 0 42
0 0 42
0 0 42
0 0 42
0 0 42
0 0 42
0 0 42
0 0 42
0 0 42
0 0 42
0 0 41
0 0 40
0 0 42
0 0 42
0 0 42
0 0 36
45 43 41
98 89 76
155 145 140
68 64 65
0 6 31
101 101 97
173 160 138
121 105 87
106 102 79
81 82 49
72 72 34
90 93 58
82 81 53
117 109 92
122 109 83
140 126 100
174 163 139
152 136 110
131 114 87
131 115 87
135 121 96
88 71 42
142 126 93
151 136 99
126 116 80
107 98 64
104 96 64
98 93 60
86 86 54
73 77 42
71 79 38
67 76 35
67 76 35
71 83 32
60 74 16
58 73 18
36 52 7
30 49 1
30 50 0
32 51 0
35 55 9
43 64 16
52 77 25
43 68 14
42 66 14
35 58 12
30 51 6
30 53 0
34 57 12
32 52 18
33 51 25
40 56 44
32 47 22
39 54 23
39 55 22
44 64 24
35 60 0
39 61 8
36 55 8
43 62 10
35 55 7
34 55 4
38 57 30
8 14 23
0 0 43
0 0 42
0 0 45
0 0 42
0 0 40
0 0 39
0 0 41
0 0 42
0 0 42
0 0 42
0 0 42
0 0 42
0 0 42
0 0 42
0 0 42
0 0 42
0 0 42
0 0 42
0 0 42
0 0 42
0 0 42
0 0 42
0 0 42
0 0 42
0 0 42
0 0 42
0 0 42
0 0 42
0 0 42
0 0 42
0 0 42
0 0 42
0 0 42
0 0 42
0 0 42
0 0 42
0 0 42
0 0 42
0 0 42
0 0 42
0 0 42
0 0 42
0 0 42
0 0 42
0 0 42
0 0 42
0 0 42
0 0 42
0 0 42
0 0 42
0 0 42
0 0 42
0 0 42
0 0 42
0 0 42
0 0 42
0 0 42
0 0 42
0 0 42
0 0 42
0 0 42
0 0 42
0 0 42
0 0 42
0 0 42
0 0 42
0 0 42
0 0 42
0 0 42
0 0 42
157 168 186
218 233 255
218 233 255
218 233 255
218 233 255
218 233 255
218 233 255
218 233 255
218 233 255
218 233 255
218 233 255
218 233 255
218 233 255
218 233 255
218 233 255
218 233 255
218 233 255
218 233 255
218 233 255
218 233 255
218 233 255
218 233 255
218 233 255
218 233 255
218 233 255
218 233 255
218 233 255
218 233 255
218 233 255
218 233 255
218 233 255
218 233 255
218 234 255
218 234 255
218 234 255
218 234 255
218 234 255
218 234 255
218 234 255
218 234 255
218 234 255
218 234 255
218 234 255
218 234 255
218 234 255
218 234 255
218 234 255
218 234 255
218 234 255
218 234 255
218 234 255
218 234 255
218 234 255
218 234 255
218 234 255
218 234 255
218 234 255
218 234 255
218 234 255
218 234 255
218 234 255
218 234 255
218 234 255
218 234 255
218 234 255
218 234 255
218 234 255
218 234 255
218 234 255
218 234 255
218 234 255
218 234 255
218 234 255
218 234 255
218 234 255
218 234 255
218 234 255
218 234 255
218 234 255
218 234 255
218 234 255
218 234 255
218 234 255
218 234 255
218 234 255
218 234 255
218 234 255
218 234 255
218 234 255
218 234 255
218 234 255
218 234 255
218 234 255
218 234 255
218 234 255
218 234 255
218 234 255
218 234 255
218 234 255
218 234 255
218 234 255
218 234 255
218 234 255
218 234 255
218 234 255
218 234 255
218 234 255
218 234 255
218 234 255
218 234 255
218 234 255
218 234 255
218 234 255
218 234 255
218 234 255
218 234 255
218 234 255
218 234 255
218 234 255
218 234 255
218 234 255
218 234 255
218 234 255
218 234 255
218 234 255
218 234 255
218 234 255
218 234 255
218 234 255
218 234 255
218 234 255
218 234 255
218 234 255
218 234 255
218 234 255
218 234 255
218 234 255
218 234 255
218 234 255
218 234 255
218 234 255
218 234 255
218 234 255
218 234 255
218 234 255
218 234 255
218 234 255
218 234 255
218 234 255
218 234 255
218 234 255
218 234 255
218 234 255
218 234 255
218 234 255
218 234 255
218 234 255
218 234 255
218 234 255
218 234 255
218 234 255
218 234 255
218 234 255
218 234 255
218 234 255
218 234 255
218 234 255
218 234 255
218 234 255
218 234 255
218 234 255
218 234 255
218 234 255
218 234 255
218 234 255
218 234 255
218 234 255
218 234 255
218 234 255
218 234 255
218 234 255
218 234 255
218 234 255
218 234 255
218 234 255
218 234 255
218 234 255
218 234 255
218 234 255
218 234 255
218 234 255
218 234 255
218 234 255
218 234 255
218 234 255
218 234 255
218 234 255
218 234 255
218 234 255
218 234 255
218 234 255
218 234 255
218 234 255
218 234 255
218 234 255
218 234 255
218 234 255
218 234 255
218 234 255
218 234 255
218 234 255
218 234 255
218 234 255
218 234 255
218 234 255
218 234 255
218 234 255
218 234 255
218 234 255
218 234 255
218 234 255
218 234 255
218 234 255
218 234 255
188 202 222
21 23 49
0 0 42
0 0 42
0 0 42
0 0 42
0 0 42
0 0 42
0 0 42
0 0 42
0 0 42
0 0 42
0 0 42
0 0 42
0 0 42
0 0 42
0 0 42
0 0 42
0 0 42
0 0 42
0 0 42
0 0 42
0 0 42
0 0 42
0 0 42
0 0 42
0 0 42
0 0 42
0 0 42
0 0 42
0 0 42
0 0 42
0 0 42
0 0 42
0 0 42
0 0 42
0 0 42
0 0 42
0 0 42
0 0 42
0 0 42
0 0 41
44 42 52
100 94 70
142 133 117
21 17 28
0 3 40
60 51 49
162 144 126
127 114 87
119 113 88
76 80 45
64 72 25
71 76 36
62 62 31
63 63 35
112 107 82
126 117 90
125 113 86
128 114 85
151 141 118
138 126 101
121 107 82
124 110 84
127 111 79
125 114 81
130 127 96
109 106 76
99 95 65
90 88 57
84 87 54
66 72 36
69 78 36
68 77 32
70 81 36
56 68 22
57 71 23
55 71 23
63 86 40
46 69 23
43 64 27
44 64 28
33 51 13
46 66 25
50 71 27
50 72 26
38 60 14
41 63 20
36 54 24
27 45 16
11 23 7
4 9 14
4 9 28
8 10 39
2 4 35
0 0 29
11 15 26
27 38 29
29 46 23
21 34 0
24 35 18
40 56 29
48 69 23
39 60 13
42 61 28
18 27 21
0 0 38
0 0 46
0 0 47
0 0 40
0 0 38
0 0 40
0 0 42
0 0 43
0 0 42
0 0 42
0 0 42
0 0 42
0 0 42
0 0 42
0 0 42
0 0 42
0 0 42
0 0 42
0 0 42
0 0 42
0 0 42
0 0 42
0 0 42
0 0 42
0 0 42
0 0 42
0 0 42
0 0 42
0 0 42
0 0 42
0 0 42
0 0 42
0 0 42
0 0 42
0 0 42
0 0 42
0 0 42
0 0 42
0 0 42
0 0 42
0 0 42
0 0 42
0 0 42
0 0 42
0 0 42
0 0 42
0 0 42
0 0 42
0 0 42
0 0 42
0 0 42
0 0 42
0 0 42
0 0 42
0 0 42
0 0 42
0 0 42
0 0 42
0 0 42
0 0 42
0 0 42
0 0 42
0 0 42
0 0 42
0 0 42
0 0 42
0 0 42
0 0 42
0 0 42
0 0 42
0 0 42
181 194 214
218 234 255
218 234 255
218 234 255
218 234 255
218 234 255
218 234 255
218 234 255
218 234 255
218 234 255
218 234 255
218 234 255
218 234 255
218 234 255
218 234 255
218 234 255
218 234 255
218 234 255
218 234 255
218 234 255
218 234 255
218 234 255
218 234 255
218 234 255
218 234 255
218 234 255
218 234 255
218 234 255
218 234 255
218 234 255
218 234 255
218 234 255
218 234 255
218 234 255
218 234 255
218 234 255
218 234 255
218 234 255
218 234 255
218 234 255
218 234 255
218 234 255
218 234 255
218 234 255
218 234 255
218 234 255
218 234 255
218 234 255
218 234 255
218 234 255
218 234 255
218 234 255
218 234 255
218 234 255
218 234 255
218 234 255
218 234 255
218 234 255
218 234 255
218 234 255
218 234 255
218 234 255
218 234 255
218 234 255
218 234 255
218 234 255
218 234 255
218 234 255
218 234 255
218 234 255
218 234 255
218 234 255
218 234 255
218 234 255
218 234 255
218 234 255
218 234 255
218 234 255
218 234 255
218 234 255
218 234 255
218 234 255
218 234 255
218 234 255
218 234 255
218 234 255
218 234 255
218 234 255
218 234 255
218 234 255
218 234 255
218 234 255
218 234 255
218 234 255
218 234 255
218 234 255
218 234 255
218 234 255
218 234 255
218 234 255
218 234 255
218 234 255
218 234 255
218 234 255
218 234 255
218 234 255
218 234 255
218 234 255
218 234 255
218 234 255
218 234 255
218 234 255
218 234 255
218 234 255
218 234 255
218 234 255
218 234 255
218 234 255
218 234 255
218 234 255
218 234 255
218 234 255
218 234 255
218 234 255
218 234 255
218 234 255
218 234 255
218 234 255
218 234 255
218 234 255
218 234 255
218 234 255
218 234 255
218 234 255
218 234 255
218 234 255
218 234 255
218 234 255
218 234 255
218 234 255
218 234 255
218 234 255
218 234 255
218 234 255
218 234 255
218 234 255
218 234 255
218 234 255
218 234 255
218 234 255
218 234 255
218 234 255
218 234 255
218 234 255
218 234 255
218 234 255
218 234 255
218 234 255
218 234 255
218 234 255
218 234 255
218 234 255
218 234 255
218 234 255
218 234 255
218 234 255
218 234 255
218 234 255
218 234 255
218 234 255
218 234 255
218 234 255
218 234 255
218 234 255
218 234 255
218 234 255
218 234 255
218 234 255
218 234 255
218 234 255
218 234 255
218 234 255
218 234 255
218 234 255
218 234 255
218 234 255
218 234 255
218 234 255
218 234 255
218 234 255
218 234 255
218 234 255
218 234 255
218 234 255
218 234 255
218 234 255
218 234 255
218 234 255
218 234 255
218 234 255
218 234 255
218 234 255
218 234 255
218 234 255
218 234 255
218 234 255
218 234 255
218 234 255
218 234 255
218 234 255
218 234 255
218 234 255
218 234 255
218 234 255
218 234 255
218 234 255
218 234 255
218 234 255
218 234 255
218 234 255
218 234 255
218 234 255
208 223 244
68 74 90
0 0 42
0 0 42
0 0 42
0 0 42
0 0 42
0 0 42
0 0 42
0 0 42
0 0 42
0 0 42
0 0 42
0 0 42
0 0 42
0 0 42
0 0 42
0 0 42
0 0 42
0 0 42
0 0 42
0 0 42
0 0 42
0 0 42
0 0 42
0 0 42
0 0 42
0 0 42
0 0 42
0 0 42
0 0 42
0 0 42
0 0 42
0 0 42
0 0 42
0 0 42
0 0 42
0 0 42
0 0 42
0 0 42
0 0 42
0 0 43
5 0 50
24 25 36
112 114 97
144 137 121
59 55 57
0 0 30
36 33 38
136 133 114
116 105 71
114 103 73
73 78 45
56 70 32
60 72 31
49 58 14
47 53 14
80 74 45
98 90 65
102 92 64
136 126 99
122 110 82
130 119 93
131 120 94
138 128 106
129 117 89
114 106 76
104 103 75
123 125 98
101 101 71
83 83 52
70 73 37
65 70 30
72 80 34
76 85 40
68 79 36
70 84 42
55 72 21
54 75 19
55 76 38
52 72 52
25 35 33
18 23 35
1 6 27
8 14 24
23 34 23
31 45 25
39 58 31
31 49 25
20 36 16
23 37 24
32 42 48
2 8 24
0 0 35
0 0 44
0 0 46
0 0 43
0 0 36
4 6 34
14 20 34
0 0 27
0 0 33
21 28 29
44 62 29
53 74 28
37 55 17
32 47 24
2 4 25
0 0 46
0 0 50
0 0 41
0 0 36
0 0 40
0 0 44
0 0 42
0 0 42
0 0 42
0 0 42
0 0 42
0 0 42
0 0 42
0 0 42
0 0 42
0 0 42
0 0 42
0 0 42
0 0 42
0 0 42
0 0 42
0 0 42
0 0 42
0 0 42
0 0 42
0 0 42
0 0 42
0 0 42
0 0 42
0 0 42
0 0 42
0 0 42
0 0 42
0 0 42
0 0 42
0 0 42
0 0 42
0 0 42
0 0 42
0 0 42
0 0 42
0 0 42
0 0 42
0 0 42
0 0 42
0 0 42
0 0 42
0 0 42
0 0 42
0 0 42
0 0 42
0 0 42
0 0 42
0 0 42
0 0 42
0 0 42
0 0 42
0 0 42
0 0 42
0 0 42
0 0 42
0 0 42
0 0 42
0 0 42
0 0 42
0 0 42
0 0 42
0 0 42
0 0 42
0 0 42
72 77 93
212 228 249
218 234 255
218 234 255
218 234 255
218 234 255
218 234 255
218 234 255
218 234 255
218 234 255
218 234 255
218 234 255
218 234 255
218 234 255
218 234 255
218 234 255
218 234 255
218 234 255
218 234 255
218 234 255
218 234 255
218 234 255
218 234 255
218 234 255
218 234 255
218 234 255
218 234 255
218 234 255
218 234 255
218 234 255
218 234 255
218 234 255
218 234 255
218 234 255
218 234 255
218 234 255
218 234 255
218 234 255
218 234 255
218 234 255
218 234 255
218 234 255
218 234 255
218 234 255
218 234 255
218 234 255
218 234 255
218 234 255
218 234 255
218 234 255
218 234 255
218 234 255
218 234 255
218 234 255
218 234 255
218 234 255
218 234 255
218 234 255
218 234 255
218 234 255
218 234 255
218 234 255
218 234 255
218 234 255
218 234 255
218 234 255
218 234 255
218 234 255
218 234 255
218 234 255
218 234 255
218 234 255
218 234 255
218 234 255
218 234 255
218 234 255
218 234 255
218 234 255
218 234 255
218 234 255
218 234 255
218 234 255
218 234 255
218 234 255
218 234 255
218 234 255
218 234 255
218 234 255
218 234 255
218 234 255
218 234 255
218 234 255
218 234 255
218 234 255
218 234 255
218 234 255
218 234 255
218 234 255
218 234 255
218 234 255
218 234 255
218 234 255
218 234 255
218 234 255
218 234 255
218 234 255
218 234 255
218 234 255
218 234 255
218 234 255
218 234 255
218 234 255
218 234 255
218 234 255
218 234 255
218 234 255
218 234 255
218 234 255
218 234 255
218 234 255
218 234 255
218 234 255
218 234 255
218 234 255
218 234 255
218 234 255
218 234 255
218 234 255
218 234 255
218 234 255
218 234 255
218 234 255
218 234 255
218 234 255
218 234 255
218 234 255
218 234 255
218 234 255
218 234 255
218 234 255
218 234 255
218 234 255
218 234 255
218 234 255
218 234 255
218 234 255
218 234 255
218 234 255
218 234 255
218 234 255
218 234 255
218 234 255
218 234 255
218 234 255
218 234 255
218 234 255
218 234 255
218 234 255
218 234 255
218 234 255
218 234 255
218 234 255
218 234 255
218 234 255
218 234 255
218 234 255
218 234 255
218 234 255
218 234 255
218 234 255
218 234 255
218 234 255
218 234 255
218 234 255
218 234 255
218 234 255
218 234 255
218 234 255
218 234 255
218 234 255
218 234 255
218 234 255
218 234 255
218 234 255
218 234 255
218 234 255
218 234 255
218 234 255
218 234 255
218 234 255
218 234 255
218 234 255
218 234 255
218 234 255
218 234 255
218 234 255
218 234 255
218 234 255
218 234 255
218 234 255
218 234 255
218 234 255
218 234 255
218 234 255
218 234 255
218 234 255
218 234 255
218 234 255
218 234 255
218 234 255
218 234 255
218 234 255
218 234 255
218 234 255
218 234 255
218 234 255
218 234 255
218 234 255
218 234 255
218 234 255
218 234 255
218 234 255
148 158 176
0 0 42
0 0 42
0 0 42
0 0 42
0 0 42
0 0 42
0 0 42
0 0 42
0 0 42
0 0 42
0 0 42
0 0 42
0 0 42
0 0 42
0 0 42
0 0 42
0 0 42
0 0 42
0 0 42
0 0 42
0 0 42
0 0 42
0 0 42
0 0 42
0 0 42
0 0 42
0 0 42
0 0 42
0 0 42
0 0 42
0 0 42
0 0 42
0 0 42
0 0 42
0 0 42
0 0 42
0 0 42
0 0 42
3 3 42
0 0 41
0 0 44
4 0 45
0 9 32
55 57 57
116 110 102
141 132 133
50 41 62
11 12 27
133 137 121
168 159 132
128 114 78
96 104 74
48 69 33
48 68 20
45 59 12
51 57 24
75 72 45
84 79 52
93 86 59
143 135 110
126 117 91
150 140 114
108 94 66
124 112 87
126 118 90
91 87 58
76 73 43
82 83 53
111 111 80
96 97 65
90 94 58
76 81 43
84 90 54
86 93 50
72 84 37
59 75 26
61 82 33
51 71 29
38 54 31
15 21 34
0 0 44
0 0 45
0 0 48
0 0 45
0 0 39
0 2 30
5 10 28
8 13 30
7 11 32
0 3 25
19 23 42
2 2 34
0 0 37
0 0 41
0 0 46
0 0 47
0 0 47
0 0 49
0 0 46
0 0 46
0 0 49
0 6 33
22 35 16
53 74 30
52 73 29
47 65 28
22 30 24
2 3 35
0 0 49
0 0 43
0 0 34
0 0 37
0 0 44
0 0 43
0 0 42
0 0 42
0 0 42
0 0 42
0 0 42
0 0 42
0 0 42
0 0 42
0 0 42
0 0 42
0 0 42
0 0 42
0 0 42
0 0 42
0 0 42
0 0 42
0 0 42
0 0 42
0 0 42
0 0 42
0 0 42
0 0 42
0 0 42
0 0 42
0 0 42
0 0 42
0 0 42
0 0 42
0 0 42
0 0 42
0 0 42
0 0 42
0 0 42
0 0 42
0 0 42
0 0 42
0 0 42
0 0 42
0 0 42
0 0 42
0 0 42
0 0 42
0 0 42
0 0 42
0 0 42
0 0 42
0 0 42
0 0 42
0 0 42
0 0 42
0 0 42
0 0 42
0 0 42
0 0 42
0 0 42
0 0 42
0 0 42
0 0 42
0 0 42
0 0 42
0 0 42
0 0 42
0 0 42
0 0 42
123 132 149
218 234 255
218 234 255
218 234 255
218 234 255
218 234 255
218 234 255
218 234 255
218 234 255
218 234 255
218 234 255
218 234 255
218 234 255
218 234 255
218 234 255
218 234 255
218 234 255
218 234 255
218 234 255
218 234 255
218 234 255
218 234 255
218 234 255
218 234 255
218 234 255
218 234 255
218 234 255
218 234 255
218 234 255
218 234 255
218 234 255
218 234 255
218 234 255
218 234 255
218 234 255
218 234 255
218 234 255
218 234 255
218 234 255
218 234 255
218 234 255
218 234 255
218 234 255
218 234 255
218 234 255
218 234 255
218 234 255
218 234 255
218 234 255
218 234 255
218 234 255
218 234 255
218 234 255
218 234 255
218 234 255
218 234 255
218 234 255
218 234 255
218 234 255
218 234 255
218 234 255
218 234 255
218 234 255
218 234 255
218 234 255
218 234 255
218 234 255
218 234 255
218 234 255
218 234 255
218 234 255
218 234 255
218 234 255
218 234 255
218 234 255
218 234 255
218 234 255
218 234 255
218 234 255
218 234 255
218 234 255
218 234 255
218 234 255
218 234 255
218 234 255
218 234 255
218 234 255
218 234 255
218 234 255
218 234 255
218 234 255
218 234 255
218 234 255
218 234 255
218 234 255
218 234 255
218 234 255
218 234 255
218 234 255
218 234 255
218 234 255
218 234 255
218 234 255
218 234 255
218 234 255
218 234 255
218 234 255
218 234 255
218 234 255
218 234 255
218 234 255
218 234 255
218 234 255
218 234 255
218 234 255
218 234 255
218 234 255
218 234 255
218 234 255
218 234 255
218 234 255
218 234 255
218 234 255
218 234 255
218 234 255
218 234 255
218 234 255
218 234 255
218 234 255
218 234 255
218 234 255
218 234 255
218 234 255
218 234 255
218 234 255
218 234 255
218 234 255
218 234 255
218 234 255
218 234 255
218 234 255
218 234 255
218 234 255
218 234 255
218 234 255
218 234 255
218 234 255
218 234 255
218 234 255
218 234 255
218 234 255
218 234 255
218 234 255
218 234 255
218 234 255
218 234 255
218 234 255
218 234 255
218 234 255
218 234 255
218 234 255
218 234 255
218 234 255
218 234 255
218 234 255
218 234 255
218 234 255
218 234 255
218 234 255
218 234 255
218 234 255
218 234 255
218 234 255
218 234 255
218 234 255
218 234 255
218 234 255
218 234 255
218 234 255
218 234 255
218 234 255
218 234 255
218 234 255
218 234 255
218 234 255
218 234 255
218 234 255
218 234 255
218 234 255
218 234 255
218 234 255
218 234 255
218 234 255
218 234 255
218 234 255
218 234 255
218 234 255
218 234 255
218 234 255
218 234 255
218 234 255
218 234 255
218 234 255
218 234 255
218 234 255
218 234 255
218 234 255
218 234 255
218 234 255
218 234 255
218 234 255
218 234 255
218 234 255
218 234 255
218 234 255
218 234 255
218 234 255
218 234 255
218 234 255
218 234 255
183 197 216
21 23 49
0 0 42
0 0 42
0 0 42
0 0 42
0 0 42
0 0 42
0 0 42
0 0 42
0 0 42
0 0 42
0 0 42
0 0 42
0 0 42
0 0 42
0 0 42
0 0 42
0 0 42
0 0 42
0 0 42
0 0 42
0 0 42
0 0 42
0 0 42
0 0 42
0 0 42
0 0 42
0 0 42
0 0 42
0 0 42
0 0 42
0 0 42
0 0 42
0 0 42
0 0 42
0 0 42
0 0 42
0 0 42
0 0 39
14 15 50
0 0 41
0 0 40
0 0 36
6 5 40
0 0 29
60 54 48
122 107 94
98 89 88
20 24 40
98 100 104
173 164 148
126 116 83
87 97 61
42 68 19
42 67 11
44 56 22
53 57 34
73 73 49
78 76 49
84 78 52
122 113 85
123 112 83
121 108 80
130 117 90
112 98 71
129 122 95
100 96 66
71 69 39
87 87 56
119 119 90
114 113 83
110 109 76
96 96 60
90 90 54
84 89 52
70 81 34
63 81 35
44 59 31
19 27 32
0 2 40
0 3 31
0 6 34
0 0 39
0 0 41
0 0 44
0 0 42
0 0 39
0 0 39
0 0 40
0 0 43
0 0 44
0 0 43
0 0 41
0 0 41
0 0 39
0 0 41
0 0 44
0 0 46
0 0 42
0 0 39
0 0 43
0 0 45
0 3 40
22 32 28
58 79 38
51 71 23
54 72 26
44 57 36
12 16 27
0 0 46
0 0 43
0 0 34
0 0 40
0 0 47
0 0 42
0 0 37
0 0 42
0 0 42
0 0 42
0 0 42
0 0 42
0 0 42
0 0 42
0 0 42
0 0 42
0 0 42
0 0 42
0 0 42
0 0 42
0 0 42
0 0 42
0 0 42
0 0 42
0 0 42
0 0 42
0 0 42
0 0 42
0 0 42
0 0 42
0 0 42
0 0 42
0 0 42
0 0 42
0 0 42
0 0 42
0 0 42
0 0 42
0 0 42
0 0 42
0 0 42
0 0 42
0 0 42
0 0 42
0 0 42
0 0 42
0 0 42
0 0 42
0 0 42
0 0 42
0 0 42
0 0 42
0 0 42
0 0 42
0 0 42
0 0 42
0 0 42
0 0 42
0 0 42
0 0 42
0 0 42
0 0 42
0 0 42
0 0 42
0 0 42
0 0 42
0 0 42
0 0 42
0 0 42
0 0 42
21 23 48
181 194 213
218 234 255
218 234 255
218 234 255
218 234 255
218 234 255
218 234 255
218 234 255
218 234 255
218 234 255
218 234 255
218 234 255
218 234 255
218 234 255
218 234 255
218 234 255
218 234 255
218 234 255
218 234 255
218 234 255
218 234 255
218 234 255
218 234 255
218 234 255
218 234 255
218 234 255
218 234 255
218 234 255
218 234 255
218 234 255
218 234 255
218 234 255
218 234 255
218 234 255
218 234 255
218 234 255
218 234 255
218 234 255
218 234 255
218 234 255
218 234 255
218 234 255
218 234 255
218 234 255
218 234 255
218 234 255
218 234 255
218 234 255
218 234 255
218 234 255
218 234 255
218 234 255
218 234 255
218 234 255
218 234 255
218 234 255
218 234 255
218 234 255
218 234 255
218 234 255
218 234 255
218 234 255
218 234 255
218 234 255
218 234 255
218 234 255
218 234 255
218 234 255
218 234 255
218 234 255
218 234 255
218 234 255
218 234 255
218 234 255
218 234 255
218 234 255
218 234 255
218 234 255
218 234 255
218 234 255
218 234 255
218 234 255
218 234 255
218 234 255
218 234 255
218 234 255
218 234 255
218 234 255
218 234 255
218 234 255
218 234 255
218 234 255
218 234 255
218 234 255
218 234 255
218 234 255
218 234 255
218 234 255
218 234 255
218 234 255
218 234 255
218 234 255
218 234 255
218 234 255
218 234 255
218 234 255
218 234 255
218 234 255
218 234 255
218 234 255
218 234 255
218 234 255
218 234 255
218 234 255
218 234 255
218 234 255
218 234 255
218 234 255
218 234 255
218 234 255
218 234 255
218 234 255
218 234 255
218 234 255
218 234 255
218 234 255
218 234 255
218 234 255
218 234 255
218 234 255
218 234 255
218 234 255
218 234 255
218 234 255
218 234 255
218 234 255
218 234 255
218 234 255
218 234 255
218 234 255
218 234 255
218 234 255
218 234 255
218 234 255
218 234 255
218 234 255
218 234 255
218 234 255
218 234 255
218 234 255
218 234 255
218 234 255
218 234 255
218 234 255
218 234 255
218 234 255
218 234 255
218 234 255
218 234 255
218 234 255
218 234 255
218 234 255
218 234 255
218 234 255
218 234 255
218 234 255
218 234 255
218 234 255
218 234 255
218 234 255
218 234 255
218 234 255
218 234 255
218 234 255
218 234 255
218 234 255
218 234 255
218 234 255
218 234 255
218 234 255
218 234 255
218 234 255
218 234 255
218 234 255
218 234 255
218 234 255
218 234 255
218 234 255
218 234 255
218 234 255
218 234 255
218 234 255
218 234 255
218 234 255
218 234 255
218 234 255
218 234 255
218 234 255
218 234 255
218 234 255
218 234 255
218 234 255
218 234 255
218 234 255
218 234 255
218 234 255
218 234 255
218 234 255
218 234 255
218 234 255
218 234 255
218 234 255
218 234 255
218 234 255
218 234 255
218 234 255
218 234 255
218 234 255
215 230 252
78 84 100
0 0 42
0 0 42
0 0 42
0 0 42
0 0 42
0 0 42
0 0 42
0 0 42
0 0 42
0 0 42
0 0 42
0 0 42
0 0 42
0 0 42
0 0 42
0 0 42
0 0 42
0 0 42
0 0 42
0 0 42
0 0 42
0 0 42
0 0 42
0 0 42
0 0 42
0 0 42
0 0 42
0 0 42
0 0 42
0 0 42
0 0 42
0 0 42
0 0 42
0 0 42
0 0 42
0 0 42
0 0 42
0 0 42
0 0 39
0 0 42
0 0 42
0 0 38
7 0 38
16 12 53
17 16 38
79 78 77
138 129 107
128 120 111
16 15 25
3 1 24
77 72 66
114 114 97
86 95 55
54 71 19
38 55 8
41 51 23
48 52 27
61 61 35
80 78 52
97 91 62
117 108 78
124 113 84
118 103 74
131 116 89
144 133 108
154 146 119
124 120 89
72 68 35
110 108 78
112 109 79
114 109 78
112 107 73
106 102 69
98 95 62
86 91 49
84 96 57
43 52 31
4 6 34
0 0 55
0 0 50
0 0 34
0 0 30
0 0 36
0 0 40
0 0 42
0 0 40
0 0 39
0 0 37
0 0 38
0 0 43
0 0 43
0 0 44
4 0 43
4 0 45
0 0 43
0 0 42
0 0 42
0 0 42
0 0 35
0 0 35
0 0 46
0 0 44
0 0 43
26 35 39
54 74 35
63 84 33
51 68 20
52 66 28
30 37 27
0 0 38
0 0 43
0 2 34
0 0 40
0 0 49
0 0 39
0 0 37
0 0 42
0 0 42
0 0 42
0 0 42
0 0 42
0 0 42
0 0 42
0 0 42
0 0 42
0 0 42
0 0 42
0 0 42
0 0 42
0 0 42
0 0 42
0 0 42
0 0 42
0 0 42
0 0 42
0 0 42
0 0 42
0 0 42
0 0 42
0 0 42
0 0 42
0 0 42
0 0 42
0 0 42
0 0 42
0 0 42
0 0 42
0 0 42
0 0 42
0 0 42
0 0 42
0 0 42
0 0 42
0 0 42
0 0 42
0 0 42
0 0 42
0 0 42
0 0 42
0 0 42
0 0 42
0 0 42
0 0 42
0 0 42
0 0 42
0 0 42
0 0 42
0 0 42
0 0 42
0 0 42
0 0 42
0 0 42
0 0 42
0 0 42
0 0 42
0 0 42
0 0 42
0 0 42
0 0 42
0 0 42
75 81 96
212 228 249
218 234 255
218 234 255
218 234 255
218 234 255
218 234 255
218 234 255
218 234 255
218 234 255
218 234 255
218 234 255
218 234 255
218 234 255
218 234 255
218 234 255
218 234 255
218 234 255
218 234 255
218 234 255
218 234 255
218 234 255
218 234 255
218 234 255
218 234 255
218 234 255
218 234 255
218 234 255
218 234 255
218 234 255
218 234 255
218 234 255
218 234 255
218 234 255
218 234 255
218 234 255
218 234 255
218 234 255
218 234 255
218 234 255
218 234 255
218 234 255
218 234 255
218 234 255
218 234 255
218 234 255
218 234 255
218 234 255
218 234 255
218 234 255
218 234 255
218 234 255
218 234 255
218 234 255
218 234 255
218 234 255
218 234 255
218 234 255
218 234 255
218 234 255
218 234 255
218 234 255
218 234 255
218 234 255
218 234 255
218 234 255
218 234 255
218 234 255
218 234 255
218 234 255
218 234 255
218 234 255
218 234 255
218 234 255
218 234 255
218 234 255
218 234 255
218 234 255
218 234 255
218 234 255
218 234 255
218 234 255
218 234 255
218 234 255
218 234 255
218 234 255
218 234 255
218 234 255
218 234 255
218 234 255
218 234 255
218 234 255
218 234 255
218 234 255
218 234 255
218 234 255
218 234 255
218 234 255
218 234 255
218 234 255
218 234 255
218 234 255
218 234 255
218 234 255
218 234 255
218 234 255
218 234 255
218 234 255
218 234 255
218 234 255
218 234 255
218 234 255
218 234 255
218 234 255
218 234 255
218 234 255
218 234 255
218 234 255
218 234 255
218 234 255
218 234 255
218 234 255
218 234 255
218 234 255
218 234 255
218 234 255
218 234 255
218 234 255
218 234 255
218 234 255
218 234 255
218 234 255
218 234 255
218 234 255
218 234 255
218 234 255
218 234 255
218 234 255
218 234 255
218 234 255
218 234 255
218 234 255
218 234 255
218 234 255
218 234 255
218 234 255
218 234 255
218 234 255
218 234 255
218 234 255
218 234 255
218 234 255
218 234 255
218 234 255
218 234 255
218 234 255
218 234 255
218 234 255
218 234 255
218 234 255
218 234 255
218 234 255
218 234 255
218 234 255
218 234 255
218 234 255
218 234 255
218 234 255
218 234 255
218 234 255
218 234 255
218 234 255
218 234 255
218 234 255
218 234 255
218 234 255
218 234 255
218 234 255
218 234 255
218 234 255
218 234 255
218 234 255
218 234 255
218 234 255
218 234 255
218 234 255
218 234 255
218 234 255
218 234 255
218 234 255
218 234 255
218 234 255
218 234 255
218 234 255
218 234 255
218 234 255
218 234 255
218 234 255
218 234 255
218 234 255
218 234 255
218 234 255
218 234 255
218 234 255
218 234 255
218 234 255
218 234 255
218 234 255
218 234 255
218 234 255
218 234 255
218 234 255
218 234 255
218 234 255
218 234 255
218 234 255
218 234 255
218 234 255
152 163 181
0 0 42
0 0 42
0 0 42
0 0 42
0 0 42
0 0 42
0 0 42
0 0 42
0 0 42
0 0 42
0 0 42
0 0 42
0 0 42
0 0 42
0 0 42
0 0 42
0 0 42
0 0 42
0 0 42
0 0 42
0 0 42
0 0 42
0 0 42
0 0 42
0 0 42
0 0 42
0 0 42
0 0 42
0 0 42
0 0 42
0 0 42
0 0 42
0 0 42
0 0 42
0 0 42
0 0 42
0 0 42
0 0 42
0 0 40
0 0 41
0 0 41
0 0 41
4 4 40
6 4 46
4 3 43
89 95 111
165 170 161
190 185 162
100 85 66
62 55 54
0 0 34
0 0 38
61 62 63
119 119 92
67 72 31
47 62 18
38 54 15
47 52 22
67 68 41
78 76 49
100 95 67
113 103 74
135 123 95
118 105 77
143 126 94
148 137 109
136 127 96
137 135 108
118 116 87
146 146 120
127 122 94
126 117 85
131 125 93
126 119 88
112 108 76
96 98 62
88 94 73
5 5 13
0 0 41
0 0 48
0 0 48
0 0 43
0 0 43
0 0 45
0 0 47
0 0 48
0 0 46
0 0 44
0 0 42
0 0 43
0 0 44
0 0 38
0 0 37
0 0 40
0 0 41
0 0 43
0 0 40
0 0 38
0 0 36
0 0 36
0 0 43
0 0 52
0 0 48
0 0 50
0 7 34
45 59 35
55 72 26
57 74 24
51 67 20
55 67 48
1 3 27
0 10 47
30 49 73
21 39 58
0 7 39
0 0 34
0 0 34
0 0 41
0 0 42
0 0 42
0 0 42
0 0 42
0 0 42
0 0 42
0 0 42
0 0 42
0 0 42
0 0 42
0 0 42
0 0 42
0 0 42
0 0 42
0 0 42
0 0 42
0 0 42
0 0 42
0 0 42
0 0 42
0 0 42
0 0 42
0 0 42
0 0 42
0 0 42
0 0 42
0 0 42
0 0 42
0 0 42
0 0 42
0 0 42
0 0 42
0 0 42
0 0 42
0 0 42
0 0 42
0 0 42
0 0 42
0 0 42
0 0 42
0 0 42
0 0 42
0 0 42
0 0 42
0 0 42
0 0 42
0 0 42
0 0 42
0 0 42
0 0 42
0 0 42
0 0 42
0 0 42
0 0 42
0 0 42
0 0 42
0 0 42
0 0 42
0 0 42
0 0 42
0 0 42
0 0 42
0 0 42
0 0 42
144 155 172
218 234 255
218 234 255
218 234 255
218 234 255
218 234 255
218 234 255
218 234 255
218 234 255
218 234 255
218 234 255
218 234 255
218 234 255
218 234 255
218 234 255
218 234 255
218 234 255
218 234 255
218 234 255
218 234 255
218 234 255
218 234 255
218 234 255
218 234 255
218 234 255
218 234 255
218 234 255
218 234 255
218 234 255
218 234 255
218 234 255
218 234 255
218 234 255
218 234 255
218 234 255
218 234 255
218 234 255
218 234 255
218 234 255
218 234 255
218 234 255
218 234 255
218 234 255
218 234 255
218 234 255
218 234 255
218 234 255
218 234 255
218 234 255
218 234 255
218 234 255
218 234 255
218 234 255
218 234 255
218 234 255
218 234 255
218 234 255
218 234 255
218 234 255
218 234 255
218 234 255
218 234 255
218 234 255
218 234 255
218 234 255
218 234 255
218 234 255
218 234 255
218 234 255
218 234 255
218 234 255
218 234 255
218 234 255
218 234 255
218 234 255
218 234 255
218 234 255
218 234 255
218 234 255
218 234 255
218 234 255
218 234 255
218 234 255
218 234 255
218 234 255
218 234 255
218 234 255
218 234 255
218 234 255
218 234 255
218 234 255
218 234 255
218 234 255
218 234 255
218 234 255
218 234 255
218 234 255
218 234 255
218 234 255
218 234 255
218 234 255
218 234 255
218 234 255
218 234 255
218 234 255
218 234 255
218 234 255
218 234 255
218 234 255
218 234 255
218 234 255
218 234 255
218 234 255
218 234 255
218 234 255
218 234 255
218 234 255
218 234 255
218 234 255
218 234 255
218 234 255
218 234 255
218 234 255
218 234 255
218 234 255
218 234 255
218 234 255
218 234 255
218 234 255
218 234 255
218 234 255
218 234 255
218 234 255
218 234 255
218 234 255
218 234 255
218 234 255
218 234 255
218 234 255
218 234 255
218 234 255
218 234 255
218 234 255
218 234 255
218 234 255
218 234 255
218 234 255
218 234 255
218 234 255
218 234 255
218 234 255
218 234 255
218 234 255
218 234 255
218 234 255
218 234 255
218 234 255
218 234 255
218 234 255
218 234 255
218 234 255
218 234 255
218 234 255
218 234 255
218 234 255
218 234 255
218 234 255
218 234 255
218 234 255
218 234 255
218 234 255
218 234 255
218 234 255
218 234 255
218 234 255
218 234 255
218 234 255
218 234 255
218 234 255
218 234 255
218 234 255
218 234 255
218 234 255
218 234 255
218 234 255
218 234 255
218 234 255
218 234 255
218 234 255
218 234 255
218 234 255
218 234 255
218 234 255
218 234 255
218 234 255
218 234 255
218 234 255
218 234 255
218 234 255
218 234 255
218 234 255
218 234 255
218 234 255
218 234 255
218 234 255
218 234 255
218 234 255
218 234 255
218 234 255
218 234 255
218 234 255
218 234 255
218 234 255
218 234 255
218 234 255
218 234 255
209 224 245
0 0 42
0 0 42
0 0 42
0 0 42
0 0 42
0 0 42
0 0 42
0 0 42
0 0 42
0 0 42
0 0 42
0 0 42
0 0 42
0 0 42
0 0 42
0 0 42
0 0 42
0 0 42
0 0 42
0 0 42
0 0 42
0 0 42
0 0 42
0 0 42
0 0 42
0 0 42
0 0 42
0 0 42
0 0 42
0 0 42
0 0 42
0 0 42
0 0 42
0 0 42
0 0 42
0 0 42
0 0 42
0 0 42
0 0 42
0 0 41
0 0 40
0 0 40
0 0 38
0 0 45
0 0 48
0 0 40
37 37 40
141 144 130
175 173 170
123 119 105
87 82 74
13 10 29
0 0 53
8 5 28
90 88 73
105 113 80
46 62 28
34 55 13
37 50 11
51 57 26
73 74 51
83 79 53
105 95 63
126 113 90
151 133 112
176 164 125
159 150 118
118 109 79
130 124 94
115 108 80
122 117 91
119 115 88
99 92 63
128 122 91
133 126 97
118 114 76
99 101 50
101 109 74
12 12 29
0 0 39
0 0 42
0 0 45
0 0 43
0 0 42
0 0 42
0 0 42
0 0 42
0 0 42
0 0 42
0 0 42
0 0 42
0 0 42
0 0 41
0 0 41
0 0 42
0 0 42
0 0 42
0 0 42
0 0 41
0 0 41
0 0 44
0 0 47
0 0 40
0 0 39
0 0 49
0 0 46
8 9 24
56 66 44
58 74 28
51 64 26
51 70 33
29 45 32
0 0 43
50 82 93
53 92 86
37 75 69
42 75 76
0 5 33
0 0 41
0 0 41
0 0 41
0 0 46
0 0 44
0 0 44
0 0 42
0 0 42
0 0 42
0 0 42
0 0 42
0 0 42
0 0 42
0 0 42
0 0 42
0 0 42
0 0 42
0 0 42
0 0 42
0 0 42
0 0 42
0 0 42
0 0 42
0 0 42
0 0 42
0 0 42
0 0 42
0 0 42
0 0 42
0 0 42
0 0 42
0 0 42
0 0 42
0 0 42
0 0 42
0 0 42
0 0 42
0 0 42
0 0 42
0 0 42
0 0 42
0 0 42
0 0 42
0 0 42
0 0 42
0 0 42
0 0 42
0 0 42
0 0 42
0 0 42
0 0 42
0 0 42
0 0 42
0 0 42
0 0 42
0 0 42
0 0 42
0 0 42
0 0 42
0 0 42
0 0 42
0 0 42
0 0 42
0 0 42
0 0 42
0 0 42
194 208 228
218 234 255
218 234 255
218 234 255
218 234 255
218 234 255
218 234 255
218 234 255
218 234 255
218 234 255
218 234 255
218 234 255
218 234 255
218 234 255
218 234 255
218 234 255
218 234 255
218 234 255
218 234 255
218 234 255
218 234 255
218 234 255
218 234 255
218 234 255
218 234 255
218 234 255
218 234 255
218 234 255
218 234 255
218 234 255
218 234 255
218 234 255
218 234 255
218 234 255
218 234 255
218 234 255
218 234 255
218 234 255
218 234 255
218 234 255
218 234 255
218 234 255
218 234 255
218 234 255
218 234 255
218 234 255
218 234 255
218 234 255
218 234 255
218 234 255
218 234 255
218 234 255
218 234 255
218 234 255
218 234 255
218 234 255
218 234 255
218 234 255
218 234 255
218 234 255
218 234 255
218 234 255
218 234 255
218 234 255
218 234 255
218 234 255
218 234 255
218 234 255
218 234 255
218 234 255
218 234 255
218 234 255
218 234 255
218 234 255
218 234 255
218 234 255
218 234 255
218 234 255
218 234 255
218 234 255
218 234 255
218 234 255
218 234 255
218 234 255
218 234 255
218 234 255
218 234 255
218 234 255
218 234 255
218 234 255
218 234 255
218 234 255
218 234 255
218 234 255
218 234 255
218 234 255
218 234 255
218 234 255
218 234 255
218 234 255
218 234 255
218 234 255
218 234 255
218 234 255
218 234 255
218 234 255
218 234 255
218 234 255
218 234 255
218 234 255
218 234 255
218 234 255
218 234 255
218 234 255
218 234 255
218 234 255
218 234 255
218 234 255
218 234 255
218 234 255
218 234 255
218 234 255
218 234 255
218 234 255
218 234 255
218 234 255
218 234 255
218 234 255
218 234 255
218 234 255
218 234 255
218 234 255
218 234 255
218 234 255
218 234 255
218 234 255
218 234 255
218 234 255
218 234 255
218 234 255
218 234 255
218 234 255
218 234 255
218 234 255
218 234 255
218 234 255
218 234 255
218 234 255
218 234 255
218 234 255
218 234 255
218 234 255
218 234 255
218 234 255
218 234 255
218 234 255
218 234 255
218 234 255
218 234 255
218 234 255
218 234 255
218 234 255
218 234 255
218 234 255
218 234 255
218 234 255
218 234 255
218 234 255
218 234 255
218 234 255
218 234 255
218 234 255
218 234 255
218 234 255
218 234 255
218 234 255
218 234 255
218 234 255
218 234 255
218 234 255
218 234 255
218 234 255
218 234 255
218 234 255
218 234 255
218 234 255
218 234 255
218 234 255
218 234 255
218 234 255
218 234 255
218 234 255
218 234 255
218 234 255
218 234 255
218 234 255
218 234 255
218 234 255
218 234 255
218 234 255
218 234 255
218 234 255
218 234 255
218 234 255
218 234 255
218 234 255
218 234 255
218 234 255
218 234 255
218 234 255
218 234 255
218 234 255
218 234 255
218 234 255
218 234 255
111 119 135
0 0 42
0 0 42
0 0 42
0 0 42
0 0 42
0 0 42
0 0 42
0 0 42
0 0 42
0 0 42
0 0 42
0 0 42
0 0 42
0 0 42
0 0 42
0 0 42
0 0 42
0 0 42
0 0 42
0 0 42
0 0 42
0 0 42
0 0 42
0 0 42
0 0 42
0 0 42
0 0 42
0 0 42
0 0 42
0 0 42
0 0 42
0 0 42
0 0 42
0 0 42
0 0 42
0 0 42
0 0 42
0 0 42
0 0 42
0 0 42
0 0 42
0 0 42
0 0 42
0 0 44
0 0 45
0 0 44
2 0 37
17 14 27
66 66 67
125 125 122
94 87 75
71 70 69
4 0 40
4 0 38
0 0 10
79 90 73
59 73 41
41 62 11
30 48 0
39 50 16
46 51 23
69 68 36
100 95 62
121 110 80
159 148 120
191 184 159
160 153 124
133 126 96
119 115 86
125 121 95
146 147 122
117 115 88
78 75 43
113 111 79
130 129 97
113 113 72
91 96 41
93 103 78
30 32 47
0 0 36
0 0 38
0 0 42
0 0 39
0 0 40
0 0 42
0 0 42
0 0 42
0 0 42
0 0 42
0 0 42
0 0 42
0 0 42
0 0 42
0 0 42
0 0 42
0 0 42
0 0 42
0 0 42
0 0 42
0 0 42
0 0 41
0 0 40
0 0 39
0 0 39
0 0 43
0 0 45
0 0 35
17 24 22
47 69 41
42 54 16
64 74 51
38 48 37
0 10 40
8 26 47
4 10 31
12 30 33
44 97 102
0 6 35
5 0 39
5 0 38
0 0 44
0 0 45
0 0 45
0 0 43
0 0 42
0 0 42
0 0 42
0 0 42
0 0 42
0 0 42
0 0 42
0 0 42
0 0 42
0 0 42
0 0 42
0 0 42
0 0 42
0 0 42
0 0 42
0 0 42
0 0 42
0 0 42
0 0 42
0 0 42
0 0 42
0 0 42
0 0 42
0 0 42
0 0 42
0 0 42
0 0 42
0 0 42
0 0 42
0 0 42
0 0 42
0 0 42
0 0 42
0 0 42
0 0 42
0 0 42
0 0 42
0 0 42
0 0 42
0 0 42
0 0 42
0 0 42
0 0 42
0 0 42
0 0 42
0 0 42
0 0 42
0 0 42
0 0 42
0 0 42
0 0 42
0 0 42
0 0 42
0 0 42
0 0 42
0 0 42
0 0 42
0 0 42
0 0 42
0 0 42
111 119 135
218 234 255
218 234 255
218 234 255
218 234 255
218 234 255
218 234 255
218 234 255
218 234 255
218 234 255
218 234 255
218 234 255
218 234 255
218 234 255
218 234 255
218 234 255
218 234 255
218 234 255
218 234 255
218 234 255
218 234 255
218 234 255
218 234 255
218 234 255
218 234 255
218 234 255
218 234 255
218 234 255
218 234 255
218 234 255
218 234 255
218 234 255
218 234 255
218 234 255
218 234 255
218 234 255
218 234 255
218 234 255
218 234 255
218 234 255
218 234 255
218 234 255
218 234 255
218 234 255
218 234 255
218 234 255
218 234 255
218 234 255
218 234 255
218 234 255
218 234 255
218 234 255
218 234 255
218 234 255
218 234 255
218 234 255
218 234 255
218 234 255
218 234 255
218 234 255
218 234 255
218 234 255
218 234 255
218 234 255
218 234 255
218 234 255
218 234 255
218 234 255
218 234 255
218 234 255
218 234 255
218 234 255
218 234 255
218 234 255
218 234 255
218 234 255
218 234 255
218 234 255
218 234 255
218 234 255
218 234 255
218 234 255
218 234 255
218 234 255
218 234 255
218 234 255
218 234 255
218 234 255
218 234 255
218 234 255
218 234 255
218 234 255
218 234 255
218 234 255
218 234 255
218 234 255
218 234 255
218 234 255
218 234 255
218 234 255
218 234 255
218 234 255
218 234 255
218 234 255
218 234 255
218 234 255
218 234 255
218 234 255
218 234 255
218 234 255
218 234 255
218 234 255
218 234 255
218 234 255
218 234 255
218 234 255
218 234 255
218 234 255
218 234 255
218 234 255
218 234 255
218 234 255
218 234 255
218 234 255
218 234 255
218 234 255
218 234 255
218 234 255
218 234 255
218 234 255
218 234 255
218 234 255
218 234 255
218 234 255
218 234 255
218 234 255
218 234 255
218 234 255
218 234 255
218 234 255
218 234 255
218 234 255
218 234 255
218 234 255
218 234 255
218 234 255
218 234 255
218 234 255
218 234 255
218 234 255
218 234 255
218 234 255
218 234 255
218 234 255
218 234 255
218 234 255
218 234 255
218 234 255
218 234 255
218 234 255
218 234 255
218 234 255
218 234 255
218 234 255
218 234 255
218 234 255
218 234 255
218 234 255
218 234 255
218 234 255
218 234 255
218 234 255
218 234 255
218 234 255
218 234 255
218 234 255
218 234 255
218 234 255
218 234 255
218 234 255
218 234 255
218 234 255
218 234 255
218 234 255
218 234 255
218 234 255
218 234 255
218 234 255
218 234 255
218 234 255
218 234 255
218 234 255
218 234 255
218 234 255
218 234 255
218 234 255
218 234 255
218 234 255
218 234 255
218 234 255
218 234 255
218 234 255
218 234 255
218 234 255
218 234 255
218 234 255
218 234 255
218 234 255
218 234 255
218 234 255
218 234 255
218 234 255
218 234 255
218 234 255
184 197 216
0 0 42
0 0 42
0 0 42
0 0 42
0 0 42
0 0 42
0 0 42
0 0 42
0 0 42
0 0 42
0 0 42
0 0 42
0 0 42
0 0 42
0 0 42
0 0 42
0 0 42
0 0 42
0 0 42
0 0 42
0 0 42
0 0 42
0 0 42
0 0 42
0 0 42
0 0 42
0 0 42
0 0 42
0 0 42
0 0 42
0 0 42
0 0 42
0 0 42
0 0 42
0 0 42
0 0 42
0 0 42
0 0 42
0 0 42
0 0 42
0 0 42
0 0 42
0 0 42
0 0 42
0 0 41
0 0 42
0 0 44
2 0 41
6 0 34
4 0 22
26 23 24
138 130 118
65 62 47
8 4 26
0 0 44
10 11 30
94 107 95
86 99 52
60 77 20
32 53 0
36 50 8
42 50 12
67 71 39
92 91 60
102 96 57
113 103 68
139 127 102
160 155 128
192 198 174
168 177 155
140 138 111
127 127 99
77 76 52
99 101 69
114 117 83
126 132 100
109 114 70
104 114 67
116 129 115
32 34 51
0 0 35
0 0 36
0 0 39
0 0 35
0 0 39
0 0 42
0 0 42
0 0 42
0 0 42
0 0 42
0 0 42
0 0 42
0 0 42
0 0 42
0 0 42
0 0 42
0 0 42
0 0 42
0 0 42
0 0 42
0 0 42
0 0 39
0 0 34
0 0 40
0 0 41
0 0 36
0 0 39
0 0 41
0 2 20
0 34 10
33 47 4
74 81 58
38 47 39
17 43 53
33 114 113
9 68 71
35 81 97
8 26 38
14 22 43
11 17 38
5 0 40
0 0 42
1 0 42
3 0 44
0 0 42
0 0 42
0 0 42
0 0 42
0 0 42
0 0 42
0 0 42
0 0 42
0 0 42
0 0 42
0 0 42
0 0 42
0 0 42
0 0 42
0 0 42
0 0 42
0 0 42
0 0 42
0 0 42
0 0 42
0 0 42
0 0 42
0 0 42
0 0 42
0 0 42
0 0 42
0 0 42
0 0 42
0 0 42
0 0 42
0 0 42
0 0 42
0 0 42
0 0 42
0 0 42
0 0 42
0 0 42
0 0 42
0 0 42
0 0 42
0 0 42
0 0 42
0 0 42
0 0 42
0 0 42
0 0 42
0 0 42
0 0 42
0 0 42
0 0 42
0 0 42
0 0 42
0 0 42
0 0 42
0 0 42
0 0 42
0 0 42
0 0 42
0 0 42
0 0 42
0 0 42
5 5 41
179 191 210
218 234 255
218 234 255
218 234 255
218 234 255
218 234 255
218 234 255
218 234 255
218 234 255
218 234 255
218 234 255
218 234 255
218 234 255
218 234 255
218 234 255
218 234 255
218 234 255
218 234 255
218 234 255
218 234 255
218 234 255
218 234 255
218 234 255
218 234 255
218 234 255
218 234 255
218 234 255
218 234 255
218 234 255
218 234 255
218 234 255
218 234 255
218 234 255
218 234 255
218 234 255
218 234 255
218 234 255
218 234 255
218 234 255
218 234 255
218 234 255
218 234 255
218 234 255
218 234 255
218 234 255
218 234 255
218 234 255
218 234 255
218 234 255
218 234 255
218 234 255
218 234 255
218 234 255
218 234 255
218 234 255
218 234 255
218 234 255
218 234 255
218 234 255
218 234 255
218 234 255
218 234 255
218 234 255
218 234 255
218 234 255
218 234 255
218 234 255
218 234 255
218 234 255
218 234 255
218 234 255
218 234 255
218 234 255
218 234 255
218 234 255
218 234 255
218 234 255
218 234 255
218 234 255
218 234 255
218 234 255
218 234 255
218 234 255
218 234 255
218 234 255
218 234 255
218 234 255
218 234 255
218 234 255
218 234 255
218 234 255
218 234 255
218 234 255
218 234 255
218 234 255
218 234 255
218 234 255
218 234 255
218 234 255
218 234 255
218 234 255
218 234 255
218 234 255
218 234 255
218 234 255
218 234 255
218 234 255
218 234 255
218 234 255
218 234 255
218 234 255
218 234 255
218 234 255
218 234 255
218 234 255
218 234 255
218 234 255
218 234 255
218 234 255
218 234 255
218 234 255
218 234 255
218 234 255
218 234 255
218 234 255
218 234 255
218 234 255
218 234 255
218 234 255
218 234 255
218 234 255
218 234 255
218 234 255
218 234 255
218 234 255
218 234 255
218 234 255
218 234 255
218 234 255
218 234 255
218 234 255
218 234 255
218 234 255
218 234 255
218 234 255
218 234 255
218 234 255
218 234 255
218 234 255
218 234 255
218 234 255
218 234 255
218 234 255
218 234 255
218 234 255
218 234 255
218 234 255
218 234 255
218 234 255
218 234 255
218 234 255
218 234 255
218 234 255
218 234 255
218 234 255
218 234 255
218 234 255
218 234 255
218 234 255
218 234 255
218 234 255
218 234 255
218 234 255
218 234 255
218 234 255
218 234 255
218 234 255
218 234 255
218 234 255
218 234 255
218 234 255
218 234 255
218 234 255
218 234 255
218 234 255
218 234 255
218 234 255
218 234 255
218 234 255
218 234 255
218 234 255
218 234 255
218 234 255
218 234 255
218 234 255
218 234 255
218 234 255
218 234 255
218 234 255
218 234 255
218 234 255
218 234 255
218 234 255
218 234 255
218 234 255
218 234 255
218 234 255
218 234 255
218 234 255
218 234 255
218 234 255
218 234 255
211 227 248
72 77 93
0 0 42
0 0 42
0 0 42
0 0 42
0 0 42
0 0 42
0 0 42
0 0 42
0 0 42
0 0 42
0 0 42
0 0 42
0 0 42
0 0 42
0 0 42
0 0 42
0 0 42
0 0 42
0 0 42
0 0 42
0 0 42
0 0 42
0 0 42
0 0 42
0 0 42
0 0 42
0 0 42
0 0 42
0 0 42
0 0 42
0 0 42
0 0 42
0 0 42
0 0 42
0 0 42
0 0 42
0 0 42
0 0 42
0 0 42
0 0 42
0 0 42
0 0 42
0 0 41
0 0 39
0 0 39
0 0 40
0 0 45
0 0 49
3 0 44
8 0 40
43 38 37
152 149 129
88 83 63
24 22 30
0 0 51
0 0 36
24 26 18
67 70 48
67 81 43
38 59 13
33 50 0
39 48 16
64 70 48
84 86 59
91 87 54
107 101 67
109 100 69
130 122 94
134 128 101
112 104 75
97 89 65
106 103 76
97 97 73
62 64 34
96 103 69
101 110 72
93 103 59
109 123 91
48 56 49
0 0 36
0 0 38
0 0 38
0 0 40
0 0 39
0 0 40
0 0 42
0 0 42
0 0 42
0 0 42
0 0 42
0 0 42
0 0 42
0 0 42
0 0 42
0 0 42
0 0 42
0 0 42
0 0 42
0 0 42
0 0 42
0 0 42
0 0 40
0 0 37
0 0 39
0 0 41
0 0 42
6 0 49
0 0 51
0 16 50
19 48 60
40 79 66
52 76 51
9 17 36
0 3 41
26 87 96
49 142 160
35 87 99
16 36 45
39 80 92
49 96 113
0 16 40
0 0 40
1 0 41
5 0 41
0 0 42
0 0 42
0 0 42
0 0 42
0 0 42
0 0 42
0 0 42
0 0 42
0 0 42
0 0 42
0 0 42
0 0 42
0 0 42
0 0 42
0 0 42
0 0 42
0 0 42
0 0 42
0 0 42
0 0 42
0 0 42
0 0 42
0 0 42
0 0 42
0 0 42
0 0 42
0 0 42
0 0 42
0 0 42
0 0 42
0 0 42
0 0 42
0 0 42
0 0 42
0 0 42
0 0 42
0 0 42
0 0 42
0 0 42
0 0 42
0 0 42
0 0 42
0 0 42
0 0 42
0 0 42
0 0 42
0 0 42
0 0 42
0 0 42
0 0 42
0 0 42
0 0 42
0 0 42
0 0 42
0 0 42
0 0 42
0 0 42
0 0 42
0 0 42
0 0 42
0 0 42
0 0 41
98 105 120
216 231 253
218 234 255
218 234 255
218 234 255
218 234 255
218 234 255
218 234 255
218 234 255
218 234 255
218 234 255
218 234 255
218 234 255
218 234 255
218 234 255
218 234 255
218 234 255
218 234 255
218 234 255
218 234 255
218 234 255
218 234 255
218 234 255
218 234 255
218 234 255
218 234 255
218 234 255
218 234 255
218 234 255
218 234 255
218 234 255
218 234 255
218 234 255
218 234 255
218 234 255
218 234 255
218 234 255
218 234 255
218 234 255
218 234 255
218 234 255
218 234 255
218 234 255
218 234 255
218 234 255
218 234 255
218 234 255
218 234 255
218 234 255
218 234 255
218 234 255
218 234 255
218 234 255
218 234 255
218 234 255
218 234 255
218 234 255
218 234 255
218 234 255
218 234 255
218 234 255
218 234 255
218 234 255
218 234 255
218 234 255
218 234 255
218 234 255
218 234 255
218 234 255
218 234 255
218 234 255
218 234 255
218 234 255
218 234 255
218 234 255
218 234 255
218 234 255
218 234 255
218 234 255
218 234 255
218 234 255
218 234 255
218 234 255
218 234 255
218 234 255
218 234 255
218 234 255
218 234 255
218 234 255
218 234 255
218 234 255
218 234 255
218 234 255
218 234 255
218 234 255
218 234 255
218 234 255
218 234 255
218 234 255
218 234 255
218 234 255
218 234 255
218 234 255
218 234 255
218 234 255
218 234 255
218 234 255
218 234 255
218 234 255
218 234 255
218 234 255
218 234 255
218 234 255
218 234 255
218 234 255
218 234 255
218 234 255
218 234 255
218 234 255
218 234 255
218 234 255
218 234 255
218 234 255
218 234 255
218 234 255
218 234 255
218 234 255
218 234 255
218 234 255
218 234 255
218 234 255
218 234 255
218 234 255
218 234 255
218 234 255
218 234 255
218 234 255
218 234 255
218 234 255
218 234 255
218 234 255
218 234 255
218 234 255
218 234 255
218 234 255
218 234 255
218 234 255
218 234 255
218 234 255
218 234 255
218 234 255
218 234 255
218 234 255
218 234 255
218 234 255
218 234 255
218 234 255
218 234 255
218 234 255
218 234 255
218 234 255
218 234 255
218 234 255
218 234 255
218 234 255
218 234 255
218 234 255
218 234 255
218 234 255
218 234 255
218 234 255
218 234 255
218 234 255
218 234 255
218 234 255
218 234 255
218 234 255
218 234 255
218 234 255
218 234 255
218 234 255
218 234 255
218 234 255
218 234 255
218 234 255
218 234 255
218 234 255
218 234 255
218 234 255
218 234 255
218 234 255
218 234 255
218 234 255
218 234 255
218 234 255
218 234 255
218 234 255
218 234 255
218 234 255
218 234 255
218 234 255
218 234 255
218 234 255
218 234 255
218 234 255
218 234 255
218 234 255
218 234 255
218 234 255
218 234 255
218 234 255
218 234 255
163 175 193
0 0 42
0 0 42
0 0 42
0 0 42
0 0 42
0 0 42
0 0 42
0 0 42
0 0 42
0 0 42
0 0 42
0 0 42
0 0 42
0 0 42
0 0 42
0 0 42
0 0 42
0 0 42
0 0 42
0 0 42
0 0 42
0 0 42
0 0 42
0 0 42
0 0 42
0 0 42
0 0 42
0 0 42
0 0 42
0 0 42
0 0 42
0 0 42
0 0 42
0 0 42
0 0 42
0 0 42
0 0 42
0 0 42
0 0 42
0 0 42
0 0 42
0 0 42
0 0 42
0 0 42
0 0 40
0 0 37
0 0 38
0 0 43
0 0 48
0 0 49
4 0 43
59 58 64
179 182 167
134 133 107
41 34 48
0 0 42
0 0 34
0 0 45
12 11 28
72 86 76
58 77 39
39 56 0
33 44 9
50 55 30
71 72 46
91 89 64
95 87 58
113 102 73
124 111 85
160 148 126
123 109 85
125 113 87
124 118 91
134 134 109
54 54 27
81 89 58
59 69 37
81 95 56
76 91 73
0 0 21
0 0 39
0 0 42
0 0 42
0 0 45
0 0 41
0 0 42
0 0 42
0 0 42
0 0 42
0 0 42
0 0 42
0 0 42
0 0 42
0 0 42
0 0 41
0 0 41
0 0 41
0 0 40
0 0 41
0 0 42
0 0 42
0 0 42
0 0 43
0 0 45
0 0 40
0 0 38
0 0 42
5 3 49
16 18 61
26 38 70
28 52 72
21 45 54
13 27 41
0 0 46
0 0 44
18 88 109
52 165 182
66 136 137
32 53 54
25 61 78
26 57 73
9 26 51
12 23 48
0 0 37
0 0 40
0 0 39
0 0 38
0 0 41
0 0 43
0 0 42
0 0 42
0 0 42
0 0 42
0 0 42
0 0 42
0 0 42
0 0 42
0 0 42
0 0 42
0 0 42
0 0 42
0 0 42
0 0 42
0 0 42
0 0 42
0 0 42
0 0 42
0 0 42
0 0 42
0 0 42
0 0 42
0 0 42
0 0 42
0 0 42
0 0 42
0 0 42
0 0 42
0 0 42
0 0 42
0 0 42
0 0 42
0 0 42
0 0 42
0 0 42
0 0 42
0 0 42
0 0 42
0 0 42
0 0 42
0 0 42
0 0 42
0 0 42
0 0 42
0 0 42
0 0 42
0 0 42
0 0 42
0 0 42
0 0 42
0 0 42
0 0 42
0 0 42
0 0 42
0 0 42
0 0 42
0 0 42
0 0 42
9 10 43
154 164 181
218 234 255
218 234 255
218 234 255
218 234 255
218 234 255
218 234 255
218 234 255
218 234 255
218 234 255
218 234 255
218 234 255
218 234 255
218 234 255
218 234 255
218 234 255
218 234 255
218 234 255
218 234 255
218 234 255
218 234 255
218 234 255
218 234 255
218 234 255
218 234 255
218 234 255
218 234 255
218 234 255
218 234 255
218 234 255
218 234 255
218 234 255
218 234 255
218 234 255
218 234 255
218 234 255
218 234 255
218 234 255
218 234 255
218 234 255
218 234 255
218 234 255
218 234 255
218 234 255
218 234 255
218 234 255
218 234 255
218 234 255
218 234 255
218 234 255
218 234 255
218 234 255
218 234 255
218 234 255
218 234 255
218 234 255
218 234 255
218 234 255
218 234 255
218 234 255
218 234 255
218 234 255
218 234 255
218 234 255
218 234 255
218 234 255
218 234 255
218 234 255
218 234 255
218 234 255
218 234 255
218 234 255
218 234 255
218 234 255
218 234 255
218 234 255
218 234 255
218 234 255
218 234 255
218 234 255
218 234 255
218 234 255
218 234 255
218 234 255
218 234 255
218 234 255
218 234 255
218 234 255
218 234 255
218 234 255
218 234 255
218 234 255
218 234 255
218 234 255
218 234 255
218 234 255
218 234 255
218 234 255
218 234 255
218 234 255
218 234 255
218 234 255
218 234 255
218 234 255
218 234 255
218 234 255
218 234 255
218 234 255
218 234 255
218 234 255
218 234 255
218 234 255
218 234 255
218 234 255
218 234 255
218 234 255
218 234 255
218 234 255
218 234 255
218 234 255
218 234 255
218 234 255
218 234 255
218 234 255
218 234 255
218 234 255
218 234 255
218 234 255
218 234 255
218 234 255
218 234 255
218 234 255
218 234 255
218 234 255
218 234 255
218 234 255
218 234 255
218 234 255
218 234 255
218 234 255
218 234 255
218 234 255
218 234 255
218 234 255
218 234 255
218 234 255
218 234 255
218 234 255
218 234 255
218 234 255
218 234 255
218 234 255
218 234 255
218 234 255
218 234 255
218 234 255
218 234 255
218 234 255
218 234 255
218 234 255
218 234 255
218 234 255
218 234 255
218 234 255
218 234 255
218 234 255
218 234 255
218 234 255
218 234 255
218 234 255
218 234 255
218 234 255
218 234 255
218 234 255
218 234 255
218 234 255
218 234 255
218 234 255
218 234 255
218 234 255
218 234 255
218 234 255
218 234 255
218 234 255
218 234 255
218 234 255
218 234 255
218 234 255
218 234 255
218 234 255
218 234 255
218 234 255
218 234 255
218 234 255
218 234 255
218 234 255
218 234 255
218 234 255
218 234 255
218 234 255
218 234 255
218 234 255
218 234 255
218 234 255
218 234 255
218 234 255
218 234 255
218 234 255
218 234 255
218 234 255
212 227 248
53 57 74
0 0 42
0 0 42
0 0 42
0 0 42
0 0 42
0 0 42
0 0 42
0 0 42
0 0 42
0 0 42
0 0 42
0 0 42
0 0 42
0 0 42
0 0 42
0 0 42
0 0 42
0 0 42
0 0 42
0 0 42
0 0 42
0 0 42
0 0 42
0 0 42
0 0 42
0 0 42
0 0 42
0 0 42
0 0 42
0 0 42
0 0 42
0 0 42
0 0 42
0 0 42
0 0 42
0 0 42
0 0 42
0 0 42
0 0 42
0 0 42
0 0 42
0 0 42
0 0 42
0 0 44
0 0 42
0 0 37
0 0 36
0 0 40
0 0 44
0 0 43
0 3 41
0 3 26
105 104 91
159 157 144
85 80 70
52 52 49
9 7 40
0 0 54
0 0 41
15 18 25
62 77 58
44 60 17
33 48 0
42 51 19
64 68 39
84 82 58
91 83 65
115 99 81
118 98 74
137 118 95
139 121 99
134 118 93
134 125 99
129 128 101
68 71 46
68 77 50
81 96 58
74 90 53
56 68 63
0 0 29
0 0 42
0 0 43
0 0 44
0 0 47
0 0 43
0 0 42
0 0 42
0 0 42
0 0 42
0 0 42
0 0 42
0 0 42
0 0 42
0 0 42
0 0 40
0 0 41
0 0 42
0 0 42
0 0 42
0 0 42
0 0 42
0 0 42
0 0 44
0 0 51
0 0 40
0 0 35
0 0 40
0 0 46
0 0 39
0 7 32
0 6 30
0 5 40
0 2 49
19 42 83
7 15 46
11 68 88
16 118 147
79 170 171
55 108 106
21 34 48
19 42 63
15 33 49
26 37 65
6 0 34
10 9 44
0 0 38
0 0 39
0 0 42
0 0 44
0 0 42
0 0 42
0 0 42
0 0 42
0 0 42
0 0 42
0 0 42
0 0 42
0 0 42
0 0 42
0 0 42
0 0 42
0 0 42
0 0 42
0 0 42
0 0 42
0 0 42
0 0 42
0 0 42
0 0 42
0 0 42
0 0 42
0 0 42
0 0 42
0 0 42
0 0 42
0 0 42
0 0 42
0 0 42
0 0 42
0 0 42
0 0 42
0 0 42
0 0 42
0 0 42
0 0 42
0 0 42
0 0 42
0 0 42
0 0 42
0 0 42
0 0 42
0 0 42
0 0 42
0 0 42
0 0 42
0 0 42
0 0 42
0 0 42
0 0 42
0 0 42
0 0 42
0 0 42
0 0 42
0 0 42
0 0 42
0 0 42
0 0 42
0 0 42
57 60 71
208 223 243
218 234 255
218 234 255
218 234 255
218 234 255
218 234 255
218 234 255
218 234 255
218 234 255
218 234 255
218 234 255
218 234 255
218 234 255
218 234 255
218 234 255
218 234 255
218 234 255
218 234 255
218 234 255
218 234 255
218 234 255
218 234 255
218 234 255
218 234 255
218 234 255
218 234 255
218 234 255
218 234 255
218 234 255
218 234 255
218 234 255
218 234 255
218 234 255
218 234 255
218 234 255
218 234 255
218 234 255
218 234 255
218 234 255
218 234 255
218 234 255
218 234 255
218 234 255
218 234 255
218 234 255
218 234 255
218 234 255
218 234 255
218 234 255
218 234 255
218 234 255
218 234 255
218 234 255
218 234 255
218 234 255
218 234 255
218 234 255
218 234 255
218 234 255
218 234 255
218 234 255
218 234 255
218 234 255
218 234 255
218 234 255
218 234 255
218 234 255
218 234 255
218 234 255
218 234 255
218 234 255
218 234 255
218 234 255
218 234 255
218 234 255
218 234 255
218 234 255
218 234 255
218 234 255
218 234 255
218 234 255
218 234 255
218 234 255
218 234 255
218 234 255
218 234 255
218 234 255
218 234 255
218 234 255
218 234 255
218 234 255
218 234 255
218 234 255
218 234 255
218 234 255
218 234 255
218 234 255
218 234 255
218 234 255
218 234 255
218 234 255
218 234 255
218 234 255
218 234 255
218 234 255
218 234 255
218 234 255
218 234 255
218 234 255
218 234 255
218 234 255
218 234 255
218 234 255
218 234 255
218 234 255
218 234 255
218 234 255
218 234 255
218 234 255
218 234 255
218 234 255
218 234 255
218 234 255
218 234 255
218 234 255
218 234 255
218 234 255
218 234 255
218 234 255
218 234 255
218 234 255
218 234 255
218 234 255
218 234 255
218 234 255
218 234 255
218 234 255
218 234 255
218 234 255
218 234 255
218 234 255
218 234 255
218 234 255
218 234 255
218 234 255
218 234 255
218 234 255
218 234 255
218 234 255
218 234 255
218 234 255
218 234 255
218 234 255
218 234 255
218 234 255
218 234 255
218 234 255
218 234 255
218 234 255
218 234 255
218 234 255
218 234 255
218 234 255
218 234 255
218 234 255
218 234 255
218 234 255
218 234 255
218 234 255
218 234 255
218 234 255
218 234 255
218 234 255
218 234 255
218 234 255
218 234 255
218 234 255
218 234 255
218 234 255
218 234 255
218 234 255
218 234 255
218 234 255
218 234 255
218 234 255
218 234 255
218 234 255
218 234 255
218 234 255
218 234 255
218 234 255
218 234 255
218 234 255
218 234 255
218 234 255
218 234 255
218 234 255
218 234 255
218 234 255
218 234 255
218 234 255
218 234 255
218 234 255
218 234 255
218 234 255
218 234 255
218 234 255
218 234 255
218 234 255
140 150 167
0 0 42
0 0 42
0 0 42
0 0 42
0 0 42
0 0 42
0 0 42
0 0 42
0 0 42
0 0 42
0 0 42
0 0 42
0 0 42
0 0 42
0 0 42
0 0 42
0 0 42
0 0 42
0 0 42
0 0 42
0 0 42
0 0 42
0 0 42
0 0 42
0 0 42
0 0 42
0 0 42
0 0 42
0 0 42
0 0 42
0 0 42
0 0 42
0 0 42
0 0 42
0 0 42
0 0 42
0 0 42
0 0 42
0 0 42
0 0 42
0 0 42
0 0 42
0 0 42
0 0 42
0 0 47
0 0 40
0 0 37
0 0 37
0 0 39
0 0 40
0 0 38
0 4 31
0 4 33
8 0 39
64 59 60
128 128 107
91 93 77
24 25 44
0 0 45
0 0 36
4 0 39
14 19 24
55 72 47
37 57 12
35 48 10
44 51 16
78 79 52
96 88 76
110 96 81
130 110 88
128 106 83
134 115 91
136 122 99
107 97 72
99 100 70
57 64 34
51 63 33
78 94 52
62 77 47
49 57 59
0 0 34
0 0 39
0 0 42
0 0 43
0 0 46
0 0 43
0 0 42
0 0 42
0 0 42
0 0 42
0 0 42
0 0 42
0 0 42
0 0 42
0 0 42
0 0 41
0 0 41
0 0 41
0 0 42
0 0 42
0 0 42
0 0 42
0 0 42
0 0 42
0 0 44
0 0 40
0 0 35
0 0 35
0 0 39
0 0 35
7 9 38
3 7 37
3 6 39
6 14 36
27 50 83
16 32 62
10 38 62
23 106 143
28 144 165
60 144 169
6 20 40
38 77 88
50 126 143
29 80 93
30 55 74
0 0 36
0 0 38
0 10 43
0 3 40
0 0 44
0 0 41
0 0 42
0 0 42
0 0 42
0 0 42
0 0 42
0 0 42
0 0 42
0 0 42
0 0 42
0 0 42
0 0 42
0 0 42
0 0 42
0 0 42
0 0 42
0 0 42
0 0 42
0 0 42
0 0 42
0 0 42
0 0 42
0 0 42
0 0 42
0 0 42
0 0 42
0 0 42
0 0 42
0 0 42
0 0 42
0 0 42
0 0 42
0 0 42
0 0 42
0 0 42
0 0 42
0 0 42
0 0 42
0 0 42
0 0 42
0 0 42
0 0 42
0 0 42
0 0 42
0 0 42
0 0 42
0 0 42
0 0 42
0 0 42
0 0 42
0 0 42
0 0 42
0 0 42
0 0 42
0 0 42
0 0 42
0 0 42
0 0 42
0 0 42
0 0 42
155 165 180
218 234 255
218 234 255
218 234 255
218 234 255
218 234 255
218 234 255
218 234 255
218 234 255
218 234 255
218 234 255
218 234 255
218 234 255
218 234 255
218 234 255
218 234 255
218 234 255
218 234 255
218 234 255
218 234 255
218 234 255
218 234 255
218 234 255
218 234 255
218 234 255
218 234 255
218 234 255
218 234 255
218 234 255
218 234 255
218 234 255
218 234 255
218 234 255
218 234 255
218 234 255
218 234 255
218 234 255
218 234 255
218 234 255
218 234 255
218 234 255
218 234 255
218 234 255
218 234 255
218 234 255
218 234 255
218 234 255
218 234 255
218 234 255
218 234 255
218 234 255
218 234 255
218 234 255
218 234 255
218 234 255
218 234 255
218 234 255
218 234 255
218 234 255
218 234 255
218 234 255
218 234 255
218 234 255
218 234 255
218 234 255
218 234 255
218 234 255
218 234 255
218 234 255
218 234 255
218 234 255
218 234 255
218 234 255
218 234 255
218 234 255
218 234 255
218 234 255
218 234 255
218 234 255
218 234 255
218 234 255
218 234 255
218 234 255
218 234 255
218 234 255
218 234 255
218 234 255
218 234 255
218 234 255
218 234 255
218 234 255
218 234 255
218 234 255
218 234 255
218 234 255
218 234 255
218 234 255
218 234 255
218 234 255
218 234 255
218 234 255
218 234 255
218 234 255
218 234 255
218 234 255
218 234 255
218 234 255
218 234 255
218 234 255
218 234 255
218 234 255
218 234 255
218 234 255
218 234 255
218 234 255
218 234 255
218 234 255
218 234 255
218 234 255
218 234 255
218 234 255
218 234 255
218 234 255
218 234 255
218 234 255
218 234 255
218 234 255
218 234 255
218 234 255
218 234 255
218 234 255
218 234 255
218 234 255
218 234 255
218 234 255
218 234 255
218 234 255
218 234 255
218 234 255
218 234 255
218 234 255
218 234 255
218 234 255
218 234 255
218 234 255
218 234 255
218 234 255
218 234 255
218 234 255
218 234 255
218 234 255
218 234 255
218 234 255
218 234 255
218 234 255
218 234 255
218 234 255
218 234 255
218 234 255
218 234 255
218 234 255
218 234 255
218 234 255
218 234 255
218 234 255
218 234 255
218 234 255
218 234 255
218 234 255
218 234 255
218 234 255
218 234 255
218 234 255
218 234 255
218 234 255
218 234 255
218 234 255
218 234 255
218 234 255
218 234 255
218 234 255
218 234 255
218 234 255
218 234 255
218 234 255
218 234 255
218 234 255
218 234 255
218 234 255
218 234 255
218 234 255
218 234 255
218 234 255
218 234 255
218 234 255
218 234 255
218 234 255
218 234 255
218 234 255
218 234 255
218 234 255
218 234 255
218 234 255
218 234 255
218 234 255
218 234 255
218 234 255
218 234 255
211 226 247
37 40 60
0 0 42
0 0 42
0 0 42
0 0 42
0 0 42
0 0 42
0 0 42
0 0 42
0 0 42
0 0 42
0 0 42
0 0 42
0 0 42
0 0 42
0 0 42
0 0 42
0 0 42
0 0 42
0 0 42
0 0 42
0 0 42
0 0 42
0 0 42
0 0 42
0 0 42
0 0 42
0 0 42
0 0 42
0 0 42
0 0 42
0 0 42
0 0 42
0 0 42
0 0 42
0 0 42
0 0 42
0 0 42
0 0 42
0 0 42
0 0 42
0 0 42
0 0 42
0 0 42
0 0 43
0 0 44
0 0 39
0 0 39
0 0 41
0 0 43
0 0 41
0 0 37
0 0 39
0 0 38
5 0 39
6 3 37
57 58 50
102 105 109
32 32 44
0 0 41
0 0 41
3 0 40
0 6 40
28 40 39
51 73 54
30 49 6
41 54 3
57 60 27
66 63 39
102 90 68
118 101 80
126 109 88
150 134 112
131 117 92
96 89 58
85 89 58
74 88 60
38 53 17
70 88 36
58 72 35
37 44 45
0 0 32
0 0 37
0 0 40
0 0 40
0 0 43
0 0 42
0 0 41
0 0 42
0 0 42
0 0 42
0 0 42
0 0 42
0 0 41
0 0 41
0 0 42
0 0 42
0 0 39
0 0 39
0 0 42
0 0 42
0 0 42
0 0 42
0 0 42
0 0 42
0 0 45
0 0 39
2 5 27
12 20 20
26 40 25
41 56 36
60 72 57
55 68 50
50 67 35
45 67 33
37 54 23
16 26 20
1 4 26
0 28 52
0 63 88
19 91 126
13 67 95
13 80 85
19 96 105
17 83 95
71 113 135
3 6 30
0 6 34
0 4 38
0 0 43
0 0 43
0 0 44
0 0 42
0 0 42
0 0 42
0 0 42
0 0 42
0 0 42
0 0 42
0 0 42
0 0 42
0 0 42
0 0 42
0 0 42
0 0 42
0 0 42
0 0 42
0 0 42
0 0 42
0 0 42
0 0 42
0 0 42
0 0 42
0 0 42
0 0 42
0 0 42
0 0 42
0 0 42
0 0 42
0 0 42
0 0 42
0 0 42
0 0 42
0 0 42
0 0 42
0 0 42
0 0 42
0 0 42
0 0 42
0 0 42
0 0 42
0 0 42
0 0 42
0 0 42
0 0 42
0 0 42
0 0 42
0 0 42
0 0 42
0 0 42
0 0 42
0 0 42
0 0 42
0 0 42
0 0 42
0 0 42
0 0 42
0 0 42
0 0 42
0 0 42
0 0 42
69 70 76
213 228 246
218 234 255
218 234 255
218 234 255
218 234 255
218 234 255
218 234 255
218 234 255
218 234 255
218 234 255
218 234 255
218 234 255
218 234 255
218 234 255
218 234 255
218 234 255
218 234 255
218 234 255
218 234 255
218 234 255
218 234 255
218 234 255
218 234 255
218 234 255
218 234 255
218 234 255
218 234 255
218 234 255
218 234 255
218 234 255
218 234 255
218 234 255
218 234 255
218 234 255
218 234 255
218 234 255
218 234 255
218 234 255
218 234 255
218 234 255
218 234 255
218 234 255
218 234 255
218 234 255
218 234 255
218 234 255
218 234 255
218 234 255
218 234 255
218 234 255
218 234 255
218 234 255
218 234 255
218 234 255
218 234 255
218 234 255
218 234 255
218 234 255
218 234 255
218 234 255
218 234 255
218 234 255
218 234 255
218 234 255
218 234 255
218 234 255
218 234 255
218 234 255
218 234 255
218 234 255
218 234 255
218 234 255
218 234 255
218 234 255
218 234 255
218 234 255
218 234 255
218 234 255
218 234 255
218 234 255
218 234 255
218 234 255
218 234 255
218 234 255
218 234 255
218 234 255
218 234 255
218 234 255
218 234 255
218 234 255
218 234 255
218 234 255
218 234 255
218 234 255
218 234 255
218 234 255
218 234 255
218 234 255
218 234 255
218 234 255
218 234 255
218 234 255
218 234 255
218 234 255
219 234 255
219 234 255
219 234 255
219 234 255
219 234 255
219 234 255
219 234 255
219 234 255
219 234 255
219 234 255
219 234 255
219 234 255
219 234 255
219 234 255
219 234 255
219 234 255
219 234 255
219 234 255
219 234 255
219 234 255
219 234 255
219 234 255
219 234 255
219 234 255
219 234 255
219 234 255
219 234 255
219 234 255
219 234 255
219 234 255
219 234 255
219 234 255
219 234 255
219 234 255
219 234 255
218 234 255
218 234 255
219 234 255
218 234 255
218 234 255
218 234 255
218 234 255
218 234 255
218 234 255
218 234 255
218 234 255
218 234 255
218 234 255
218 234 255
218 234 255
218 234 255
218 234 255
218 234 255
218 234 255
218 234 255
218 234 255
218 234 255
218 234 255
218 234 255
218 234 255
218 234 255
218 234 255
218 234 255
218 234 255
218 234 255
218 234 255
218 234 255
218 234 255
218 234 255
218 234 255
218 234 255
218 234 255
218 234 255
218 234 255
218 234 255
218 234 255
218 234 255
218 234 255
218 234 255
218 234 255
218 234 255
218 234 255
218 234 255
218 234 255
218 234 255
218 234 255
218 234 255
218 234 255
218 234 255
218 234 255
218 234 255
218 234 255
218 234 255
218 234 255
218 234 255
218 234 255
218 234 255
218 234 255
218 234 255
218 234 255
218 234 255
218 234 255
218 234 255
138 148 165
0 0 42
0 0 42
0 0 42
0 0 42
0 0 42
0 0 42
0 0 42
0 0 42
0 0 42
0 0 42
0 0 42
0 0 42
0 0 42
0 0 42
0 0 42
0 0 42
0 0 42
0 0 42
0 0 42
0 0 42
0 0 42
0 0 42
0 0 42
0 0 42
0 0 42
0 0 42
0 0 42
0 0 42
0 0 42
0 0 42
0 0 42
0 0 42
0 0 42
0 0 42
0 0 42
0 0 42
0 0 42
0 0 42
0 0 42
0 0 42
0 0 42
0 0 42
0 0 42
0 0 42
0 0 42
0 0 41
0 0 39
0 0 41
0 0 46
0 0 47
0 0 43
0 0 40
0 0 34
0 0 47
0 0 45
0 6 45
24 23 40
25 25 42
5 0 46
0 0 38
0 0 32
0 0 41
0 5 47
2 6 35
40 58 42
46 67 27
41 57 3
49 58 22
76 83 53
72 71 39
107 102 73
124 113 87
135 123 100
114 99 73
101 95 70
79 85 57
76 90 60
45 61 23
81 95 47
84 101 58
30 36 29
0 0 31
0 0 40
0 0 43
0 0 37
0 0 40
0 0 42
0 0 37
0 0 46
0 0 49
0 0 46
0 0 46
0 0 41
0 0 32
0 0 31
0 0 39
6 7 49
4 4 41
0 0 47
0 0 50
0 0 43
7 8 42
0 0 38
0 0 43
0 0 39
0 0 45
0 3 34
32 45 33
53 74 46
53 79 53
28 63 56
15 51 42
20 48 7
42 68 8
59 80 22
68 85 35
58 80 43
36 62 26
35 58 43
37 58 49
19 46 64
16 65 92
12 73 81
22 71 91
5 23 43
4 9 33
9 12 40
97 111 147
12 18 42
8 11 47
0 0 44
0 0 41
0 3 40
0 0 42
0 0 43
0 0 43
0 0 42
0 0 42
0 0 41
0 0 41
0 0 42
0 0 42
0 0 42
0 0 42
0 0 42
0 0 42
0 0 42
0 0 42
0 0 42
0 0 42
0 0 42
0 0 42
0 0 42
0 0 42
0 0 42
0 0 42
0 0 42
0 0 42
0 0 42
0 0 42
0 0 42
0 0 42
0 0 42
0 0 42
0 0 42
0 0 42
0 0 42
0 0 42
0 0 42
0 0 42
0 0 42
0 0 42
0 0 42
0 0 42
0 0 42
0 0 42
0 0 42
0 0 42
0 0 42
0 0 42
0 0 42
0 0 42
0 0 42
0 0 42
0 0 42
0 0 42
0 0 42
0 0 42
0 0 42
0 0 42
0 0 42
0 0 41
172 182 190
218 234 255
218 234 255
218 234 255
218 234 255
218 234 255
218 234 255
218 234 255
218 234 255
218 234 255
218 234 255
218 234 255
218 234 255
218 234 255
218 234 255
218 234 255
218 234 255
218 234 255
218 234 255
218 234 255
218 234 255
218 234 255
218 234 255
218 234 255
218 234 255
218 234 255
218 234 255
218 234 255
218 234 255
218 234 255
218 234 255
218 234 255
218 234 255
218 234 255
218 234 255
218 234 255
218 234 255
218 234 255
218 234 255
218 234 255
218 234 255
218 234 255
218 234 255
218 234 255
218 234 255
218 234 255
218 234 255
218 234 255
218 234 255
218 234 255
218 234 255
218 234 255
218 234 255
218 234 255
218 234 255
218 234 255
218 234 255
218 234 255
218 234 255
218 234 255
218 234 255
218 234 255
218 234 255
218 234 255
218 234 255
218 234 255
218 234 255
218 234 255
219 234 255
219 234 255
219 234 255
219 234 255
219 234 255
219 234 255
219 234 255
219 234 255
219 234 255
219 234 255
219 234 255
219 234 255
219 234 255
219 234 255
219 234 255
219 234 255
219 234 255
219 234 255
219 234 255
219 234 255
219 234 255
219 234 255
219 234 255
219 234 255
219 234 255
219 234 255
219 234 255
219 234 255
219 234 255
219 234 255
219 234 255
219 234 255
219 234 255
219 234 255
219 234 255
219 234 255
219 234 255
219 234 255
219 234 255
219 234 255
219 234 255
219 234 255
219 234 255
219 234 255
219 234 255
219 234 255
219 234 255
219 234 255
219 234 255
219 234 255
219 234 255
219 234 255
219 234 255
219 234 255
219 234 255
219 234 255
219 234 255
219 234 255
219 234 255
219 234 255
219 234 255
219 234 255
219 234 255
219 234 255
219 234 255
219 234 255
219 234 255
219 234 255
219 234 255
219 234 255
219 234 255
219 234 255
219 234 255
219 234 255
219 234 255
219 234 255
219 234 255
219 234 255
219 234 255
219 234 255
219 234 255
219 234 255
219 234 255
219 234 255
219 234 255
219 234 255
219 234 255
219 234 255
219 234 255
219 234 255
219 234 255
219 234 255
219 234 255
219 234 255
219 234 255
219 234 255
219 234 255
219 234 255
219 234 255
219 234 255
219 234 255
219 234 255
219 234 255
219 234 255
219 234 255
219 234 255
219 234 255
219 234 255
219 234 255
219 234 255
219 234 255
219 234 255
219 234 255
219 234 255
219 234 255
219 234 255
219 234 255
219 234 255
219 234 255
219 234 255
219 234 255
219 234 255
219 234 255
219 234 255
219 234 255
219 234 255
219 234 255
219 234 255
219 234 255
219 234 255
219 234 255
219 234 255
219 234 255
219 234 255
219 234 255
219 234 255
219 234 255
219 234 255
205 219 240
69 74 90
0 0 42
0 0 42
0 0 42
0 0 42
0 0 42
0 0 42
0 0 42
0 0 42
0 0 42
0 0 42
0 0 42
0 0 42
0 0 42
0 0 42
0 0 42
0 0 42
0 0 42
0 0 42
0 0 42
0 0 42
0 0 42
0 0 42
0 0 42
0 0 42
0 0 42
0 0 42
0 0 42
0 0 42
0 0 42
0 0 42
0 0 42
0 0 42
0 0 42
0 0 42
0 0 42
0 0 42
0 0 42
0 0 42
0 0 42
0 0 42
0 0 42
0 0 42
0 0 42
0 0 42
0 0 42
0 0 41
0 0 42
0 0 42
0 0 43
0 0 43
0 0 42
0 0 41
0 0 41
0 0 43
0 0 42
0 0 42
0 0 41
0 0 42
0 0 42
0 0 40
0 0 34
0 0 43
0 0 46
0 0 36
13 20 20
49 68 34
34 53 3
39 55 13
55 68 37
63 77 37
63 70 32
109 108 77
121 113 86
119 107 82
84 77 51
72 76 49
71 83 54
45 59 17
71 84 35
69 88 37
34 47 27
0 5 34
0 0 47
0 0 43
0 0 38
0 0 41
0 0 43
0 0 37
0 0 48
0 0 48
0 0 42
0 0 40
0 0 40
0 0 36
0 0 41
0 0 52
0 0 46
0 0 34
0 0 36
0 0 39
0 0 32
0 0 18
0 0 28
0 0 45
0 0 45
0 7 41
9 16 35
42 55 50
34 47 27
10 28 25
20 63 66
14 74 83
67 119 129
45 77 79
22 34 13
37 49 26
44 66 35
48 79 29
48 85 19
43 77 34
69 98 91
21 35 41
5 22 45
15 35 63
17 32 63
0 3 39
2 2 45
53 61 84
0 0 29
10 11 50
2 3 45
26 35 48
22 30 43
0 5 39
0 0 47
0 0 48
0 0 45
0 0 40
0 0 36
0 0 37
0 0 40
0 0 43
0 0 44
0 0 42
0 0 40
0 0 40
0 0 41
0 0 42
0 0 42
0 0 42
0 0 42
0 0 42
0 0 42
0 0 42
0 0 42
0 0 42
0 0 42
0 0 42
0 0 42
0 0 42
0 0 42
0 0 42
0 0 42
0 0 42
0 0 42
0 0 42
0 0 42
0 0 42
0 0 42
0 0 42
0 0 42
0 0 42
0 0 42
0 0 42
0 0 42
0 0 42
0 0 42
0 0 42
0 0 42
0 0 42
0 0 42
0 0 42
0 0 42
0 0 42
0 0 42
0 0 42
0 0 42
0 0 42
0 0 42
0 0 42
0 0 42
0 0 42
93 96 99
217 231 248
219 234 255
219 234 255
219 234 255
219 234 255
219 234 255
219 234 255
219 234 255
219 234 255
219 234 255
219 234 255
219 234 255
219 234 255
219 234 255
219 234 255
219 234 255
219 234 255
219 234 255
219 234 255
219 234 255
219 234 255
219 234 255
219 234 255
219 234 255
219 234 255
219 234 255
219 234 255
219 234 255
219 234 255
219 234 255
219 234 255
219 234 255
219 234 255
219 234 255
219 234 255
219 234 255
219 234 255
219 234 255
219 234 255
219 234 255
219 234 255
219 234 255
219 234 255
219 234 255
219 234 255
219 234 255
219 234 255
219 234 255
219 234 255
219 234 255
219 234 255
219 234 255
219 234 255
219 234 255
219 234 255
219 234 255
219 234 255
219 234 255
219 234 255
219 234 255
219 234 255
219 234 255
219 234 255
219 234 255
219 234 255
219 234 255
219 234 255
219 234 255
219 234 255
219 234 255
219 234 255
219 234 255
219 234 255
219 234 255
219 234 255
219 234 255
219 234 255
219 234 255
219 234 255
219 234 255
219 234 255
219 234 255
219 234 255
219 234 255
219 234 255
219 234 255
219 234 255
219 234 255
219 234 255
219 234 255
219 234 255
219 234 255
219 234 255
219 234 255
219 234 255
219 234 255
219 234 255
219 234 255
219 234 255
219 234 255
219 234 255
219 234 255
219 234 255
219 234 255
219 234 255
219 234 255
219 234 255
219 234 255
219 234 255
219 234 255
219 234 255
219 234 255
219 234 255
219 234 255
219 234 255
219 234 255
219 234 255
219 234 255
219 234 255
219 234 255
219 234 255
219 234 255
219 234 255
219 234 255
219 234 255
219 234 255
219 234 255
219 234 255
219 234 255
219 234 255
219 234 255
219 234 255
219 234 255
219 234 255
219 234 255
219 234 255
219 234 255
219 234 255
219 234 255
219 234 255
219 234 255
219 234 255
219 234 255
219 234 255
219 234 255
219 234 255
219 234 255
219 234 255
219 234 255
219 234 255
219 234 255
219 234 255
219 234 255
219 234 255
219 234 255
219 234 255
219 234 255
219 234 255
219 234 255
219 234 255
219 234 255
219 234 255
219 234 255
219 234 255
219 234 255
219 234 255
219 234 255
219 234 255
219 234 255
219 234 255
219 234 255
219 234 255
219 234 255
219 234 255
219 234 255
219 234 255
219 234 255
219 234 255
219 234 255
219 234 255
219 234 255
219 234 255
219 234 255
219 234 255
219 234 255
219 234 255
219 234 255
219 234 255
219 234 255
219 234 255
219 234 255
219 234 255
219 234 255
219 234 255
219 234 255
219 234 255
219 234 255
219 234 255
219 234 255
219 234 255
219 234 255
219 234 255
219 234 255
219 234 255
219 234 255
135 144 161
0 0 42
0 0 41
0 0 42
0 0 42
0 0 42
0 0 42
0 0 42
0 0 42
0 0 42
0 0 42
0 0 42
0 0 42
0 0 42
0 0 42
0 0 42
0 0 42
0 0 42
0 0 42
0 0 42
0 0 42
0 0 42
0 0 42
0 0 42
0 0 42
0 0 42
0 0 42
0 0 42
0 0 42
0 0 42
0 0 42
0 0 42
0 0 42
0 0 42
0 0 42
0 0 42
0 0 42
0 0 42
0 0 42
0 0 42
0 0 42
0 0 42
0 0 42
0 0 42
0 0 42
0 0 42
0 0 42
0 0 42
0 0 42
0 0 42
0 0 42
0 0 42
0 0 42
0 0 42
0 0 42
0 0 42
0 0 42
0 0 42
0 0 42
0 0 42
0 0 42
0 0 42
0 0 40
0 0 35
0 0 42
0 0 45
7 13 28
46 63 41
40 60 12
43 61 20
52 69 22
50 67 19
66 78 37
80 85 48
102 97 66
104 100 69
97 97 68
63 67 36
51 61 26
38 51 10
52 70 13
51 76 8
48 72 32
12 19 35
0 0 51
0 0 41
0 0 36
0 0 41
0 0 43
0 0 39
0 0 44
0 0 41
0 0 34
0 0 32
0 0 39
0 0 49
0 0 45
0 6 38
27 40 33
30 47 23
35 55 27
47 69 40
45 67 42
38 59 37
30 44 40
0 0 40
0 0 46
0 0 37
2 4 35
4 6 32
0 0 35
5 13 29
17 44 41
2 42 40
40 70 83
24 40 58
0 2 38
1 3 33
12 22 27
28 51 41
28 56 28
45 77 23
40 71 5
47 69 30
25 35 35
12 20 30
0 0 28
0 0 41
0 0 42
0 0 33
2 3 36
4 13 45
0 15 43
93 126 140
96 126 137
0 7 31
0 0 48
0 0 49
0 0 43
0 0 37
0 0 42
0 0 49
0 0 39
0 0 38
0 0 40
0 0 40
0 0 38
0 0 38
0 0 40
0 0 42
0 0 42
0 0 42
0 0 42
0 0 42
0 0 42
0 0 42
0 0 42
0 0 42
0 0 42
0 0 42
0 0 42
0 0 42
0 0 42
0 0 42
0 0 42
0 0 42
0 0 42
0 0 42
0 0 42
0 0 42
0 0 42
0 0 42
0 0 42
0 0 42
0 0 42
0 0 42
0 0 42
0 0 42
0 0 42
0 0 42
0 0 42
0 0 42
0 0 42
0 0 42
0 0 42
0 0 42
0 0 42
0 0 42
0 0 42
0 0 42
0 0 42
0 0 42
0 0 42
0 0 42
0 0 42
186 198 206
219 234 255
219 234 255
219 234 255
219 234 255
219 234 255
219 234 255
219 234 255
219 234 255
219 234 255
219 234 255
219 234 255
219 234 255
219 234 255
219 234 255
219 234 255
219 234 255
219 234 255
219 234 255
219 234 255
219 234 255
219 234 255
219 234 255
219 234 255
219 234 255
219 234 255
219 234 255
219 234 255
219 234 255
219 234 255
219 234 255
219 234 255
219 234 255
219 234 255
219 234 255
219 234 255
219 234 255
219 234 255
219 234 255
219 234 255
219 234 255
219 234 255
219 234 255
219 234 255
219 234 255
219 234 255
219 234 255
219 234 255
219 234 255
219 234 255
219 234 255
219 234 255
219 234 255
219 234 255
219 234 255
219 234 255
219 234 255
219 234 255
219 234 255
219 234 255
219 234 255
219 234 255
219 234 255
219 234 255
219 234 255
219 234 255
219 234 255
219 234 255
219 234 255
219 234 255
219 234 255
219 234 255
219 234 255
219 234 255
219 234 255
219 234 255
219 234 255
219 234 255
219 234 255
219 234 255
219 234 255
219 234 255
219 234 255
219 234 255
219 234 255
219 234 255
219 234 255
219 234 255
219 234 255
219 234 255
219 234 255
219 234 255
219 234 255
219 234 255
219 234 255
219 234 255
219 234 255
219 234 255
219 234 255
219 234 255
219 234 255
219 234 255
219 234 255
219 234 255
219 234 255
219 234 255
219 234 255
219 234 255
219 234 255
219 234 255
219 234 255
219 234 255
219 234 255
219 234 255
219 234 255
219 234 255
219 234 255
219 234 255
219 234 255
219 234 255
219 234 255
219 234 255
219 234 255
219 234 255
219 234 255
219 234 255
219 234 255
219 234 255
219 234 255
219 234 255
219 234 255
219 234 255
219 234 255
219 234 255
219 234 255
219 234 255
219 234 255
219 234 255
219 234 255
219 234 255
219 234 255
219 234 255
219 234 255
219 234 255
219 234 255
219 234 255
219 234 255
219 234 255
219 234 255
219 234 255
219 234 255
219 234 255
219 234 255
219 234 255
219 234 255
219 234 255
219 234 255
219 234 255
219 234 255
219 234 255
219 234 255
219 234 255
219 234 255
219 234 255
219 234 255
219 234 255
219 234 255
219 234 255
219 234 255
219 234 255
219 234 255
219 234 255
219 234 255
219 234 255
219 234 255
219 234 255
219 234 255
219 234 255
219 234 255
219 234 255
219 234 255
219 234 255
219 234 255
219 234 255
219 234 255
219 234 255
219 234 255
219 234 255
219 234 255
219 234 255
219 234 255
219 234 255
219 234 255
219 234 255
219 234 255
219 234 255
219 234 255
219 234 255
219 234 255
219 234 255
219 234 255
219 234 255
219 234 255
219 234 255
205 220 240
65 70 86
0 0 42
0 0 42
0 0 42
0 0 42
0 0 42
0 0 42
0 0 42
0 0 42
0 0 42
0 0 42
0 0 42
0 0 42
0 0 42
0 0 42
0 0 42
0 0 42
0 0 42
0 0 42
0 0 42
0 0 42
0 0 42
0 0 42
0 0 42
0 0 42
0 0 42
0 0 42
0 0 42
0 0 42
0 0 42
0 0 42
0 0 42
0 0 42
0 0 42
0 0 42
0 0 42
0 0 42
0 0 42
0 0 42
0 0 42
0 0 42
0 0 42
0 0 42
0 0 42
0 0 42
0 0 42
0 0 42
0 0 42
0 0 42
0 0 42
0 0 42
0 0 42
0 0 42
0 0 42
0 0 42
0 0 42
0 0 42
0 0 42
0 0 42
0 0 42
0 0 42
0 0 41
0 0 39
0 0 43
0 0 40
0 0 40
6 10 32
33 47 29
42 63 6
40 61 13
45 65 19
43 62 10
54 70 21
64 76 31
67 72 31
81 86 49
89 95 60
75 81 46
65 72 40
40 50 14
41 60 2
43 69 4
55 82 28
15 22 24
0 0 48
0 0 41
0 0 31
0 0 36
0 0 42
0 0 39
0 0 42
0 0 44
0 0 39
0 0 34
0 0 40
0 0 44
5 15 32
32 53 32
48 74 31
45 74 18
38 69 11
39 69 11
36 65 6
36 62 23
27 44 28
0 6 29
0 1 43
9 0 46
0 0 44
0 0 47
0 0 38
0 0 34
0 2 37
0 9 34
0 2 35
0 0 42
0 0 41
0 0 35
0 0 34
8 16 47
19 34 59
31 51 41
49 75 37
55 81 26
62 88 37
59 87 38
43 65 49
0 7 35
0 0 43
0 0 37
27 29 44
54 60 77
9 12 29
17 23 45
40 52 77
7 13 38
2 5 39
0 0 42
0 0 33
0 0 33
0 0 42
0 0 46
0 0 44
0 0 45
0 0 44
0 0 43
0 0 41
0 0 40
0 0 39
0 0 40
0 0 42
0 0 42
0 0 42
0 0 42
0 0 42
0 0 42
0 0 42
0 0 42
0 0 42
0 0 42
0 0 42
0 0 42
0 0 42
0 0 42
0 0 42
0 0 42
0 0 42
0 0 42
0 0 42
0 0 42
0 0 42
0 0 42
0 0 42
0 0 42
0 0 42
0 0 42
0 0 42
0 0 42
0 0 42
0 0 42
0 0 42
0 0 42
0 0 42
0 0 42
0 0 42
0 0 42
0 0 42
0 0 42
0 0 42
0 0 42
0 0 42
0 0 42
0 0 42
0 0 42
0 0 42
139 142 130
218 233 252
219 234 255
219 234 255
219 234 255
219 234 255
219 234 255
219 234 255
219 234 255
219 234 255
219 234 255
219 234 255
219 234 255
219 234 255
219 234 255
219 234 255
219 234 255
219 234 255
219 234 255
219 234 255
219 234 255
219 234 255
219 234 255
219 234 255
219 234 255
219 234 255
219 234 255
219 234 255
219 234 255
219 234 255
219 234 255
219 234 255
219 234 255
219 234 255
219 234 255
219 234 255
219 234 255
219 234 255
219 234 255
219 234 255
219 234 255
219 234 255
219 234 255
219 234 255
219 234 255
219 234 255
219 234 255
219 234 255
219 234 255
219 234 255
219 234 255
219 234 255
219 234 255
219 234 255
219 234 255
219 234 255
219 234 255
219 234 255
219 234 255
219 234 255
219 234 255
219 234 255
219 234 255
219 234 255
219 234 255
219 234 255
219 234 255
219 234 255
219 234 255
219 234 255
219 234 255
219 234 255
219 234 255
219 234 255
219 234 255
219 234 255
219 234 255
219 234 255
219 234 255
219 234 255
219 234 255
219 234 255
219 234 255
219 234 255
219 234 255
219 234 255
219 234 255
219 234 255
219 234 255
219 234 255
219 234 255
219 234 255
219 234 255
219 234 255
219 234 255
219 234 255
219 234 255
219 234 255
219 234 255
219 234 255
219 234 255
219 234 255
219 234 255
219 234 255
219 234 255
219 234 255
219 234 255
219 234 255
219 234 255
219 234 255
219 234 255
219 234 255
219 234 255
219 234 255
219 234 255
219 234 255
219 234 255
219 234 255
219 234 255
219 234 255
219 234 255
219 234 255
219 234 255
219 234 255
219 234 255
219 234 255
219 234 255
219 234 255
219 234 255
219 234 255
219 234 255
219 234 255
219 234 255
219 234 255
219 234 255
219 234 255
219 234 255
219 234 255
219 234 255
219 234 255
219 234 255
219 234 255
219 234 255
219 234 255
219 234 255
219 234 255
219 234 255
219 234 255
219 234 255
219 234 255
219 234 255
219 234 255
219 234 255
219 234 255
219 234 255
219 234 255
219 234 255
219 234 255
219 234 255
219 234 255
219 234 255
219 234 255
219 234 255
219 234 255
219 234 255
219 234 255
219 234 255
219 234 255
219 234 255
219 234 255
219 234 255
219 234 255
219 234 255
219 234 255
219 234 255
219 234 255
219 234 255
219 234 255
219 234 255
219 234 255
219 234 255
219 234 255
219 234 255
219 234 255
219 234 255
219 234 255
219 234 255
219 234 255
219 234 255
219 234 255
219 234 255
219 234 255
219 234 255
219 234 255
219 234 255
219 234 255
219 234 255
219 234 255
219 234 255
219 234 255
219 234 255
219 234 255
219 234 255
219 234 255
156 167 185
0 0 42
0 0 42
0 0 41
0 0 42
0 0 42
0 0 42
0 0 42
0 0 42
0 0 42
0 0 42
0 0 42
0 0 42
0 0 42
0 0 42
0 0 42
0 0 42
0 0 42
0 0 42
0 0 42
0 0 42
0 0 42
0 0 42
0 0 42
0 0 42
0 0 42
0 0 42
0 0 42
0 0 42
0 0 42
0 0 42
0 0 42
0 0 42
0 0 42
0 0 42
0 0 42
0 0 42
0 0 42
0 0 42
0 0 42
0 0 42
0 0 42
0 0 42
0 0 42
0 0 42
0 0 42
0 0 42
0 0 42
0 0 42
0 0 42
0 0 42
0 0 42
0 0 42
0 0 42
0 0 42
0 0 42
0 0 42
0 0 42
0 0 42
0 0 42
0 0 42
0 0 42
0 0 40
0 0 40
0 0 52
0 0 46
0 0 41
16 26 23
32 50 19
39 61 17
43 66 17
55 78 29
50 72 22
44 65 10
49 69 16
52 68 19
56 68 23
60 71 29
79 88 49
84 92 57
73 84 48
49 66 27
36 56 12
56 80 30
38 54 31
4 9 39
0 0 39
0 0 28
0 0 39
0 0 45
0 0 40
0 0 40
0 0 47
0 0 42
0 0 35
0 0 41
0 12 42
18 43 37
39 70 21
33 59 0
33 60 0
32 60 0
33 61 4
29 55 19
23 43 27
13 25 33
0 5 35
0 2 42
0 0 45
0 0 49
0 0 47
0 0 42
0 0 41
0 0 42
0 0 42
0 0 39
0 0 44
0 0 52
0 0 47
0 0 37
0 0 42
3 7 43
11 21 45
18 36 48
20 41 23
40 72 22
57 88 32
54 78 35
32 49 15
30 40 25
13 15 38
9 11 45
25 27 44
0 0 23
0 0 46
0 0 40
0 8 41
7 8 45
0 0 37
0 0 45
0 0 43
0 0 43
0 0 50
0 0 50
0 0 48
0 0 45
0 0 44
0 0 42
0 0 42
0 0 40
0 0 39
0 0 40
0 0 42
0 0 42
0 0 42
0 0 42
0 0 42
0 0 42
0 0 42
0 0 42
0 0 42
0 0 42
0 0 42
0 0 42
0 0 42
0 0 42
0 0 42
0 0 42
0 0 42
0 0 42
0 0 42
0 0 42
0 0 42
0 0 42
0 0 42
0 0 42
0 0 42
0 0 42
0 0 42
0 0 42
0 0 42
0 0 42
0 0 42
0 0 42
0 0 42
0 0 42
0 0 42
0 0 42
0 0 42
0 0 42
0 0 42
0 0 42
0 0 42
0 0 42
0 0 42
0 0 42
41 43 53
211 221 222
219 234 255
219 234 255
219 234 255
219 234 255
219 234 255
219 234 255
219 234 255
219 234 255
219 234 255
219 234 255
219 234 255
219 234 255
219 234 255
219 234 255
219 234 255
219 234 255
219 234 255
219 234 255
219 234 255
219 234 255
219 234 255
219 234 255
219 234 255
219 234 255
219 234 255
219 234 255
219 234 255
219 234 255
219 234 255
219 234 255
219 234 255
219 234 255
219 234 255
219 234 255
219 234 255
219 234 255
219 234 255
219 234 255
219 234 255
219 234 255
219 234 255
219 234 255
219 234 255
219 234 255
219 234 255
219 234 255
219 234 255
219 234 255
219 234 255
219 234 255
219 234 255
219 234 255
219 234 255
219 234 255
219 234 255
219 234 255
219 234 255
219 234 255
219 234 255
219 234 255
219 234 255
219 234 255
219 234 255
219 234 255
219 234 255
219 234 255
219 234 255
219 234 255
219 234 255
219 234 255
219 234 255
219 234 255
219 234 255
219 234 255
219 234 255
219 234 255
219 234 255
219 234 255
219 234 255
219 234 255
219 234 255
219 234 255
219 234 255
219 234 255
219 234 255
219 234 255
219 234 255
219 234 255
219 234 255
219 234 255
219 234 255
219 234 255
219 234 255
219 234 255
219 234 255
219 234 255
219 234 255
219 234 255
219 234 255
219 234 255
219 234 255
219 234 255
219 234 255
219 234 255
219 234 255
219 234 255
219 234 255
219 234 255
219 234 255
219 234 255
219 234 255
219 234 255
219 234 255
219 234 255
219 234 255
219 234 255
219 234 255
219 234 255
219 234 255
219 234 255
219 234 255
219 234 255
219 234 255
219 234 255
219 234 255
219 234 255
219 234 255
219 234 255
219 234 255
219 234 255
219 234 255
219 234 255
219 234 255
219 234 255
219 234 255
219 234 255
219 234 255
219 234 255
219 234 255
219 234 255
219 234 255
219 234 255
219 234 255
219 234 255
219 234 255
219 234 255
219 234 255
219 234 255
219 234 255
219 234 255
219 234 255
219 234 255
219 234 255
219 234 255
219 234 255
219 234 255
219 234 255
219 234 255
219 234 255
219 234 255
219 234 255
219 234 255
219 234 255
219 234 255
219 234 255
219 234 255
219 234 255
219 234 255
219 234 255
219 234 255
219 234 255
219 234 255
219 234 255
219 234 255
219 234 255
219 234 255
219 234 255
219 234 255
219 234 255
219 234 255
219 234 255
219 234 255
219 234 255
219 234 255
219 234 255
219 234 255
219 234 255
219 234 255
219 234 255
219 234 255
219 234 255
219 234 255
219 234 255
219 234 255
219 234 255
219 234 255
219 234 255
219 234 255
219 234 255
219 234 255
219 234 255
214 229 250
75 81 96
6 6 41
0 0 41
0 0 41
0 0 41
0 0 42
0 0 42
0 0 42
0 0 42
0 0 42
0 0 42
0 0 42
0 0 42
0 0 42
0 0 42
0 0 42
0 0 42
0 0 42
0 0 42
0 0 42
0 0 42
0 0 42
0 0 42
0 0 42
0 0 42
0 0 42
0 0 42
0 0 42
0 0 42
0 0 42
0 0 42
0 0 42
0 0 42
0 0 42
0 0 42
0 0 42
0 0 42
0 0 42
0 0 42
0 0 42
0 0 42
0 0 42
0 0 42
0 0 42
0 0 42
0 0 42
0 0 42
0 0 42
0 0 42
0 0 42
0 0 42
0 0 42
0 0 42
0 0 42
0 0 42
0 0 40
0 0 42
0 0 42
0 0 42
0 0 42
0 0 42
0 0 42
0 0 41
0 0 44
0 0 47
0 0 38
0 0 40
32 45 37
48 67 37
42 65 16
45 69 15
46 70 15
48 71 23
43 66 13
42 65 5
44 64 10
49 68 19
52 67 20
58 68 26
63 69 33
77 88 56
73 88 56
55 68 35
44 59 11
53 72 32
26 37 37
0 4 32
0 0 36
0 0 45
0 0 52
0 0 43
0 0 43
0 0 46
0 0 42
0 0 36
0 0 42
0 13 44
24 53 53
34 67 15
29 54 0
34 59 0
35 62 0
30 56 11
36 58 44
23 34 39
0 0 31
0 0 43
0 0 46
0 0 43
0 0 41
0 0 43
0 0 47
0 0 45
0 0 34
5 0 37
4 0 46
0 0 43
0 0 40
0 0 43
0 0 42
0 0 36
0 0 39
0 0 45
9 18 43
39 59 59
42 66 46
32 48 23
53 60 47
55 63 47
58 67 54
36 38 56
5 6 34
14 18 33
39 50 54
10 16 39
6 8 35
16 22 35
18 23 36
0 0 40
0 0 49
0 0 50
0 0 49
0 0 46
0 0 39
0 0 35
0 0 35
0 0 35
0 0 39
0 0 42
0 0 42
0 0 40
0 0 40
0 0 42
0 0 42
0 0 42
0 0 42
0 0 42
0 0 42
0 0 42
0 0 42
0 0 42
0 0 42
0 0 42
0 0 42
0 0 42
0 0 42
0 0 42
0 0 42
0 0 42
0 0 42
0 0 42
0 0 42
0 0 42
0 0 42
0 0 42
0 0 42
0 0 42
0 0 42
0 0 42
0 0 42
0 0 42
0 0 42
0 0 42
0 0 42
0 0 42
0 0 42
0 0 42
0 0 42
0 0 42
0 0 42
0 0 42
0 0 42
0 0 42
0 0 42
0 0 42
0 0 42
0 0 41
165 163 146
218 233 254
219 234 255
219 234 255
219 234 255
219 234 255
219 234 255
219 234 255
219 234 255
219 234 255
219 234 255
219 234 255
219 234 255
219 234 255
219 234 255
219 234 255
219 234 255
219 234 255
219 234 255
219 234 255
219 234 255
219 234 255
219 234 255
219 234 255
219 234 255
219 234 255
219 234 255
219 234 255
219 234 255
219 234 255
219 234 255
219 234 255
219 234 255
219 234 255
219 234 255
219 234 255
219 234 255
219 234 255
219 234 255
219 234 255
219 234 255
219 234 255
219 234 255
219 234 255
219 234 255
219 234 255
219 234 255
219 234 255
219 234 255
219 234 255
219 234 255
219 234 255
219 234 255
219 234 255
219 234 255
219 234 255
219 234 255
219 234 255
219 234 255
219 234 255
219 234 255
219 234 255
219 234 255
219 234 255
219 234 255
219 234 255
219 234 255
219 234 255
219 234 255
219 234 255
219 234 255
219 234 255
219 234 255
219 234 255
219 234 255
219 234 255
219 234 255
219 234 255
219 234 255
219 234 255
219 234 255
219 234 255
219 234 255
219 234 255
219 234 255
219 234 255
219 234 255
219 234 255
219 234 255
219 234 255
219 234 255
219 234 255
219 234 255
219 234 255
219 234 255
219 234 255
219 234 255
219 234 255
219 234 255
219 234 255
219 234 255
219 234 255
219 234 255
219 234 255
219 234 255
219 234 255
219 234 255
219 234 255
219 234 255
219 234 255
219 234 255
219 234 255
219 234 255
219 234 255
219 234 255
219 234 255
219 234 255
219 234 255
219 234 255
219 234 255
219 234 255
219 234 255
219 234 255
219 234 255
219 234 255
219 234 255
219 234 255
219 234 255
219 234 255
219 234 255
219 234 255
219 234 255
219 234 255
219 234 255
219 234 255
219 234 255
219 234 255
219 234 255
219 234 255
219 234 255
219 234 255
219 234 255
219 234 255
219 234 255
219 234 255
219 234 255
219 234 255
219 234 255
219 234 255
219 234 255
219 234 255
219 234 255
219 234 255
219 234 255
219 234 255
219 234 255
219 234 255
219 234 255
219 234 255
219 234 255
219 234 255
219 234 255
219 234 255
219 234 255
219 234 255
219 234 255
219 234 255
219 234 255
219 234 255
219 234 255
219 234 255
219 234 255
219 234 255
219 234 255
219 234 255
219 234 255
219 234 255
219 234 255
219 234 255
219 234 255
219 234 255
219 234 255
219 234 255
219 234 255
219 234 255
219 234 255
219 234 255
219 234 255
219 234 255
219 234 255
219 234 255
219 234 255
219 234 255
219 234 255
219 234 255
219 234 255
219 234 255
219 234 255
219 234 255
219 234 255
219 234 255
219 234 255
174 186 204
0 0 41
23 24 52
3 3 40
0 0 43
0 0 41
0 0 42
0 0 42
0 0 42
0 0 42
0 0 42
0 0 42
0 0 42
0 0 42
0 0 42
0 0 42
0 0 42
0 0 42
0 0 42
0 0 42
0 0 42
0 0 42
0 0 42
0 0 42
0 0 42
0 0 42
0 0 42
0 0 42
0 0 42
0 0 42
0 0 42
0 0 42
0 0 42
0 0 42
0 0 42
0 0 42
0 0 42
0 0 42
0 0 42
0 0 42
0 0 42
0 0 42
0 0 42
0 0 42
0 0 42
0 0 42
0 0 42
0 0 42
0 0 42
0 0 42
0 0 42
0 0 42
0 0 42
0 0 42
0 0 42
0 0 40
0 0 42
0 0 41
0 0 41
0 0 41
0 0 42
0 0 42
0 0 42
0 0 44
0 0 46
0 0 38
0 0 30
1 1 40
17 22 33
48 66 41
45 67 28
41 63 13
41 63 10
37 59 10
35 58 9
34 57 6
40 63 8
33 54 9
37 54 7
49 63 18
52 61 28
84 98 62
57 69 30
60 72 26
85 101 59
45 59 19
47 63 31
12 19 25
0 0 39
0 0 50
0 0 51
0 0 49
0 0 45
0 0 49
0 0 45
0 3 36
0 8 40
13 29 41
31 63 44
33 69 11
30 57 0
32 57 0
29 58 0
32 61 1
46 70 51
35 48 53
0 0 41
0 0 42
0 0 48
0 0 46
0 0 40
0 0 37
0 0 39
0 0 41
0 0 40
2 0 42
1 0 38
0 6 41
6 14 41
0 0 37
0 0 42
0 0 39
0 0 33
0 0 37
3 5 41
8 15 40
0 4 34
0 0 32
0 0 29
7 8 30
4 7 24
0 0 27
0 0 41
22 28 44
61 75 80
55 67 62
46 59 44
63 80 66
59 75 53
39 53 23
21 30 23
0 0 36
0 0 45
0 0 40
0 0 33
0 0 39
0 0 35
0 0 33
0 0 35
0 0 43
0 0 46
0 0 43
0 0 40
0 0 42
0 0 41
0 0 41
0 0 42
0 0 42
0 0 42
0 0 42
0 0 42
0 0 42
0 0 42
0 0 42
0 0 42
0 0 42
0 0 42
0 0 42
0 0 42
0 0 42
0 0 42
0 0 42
0 0 42
0 0 42
0 0 42
0 0 42
0 0 42
0 0 42
0 0 42
0 0 42
0 0 42
0 0 42
0 0 42
0 0 42
0 0 42
0 0 42
0 0 42
0 0 42
0 0 42
0 0 42
0 0 42
0 0 42
0 0 42
0 0 42
0 0 42
0 0 42
0 0 42
0 0 42
122 121 113
213 218 225
219 234 255
219 234 255
219 234 255
219 234 255
219 234 255
219 234 255
219 234 255
219 234 255
219 234 255
219 234 255
219 234 255
219 234 255
219 234 255
219 234 255
219 234 255
219 234 255
219 234 255
219 234 255
219 234 255
219 234 255
219 234 255
219 234 255
219 234 255
219 234 255
219 234 255
219 234 255
219 234 255
219 234 255
219 234 255
219 234 255
219 234 255
219 234 255
219 234 255
219 234 255
219 234 255
219 234 255
219 234 255
219 234 255
219 234 255
219 234 255
219 234 255
219 234 255
219 234 255
219 234 255
219 234 255
219 234 255
219 234 255
219 234 255
219 234 255
219 234 255
219 234 255
219 234 255
219 234 255
219 234 255
219 234 255
219 234 255
219 234 255
219 234 255
219 234 255
219 234 255
219 234 255
219 234 255
219 234 255
219 234 255
219 234 255
219 234 255
219 234 255
219 234 255
219 234 255
219 234 255
219 234 255
219 234 255
219 234 255
219 234 255
219 234 255
219 234 255
219 234 255
219 234 255
219 234 255
219 234 255
219 234 255
219 234 255
219 234 255
219 234 255
219 234 255
219 234 255
219 234 255
219 234 255
219 234 255
219 234 255
219 234 255
219 234 255
219 234 255
219 234 255
219 234 255
219 234 255
219 234 255
219 234 255
219 234 255
219 234 255
219 234 255
219 234 255
219 234 255
219 234 255
219 234 255
219 234 255
219 234 255
219 234 255
219 234 255
219 234 255
219 234 255
219 234 255
219 234 255
219 234 255
219 234 255
219 234 255
219 234 255
219 234 255
219 234 255
219 234 255
219 234 255
219 234 255
219 234 255
219 234 255
219 234 255
219 234 255
219 234 255
219 234 255
219 234 255
219 234 255
219 234 255
219 234 255
219 234 255
219 234 255
219 234 255
219 234 255
219 234 255
219 234 255
219 234 255
219 234 255
219 234 255
219 234 255
219 234 255
219 234 255
219 234 255
219 234 255
219 234 255
219 234 255
219 234 255
219 234 255
219 234 255
219 234 255
219 234 255
219 234 255
219 234 255
219 234 255
219 234 255
219 234 255
219 234 255
219 234 255
219 234 255
219 234 255
219 234 255
219 234 255
219 234 255
219 234 255
219 234 255
219 234 255
219 234 255
219 234 255
219 234 255
219 234 255
219 234 255
219 234 255
219 234 255
219 234 255
219 234 255
219 234 255
219 234 255
219 234 255
219 234 255
219 234 255
219 234 255
219 234 255
219 234 255
219 234 255
219 234 255
219 234 255
219 234 255
219 234 255
219 234 255
219 234 255
219 234 255
219 234 255
219 234 255
219 234 255
219 234 255
219 234 255
219 234 255
219 234 255
127 136 153
0 0 42
21 23 52
4 5 43
0 0 40
0 0 42
0 0 42
0 0 42
0 0 42
0 0 42
0 0 42
0 0 42
0 0 42
0 0 42
0 0 42
0 0 42
0 0 42
0 0 42
0 0 42
0 0 42
0 0 42
0 0 42
0 0 42
0 0 42
0 0 42
0 0 42
0 0 42
0 0 42
0 0 42
0 0 42
0 0 42
0 0 42
0 0 42
0 0 42
0 0 42
0 0 42
0 0 42
0 0 42
0 0 42
0 0 42
0 0 42
0 0 42
0 0 42
0 0 42
0 0 42
0 0 42
0 0 42
0 0 42
0 0 42
0 0 42
0 0 42
0 0 42
0 0 42
0 0 42
0 0 42
0 0 41
0 0 39
0 0 42
0 0 41
0 0 41
0 0 42
0 0 42
0 0 42
0 0 42
0 0 40
0 0 36
0 0 35
3 3 42
5 6 43
18 26 23
39 52 40
48 69 35
42 63 19
49 71 23
48 71 23
41 65 13
37 61 10
34 57 6
42 63 7
35 53 6
35 51 12
45 59 19
50 61 17
67 79 27
73 86 42
30 42 0
51 75 25
34 55 34
13 23 22
10 16 28
0 3 27
0 3 33
0 0 37
0 4 34
12 20 29
21 31 39
34 53 50
32 58 42
34 67 22
32 69 0
30 59 0
31 61 6
28 61 0
36 70 8
37 66 28
17 29 33
0 0 34
0 0 34
8 0 39
0 0 36
0 0 38
0 0 44
0 0 39
0 0 39
0 0 47
0 0 46
0 0 37
0 5 39
4 8 41
0 0 40
0 0 49
0 0 54
0 0 47
0 0 39
0 0 45
0 0 60
0 0 57
0 0 39
0 0 33
0 0 37
0 0 45
0 0 36
0 0 42
4 6 40
18 22 33
60 72 53
58 75 27
44 62 13
47 65 14
54 75 15
46 69 15
23 42 11
10 20 19
0 0 28
0 0 44
0 0 52
0 0 48
0 0 41
0 0 43
0 0 48
0 0 49
0 0 42
0 0 37
0 0 40
0 0 42
0 0 42
0 0 42
0 0 42
0 0 42
0 0 42
0 0 42
0 0 42
0 0 42
0 0 42
0 0 42
0 0 42
0 0 42
0 0 42
0 0 42
0 0 42
0 0 42
0 0 42
0 0 42
0 0 42
0 0 42
0 0 42
0 0 42
0 0 42
0 0 42
0 0 42
0 0 42
0 0 42
0 0 42
0 0 42
0 0 42
0 0 42
0 0 42
0 0 42
0 0 42
0 0 42
0 0 42
0 0 42
0 0 42
0 0 42
0 0 42
0 0 42
0 0 42
0 0 42
28 33 52
201 204 189
219 234 255
219 234 255
219 234 255
219 234 255
219 234 255
219 234 255
219 234 255
219 234 255
219 234 255
219 234 255
219 234 255
219 234 255
219 234 255
219 234 255
219 234 255
219 234 255
219 234 255
219 234 255
219 234 255
219 234 255
219 234 255
219 234 255
219 234 255
219 234 255
219 234 255
219 234 255
219 234 255
219 234 255
219 234 255
219 234 255
219 234 255
219 234 255
219 234 255
219 234 255
219 234 255
219 234 255
219 234 255
219 234 255
219 234 255
219 234 255
219 234 255
219 234 255
219 234 255
219 234 255
219 234 255
219 234 255
219 234 255
219 234 255
219 234 255
219 234 255
219 234 255
219 234 255
219 234 255
219 234 255
219 234 255
219 234 255
219 234 255
219 234 255
219 234 255
219 234 255
219 234 255
219 234 255
219 234 255
219 234 255
219 234 255
219 234 255
219 234 255
219 234 255
219 234 255
219 234 255
219 234 255
219 234 255
219 234 255
219 234 255
219 234 255
219 234 255
219 234 255
219 234 255
219 234 255
219 234 255
219 234 255
219 234 255
219 234 255
219 234 255
219 234 255
219 234 255
219 234 255
219 234 255
219 234 255
219 234 255
219 234 255
219 234 255
219 234 255
219 234 255
219 234 255
219 234 255
219 234 255
219 234 255
219 234 255
219 234 255
219 234 255
219 234 255
219 234 255
219 234 255
219 234 255
219 234 255
219 234 255
219 234 255
219 234 255
219 234 255
219 234 255
219 234 255
219 234 255
219 234 255
219 234 255
219 234 255
219 234 255
219 234 255
219 234 255
219 234 255
219 234 255
219 234 255
219 234 255
219 234 255
219 234 255
219 234 255
219 234 255
219 234 255
219 234 255
219 234 255
219 234 255
219 234 255
219 234 255
219 234 255
219 234 255
219 234 255
219 234 255
219 234 255
219 234 255
219 234 255
219 234 255
219 234 255
219 234 255
219 234 255
219 234 255
219 234 255
219 234 255
219 234 255
219 234 255
219 234 255
219 234 255
219 234 255
219 234 255
219 234 255
219 234 255
219 234 255
219 234 255
219 234 255
219 234 255
219 234 255
219 234 255
219 234 255
219 234 255
219 234 255
219 234 255
219 234 255
219 234 255
219 234 255
219 234 255
219 234 255
219 234 255
219 234 255
219 234 255
219 234 255
219 234 255
219 234 255
219 234 255
219 234 255
219 234 255
219 234 255
219 234 255
219 234 255
219 234 255
219 234 255
219 234 255
219 234 255
219 234 255
219 234 255
219 234 255
219 234 255
219 234 255
219 234 255
219 234 255
219 234 255
219 234 255
219 234 255
219 234 255
219 234 255
219 234 255
195 208 228
0 0 42
0 0 41
23 26 50
2 2 37
0 0 42
0 0 42
0 0 42
0 0 42
0 0 42
0 0 42
0 0 42
0 0 42
0 0 42
0 0 42
0 0 42
0 0 42
0 0 42
0 0 42
0 0 42
0 0 42
0 0 42
0 0 42
0 0 42
0 0 42
0 0 42
0 0 42
0 0 42
0 0 42
0 0 42
0 0 42
0 0 42
0 0 42
0 0 42
0 0 42
0 0 42
0 0 42
0 0 42
0 0 42
0 0 42
0 0 42
0 0 42
0 0 42
0 0 42
0 0 42
0 0 42
0 0 42
0 0 42
0 0 42
0 0 42
0 0 42
0 0 42
0 0 42
0 0 42
0 0 42
0 0 42
0 0 40
0 0 39
0 0 44
0 0 42
0 0 42
0 0 42
0 0 42
0 0 42
0 0 43
0 0 44
0 0 38
0 0 41
0 0 49
0 0 42
0 0 34
0 0 32
19 25 25
45 63 36
37 56 11
37 57 9
44 65 13
48 72 17
50 75 19
35 59 1
44 68 15
37 60 11
46 64 18
50 62 16
76 88 41
79 93 48
42 57 18
44 71 16
44 76 25
47 75 39
39 61 34
13 25 11
13 20 18
16 25 21
22 45 17
34 59 30
38 63 40
48 82 55
38 71 31
38 68 12
27 62 0
31 63 0
34 68 11
36 74 9
50 88 37
46 75 49
16 27 48
0 0 44
0 0 41
0 0 40
0 0 40
0 0 40
4 0 44
6 0 44
0 0 46
0 0 49
0 0 45
0 0 42
0 0 40
0 0 40
0 0 40
0 0 47
0 0 56
0 0 52
3 5 33
20 28 30
22 33 25
17 27 23
5 10 20
0 0 30
0 0 33
0 0 36
13 18 37
41 53 64
42 53 51
28 38 37
42 57 36
68 89 47
60 78 29
66 82 46
45 60 32
49 69 36
52 78 34
77 100 80
38 46 53
0 0 39
5 9 37
13 19 31
14 20 30
7 10 28
0 0 40
4 8 53
4 4 43
0 0 36
0 0 37
0 0 41
0 0 41
0 0 42
0 0 42
0 0 42
0 0 42
0 0 42
0 0 42
0 0 42
0 0 42
0 0 42
0 0 42
0 0 42
0 0 42
0 0 42
0 0 42
0 0 42
0 0 42
0 0 42
0 0 42
0 0 42
0 0 42
0 0 42
0 0 42
0 0 42
0 0 42
0 0 42
0 0 42
0 0 42
0 0 42
0 0 42
0 0 42
0 0 42
0 0 42
0 0 42
0 0 42
0 0 42
0 0 42
0 0 42
0 0 42
0 0 42
0 0 42
0 0 42
0 0 42
0 0 42
151 156 131
218 231 245
219 234 255
219 234 255
219 234 255
219 234 255
219 234 255
219 234 255
219 234 255
219 234 255
219 234 255
219 234 255
219 234 255
219 234 255
219 234 255
219 234 255
219 234 255
219 234 255
219 234 255
219 234 255
219 234 255
219 234 255
219 234 255
219 234 255
219 234 255
219 234 255
219 234 255
219 234 255
219 234 255
219 234 255
219 234 255
219 234 255
219 234 255
219 234 255
219 234 255
219 234 255
219 234 255
219 234 255
219 234 255
219 234 255
219 234 255
219 234 255
219 234 255
219 234 255
219 234 255
219 234 255
219 234 255
219 234 255
219 234 255
219 234 255
219 234 255
219 234 255
219 234 255
219 234 255
219 234 255
219 234 255
219 234 255
219 234 255
219 234 255
219 234 255
219 234 255
219 234 255
219 234 255
219 234 255
219 234 255
219 234 255
219 234 255
219 234 255
219 234 255
219 234 255
219 234 255
219 234 255
219 234 255
219 234 255
219 234 255
219 234 255
219 234 255
219 234 255
219 234 255
219 234 255
219 234 255
219 234 255
219 234 255
219 234 255
219 234 255
219 234 255
219 234 255
219 234 255
219 234 255
219 234 255
219 234 255
219 234 255
219 234 255
219 234 255
219 234 255
219 234 255
219 234 255
219 234 255
219 234 255
219 234 255
219 234 255
219 234 255
219 234 255
219 234 255
219 234 255
219 234 255
219 234 255
219 234 255
219 234 255
219 234 255
219 234 255
219 234 255
219 234 255
219 234 255
219 234 255
219 234 255
219 234 255
219 234 255
219 234 255
219 234 255
219 234 255
219 234 255
219 234 255
219 234 255
219 234 255
219 234 255
219 234 255
219 234 255
219 234 255
219 234 255
219 234 255
219 234 255
219 234 255
219 234 255
219 234 255
219 234 255
219 234 255
219 234 255
219 234 255
219 234 255
219 234 255
219 234 255
219 234 255
219 234 255
219 234 255
219 234 255
219 234 255
219 234 255
219 234 255
219 234 255
219 234 255
219 234 255
219 234 255
219 234 255
219 234 255
219 234 255
219 234 255
219 234 255
219 234 255
219 234 255
219 234 255
219 234 255
219 234 255
219 234 255
219 234 255
219 234 255
219 234 255
219 234 255
219 234 255
219 234 255
219 234 255
219 234 255
219 234 255
219 234 255
219 234 255
219 234 255
219 234 255
219 234 255
219 234 255
219 234 255
219 234 255
219 234 255
219 234 255
219 234 255
219 234 255
219 234 255
219 234 255
219 234 255
219 234 255
219 234 255
219 234 255
219 234 255
219 234 255
219 234 255
219 234 255
219 234 255
219 234 255
219 234 255
219 234 255
219 234 255
156 167 185
0 0 42
3 3 42
27 32 45
0 0 37
0 0 42
0 0 42
0 0 42
0 0 42
0 0 42
0 0 42
0 0 42
0 0 42
0 0 42
0 0 42
0 0 42
0 0 42
0 0 42
0 0 42
0 0 42
0 0 42
0 0 42
0 0 42
0 0 42
0 0 42
0 0 42
0 0 42
0 0 42
0 0 42
0 0 42
0 0 42
0 0 42
0 0 42
0 0 42
0 0 42
0 0 42
0 0 42
0 0 42
0 0 42
0 0 42
0 0 42
0 0 42
0 0 42
0 0 42
0 0 42
0 0 42
0 0 42
0 0 42
0 0 42
0 0 42
0 0 42
0 0 42
0 0 42
0 0 42
0 0 42
0 0 41
0 0 41
0 0 41
0 0 40
0 0 41
0 0 42
0 0 42
0 0 42
0 0 42
0 0 47
0 0 47
0 0 35
0 0 42
0 0 53
0 0 46
0 0 34
0 0 39
0 0 43
12 20 27
23 35 26
43 58 37
41 58 25
43 61 22
38 58 4
43 66 12
38 60 0
50 73 22
44 62 13
52 67 20
72 86 41
75 91 46
54 69 27
30 53 6
40 69 6
50 80 26
51 81 29
46 75 19
47 73 21
47 71 28
51 84 31
43 74 14
38 70 10
39 74 0
41 76 0
38 67 0
29 59 9
31 64 0
31 67 0
36 75 9
60 95 65
37 58 52
0 0 36
0 0 49
0 0 42
0 0 46
0 0 47
0 0 41
4 0 40
5 0 46
0 0 53
0 0 41
0 0 40
0 0 44
0 0 42
0 0 36
0 0 37
0 0 41
0 0 43
0 0 43
1 3 34
18 28 23
44 61 43
50 70 56
39 54 63
18 21 57
2 2 40
0 6 35
8 12 34
29 37 37
46 60 52
27 38 34
34 47 35
39 51 28
52 66 44
56 66 52
37 44 44
29 40 36
19 32 21
40 52 49
32 39 49
7 8 38
29 39 34
52 70 53
62 80 63
43 56 48
0 8 18
1 12 44
0 0 43
3 4 42
6 8 46
0 0 40
0 0 39
0 0 41
0 0 42
0 0 42
0 0 42
0 0 42
0 0 42
0 0 42
0 0 42
0 0 42
0 0 42
0 0 42
0 0 42
0 0 42
0 0 42
0 0 42
0 0 42
0 0 42
0 0 42
0 0 42
0 0 42
0 0 42
0 0 42
0 0 42
0 0 42
0 0 42
0 0 42
0 0 42
0 0 42
0 0 42
0 0 42
0 0 42
0 0 42
0 0 42
0 0 42
0 0 42
0 0 42
0 0 42
0 0 42
0 0 42
0 0 42
0 0 42
0 0 42
0 0 42
69 76 73
208 215 208
219 234 255
219 234 255
219 234 255
219 234 255
219 234 255
219 234 255
219 234 255
219 234 255
219 234 255
219 234 255
219 234 255
219 234 255
219 234 255
219 234 255
219 234 255
219 234 255
219 234 255
219 234 255
219 234 255
219 234 255
219 234 255
219 234 255
219 234 255
219 234 255
219 234 255
219 234 255
219 234 255
219 234 255
219 234 255
219 234 255
219 234 255
219 234 255
219 234 255
219 234 255
219 234 255
219 234 255
219 234 255
219 234 255
219 234 255
219 234 255
219 234 255
219 234 255
219 234 255
219 234 255
219 234 255
219 234 255
219 234 255
219 234 255
219 234 255
219 234 255
219 234 255
219 234 255
219 234 255
219 234 255
219 234 255
219 234 255
219 234 255
219 234 255
219 234 255
219 234 255
219 234 255
219 234 255
219 234 255
219 234 255
219 234 255
219 234 255
219 234 255
219 234 255
219 234 255
219 234 255
219 234 255
219 234 255
219 234 255
219 234 255
219 234 255
219 234 255
219 234 255
219 234 255
219 234 255
219 234 255
219 234 255
219 234 255
219 234 255
219 234 255
219 234 255
219 234 255
219 234 255
219 234 255
219 234 255
219 234 255
219 234 255
219 234 255
219 234 255
219 234 255
219 234 255
219 234 255
219 234 255
219 234 255
219 234 255
219 234 255
219 234 255
219 234 255
219 234 255
219 234 255
219 234 255
219 234 255
219 234 255
219 234 255
219 234 255
219 234 255
219 234 255
219 234 255
219 234 255
219 234 255
219 234 255
219 234 255
219 234 255
219 234 255
219 234 255
219 234 255
219 234 255
219 234 255
219 234 255
219 234 255
219 234 255
219 234 255
219 234 255
219 234 255
219 234 255
219 234 255
219 234 255
219 234 255
219 234 255
219 234 255
219 234 255
219 234 255
219 234 255
219 234 255
219 234 255
219 234 255
219 234 255
219 234 255
219 234 255
219 234 255
219 234 255
219 234 255
219 234 255
219 234 255
219 234 255
219 234 255
219 234 255
219 234 255
219 234 255
219 234 255
219 234 255
219 234 255
219 234 255
219 234 255
219 234 255
219 234 255
219 234 255
219 234 255
219 234 255
219 234 255
219 234 255
219 234 255
219 234 255
219 234 255
219 234 255
219 234 255
219 234 255
219 234 255
219 234 255
219 234 255
219 234 255
219 234 255
219 234 255
219 234 255
219 234 255
219 234 255
219 234 255
219 234 255
219 234 255
219 234 255
219 234 255
219 234 255
219 234 255
219 234 255
219 234 255
219 234 255
219 234 255
219 234 255
219 234 255
219 234 255
219 234 255
219 234 255
219 234 255
218 233 254
69 74 90
0 0 42
2 0 41
34 40 48
0 0 43
0 0 42
0 0 42
0 0 42
0 0 42
0 0 42
0 0 42
0 0 42
0 0 42
0 0 42
0 0 42
0 0 42
0 0 42
0 0 42
0 0 42
0 0 42
0 0 42
0 0 42
0 0 42
0 0 42
0 0 42
0 0 42
0 0 42
0 0 42
0 0 42
0 0 42
0 0 42
0 0 42
0 0 42
0 0 42
0 0 42
0 0 42
0 0 42
0 0 42
0 0 42
0 0 42
0 0 42
0 0 42
0 0 42
0 0 42
0 0 42
0 0 42
0 0 42
0 0 42
0 0 42
0 0 42
0 0 42
0 0 42
0 0 42
0 0 42
0 0 42
0 0 42
0 0 42
0 0 42
0 0 42
0 0 42
0 0 42
0 0 42
0 0 42
0 0 42
0 0 42
0 0 42
0 0 41
0 0 42
0 0 43
0 0 42
0 0 41
0 0 42
0 0 43
0 0 49
0 0 42
6 9 29
13 20 18
39 53 37
36 52 31
29 45 18
32 49 0
44 63 17
47 66 14
48 66 16
55 70 25
73 89 49
56 69 35
25 39 0
34 54 7
44 69 13
44 74 9
50 83 13
46 79 8
38 67 5
37 66 14
36 65 12
38 68 7
38 69 0
40 72 0
36 65 0
27 56 2
33 62 12
27 61 0
33 69 3
40 69 51
12 23 39
3 8 50
0 0 39
0 0 38
0 0 47
0 0 44
0 0 39
0 0 41
0 0 46
0 0 48
0 0 36
0 0 35
0 0 40
0 0 46
0 0 45
0 0 42
0 0 42
0 0 41
0 0 42
0 0 39
0 0 34
13 18 40
24 31 48
11 15 38
10 11 43
2 2 37
0 0 41
0 0 39
0 0 36
0 0 35
0 0 37
0 0 39
0 0 34
32 37 56
24 28 47
0 0 33
0 0 31
0 0 38
0 0 38
0 0 41
0 0 44
0 3 38
9 16 34
21 28 38
14 17 32
1 4 30
11 11 48
2 2 40
4 5 42
7 10 47
3 3 40
8 9 46
0 0 37
0 0 43
0 0 44
0 0 42
0 0 41
0 0 42
0 0 42
0 0 42
0 0 42
0 0 42
0 0 42
0 0 42
0 0 42
0 0 42
0 0 42
0 0 42
0 0 42
0 0 42
0 0 42
0 0 42
0 0 42
0 0 42
0 0 42
0 0 42
0 0 42
0 0 42
0 0 42
0 0 42
0 0 42
0 0 42
0 0 42
0 0 42
0 0 42
0 0 42
0 0 42
0 0 42
0 0 42
0 0 42
0 0 42
0 0 42
0 0 42
0 0 42
0 0 42
0 0 41
153 154 133
218 234 254
219 234 255
219 234 255
219 234 255
219 234 255
219 234 255
219 234 255
219 234 255
219 234 255
219 234 255
219 234 255
219 234 255
219 234 255
219 234 255
219 234 255
219 234 255
219 234 255
219 234 255
219 234 255
219 234 255
219 234 255
219 234 255
219 234 255
219 234 255
219 234 255
219 234 255
219 234 255
219 234 255
219 234 255
219 234 255
219 234 255
219 234 255
219 234 255
219 234 255
219 234 255
219 234 255
219 234 255
219 234 255
219 234 255
219 234 255
219 234 255
219 234 255
219 234 255
219 234 255
219 234 255
219 234 255
219 234 255
219 234 255
219 234 255
219 234 255
219 234 255
219 234 255
219 234 255
219 234 255
219 234 255
219 234 255
219 234 255
219 234 255
219 234 255
219 234 255
219 234 255
219 234 255
219 234 255
219 234 255
219 234 255
219 234 255
219 234 255
219 234 255
219 234 255
219 234 255
219 234 255
219 234 255
219 234 255
219 234 255
219 234 255
219 234 255
219 234 255
219 234 255
219 234 255
219 234 255
219 234 255
219 234 255
219 234 255
219 234 255
219 234 255
219 234 255
219 234 255
219 234 255
219 234 255
219 234 255
219 234 255
219 234 255
219 234 255
219 234 255
219 234 255
219 234 255
219 234 255
219 234 255
219 234 255
219 234 255
219 234 255
219 234 255
219 234 255
219 234 255
219 234 255
219 234 255
219 234 255
219 234 255
219 234 255
219 234 255
219 234 255
219 234 255
219 234 255
219 234 255
219 234 255
219 234 255
219 234 255
219 234 255
219 234 255
219 234 255
219 234 255
219 234 255
219 234 255
219 234 255
219 234 255
219 234 255
219 234 255
219 234 255
219 234 255
219 234 255
219 234 255
219 234 255
219 234 255
219 234 255
219 234 255
219 234 255
219 234 255
219 234 255
219 234 255
219 234 255
219 234 255
219 234 255
219 234 255
219 234 255
219 234 255
219 234 255
219 234 255
219 234 255
219 234 255
219 234 255
219 234 255
219 234 255
219 234 255
219 234 255
219 234 255
219 234 255
219 234 255
219 234 255
219 234 255
219 234 255
219 234 255
219 234 255
219 234 255
219 234 255
219 234 255
219 234 255
219 234 255
219 234 255
219 234 255
219 234 255
219 234 255
219 234 255
219 234 255
219 234 255
219 234 255
219 234 255
219 234 255
219 234 255
219 234 255
219 234 255
219 234 255
219 234 255
219 234 255
219 234 255
219 234 255
219 234 255
219 234 255
219 234 255
219 234 255
219 234 255
219 234 255
219 234 255
219 234 255
219 234 255
219 234 255
219 234 255
219 234 255
178 190 209
0 0 42
0 0 42
6 7 39
12 13 36
0 0 44
0 0 42
0 0 42
0 0 42
0 0 42
0 0 42
0 0 42
0 0 42
0 0 42
0 0 42
0 0 42
0 0 42
0 0 42
0 0 42
0 0 42
0 0 42
0 0 42
0 0 42
0 0 42
0 0 42
0 0 42
0 0 42
0 0 42
0 0 42
0 0 42
0 0 42
0 0 42
0 0 42
0 0 42
0 0 42
0 0 42
0 0 42
0 0 42
0 0 42
0 0 42
0 0 42
0 0 42
0 0 42
0 0 42
0 0 42
0 0 42
0 0 42
0 0 42
0 0 42
0 0 42
0 0 42
0 0 42
0 0 42
0 0 42
0 0 42
0 0 42
0 0 42
0 0 42
0 0 42
0 0 42
0 0 42
0 0 42
0 0 42
0 0 42
0 0 42
0 0 42
0 0 42
0 0 42
0 0 42
0 0 42
0 0 42
0 0 42
0 0 42
0 0 39
0 0 31
0 0 34
0 0 42
0 0 38
10 13 34
28 36 44
32 43 35
49 64 44
41 58 27
38 56 17
33 50 7
39 53 14
49 63 31
56 72 39
53 68 33
31 49 4
29 51 3
35 61 7
26 52 4
34 60 13
35 58 14
37 63 19
32 59 11
28 53 4
28 54 0
27 55 0
43 72 15
45 75 13
35 63 8
35 67 2
29 63 7
36 63 43
10 19 38
4 8 47
0 0 40
0 0 36
0 0 41
0 0 42
0 0 40
0 0 47
0 0 38
9 0 36
0 0 38
0 0 40
0 0 43
0 0 52
0 0 56
0 0 46
0 0 43
0 0 45
0 0 41
6 6 44
18 20 57
9 13 48
0 0 41
0 0 38
0 0 38
0 0 38
0 0 41
0 0 41
0 0 40
0 0 43
0 0 44
0 0 46
0 0 45
0 0 35
0 0 35
0 0 38
0 0 39
0 0 42
0 0 42
0 0 42
0 0 44
0 0 44
0 0 41
0 0 38
0 0 40
0 0 42
5 0 43
0 0 39
0 0 42
5 6 42
11 12 48
8 9 45
1 1 41
0 0 42
0 0 45
0 0 43
0 0 40
0 0 41
0 0 42
0 0 42
0 0 42
0 0 42
0 0 42
0 0 42
0 0 42
0 0 42
0 0 42
0 0 42
0 0 42
0 0 42
0 0 42
0 0 42
0 0 42
0 0 42
0 0 42
0 0 42
0 0 42
0 0 42
0 0 42
0 0 42
0 0 42
0 0 42
0 0 42
0 0 42
0 0 42
0 0 42
0 0 42
0 0 42
0 0 42
0 0 42
0 0 42
0 0 42
0 0 42
0 0 42
0 0 42
0 0 42
108 105 92
214 223 230
219 234 255
219 234 255
219 234 255
219 234 255
219 234 255
219 234 255
219 234 255
219 234 255
219 234 255
219 234 255
219 234 255
219 234 255
219 234 255
219 234 255
219 234 255
219 234 255
219 234 255
219 234 255
219 234 255
219 234 255
219 234 255
219 234 255
219 234 255
219 234 255
219 234 255
219 234 255
219 234 255
219 234 255
219 234 255
219 234 255
219 234 255
219 234 255
219 234 255
219 234 255
219 234 255
219 234 255
219 234 255
219 234 255
219 234 255
219 234 255
219 234 255
219 234 255
219 234 255
219 234 255
219 234 255
219 234 255
219 234 255
219 234 255
219 234 255
219 234 255
219 234 255
219 234 255
219 234 255
219 234 255
219 234 255
219 234 255
219 234 255
219 234 255
219 234 255
219 234 255
219 234 255
219 234 255
219 234 255
219 234 255
219 234 255
219 234 255
219 234 255
219 234 255
219 234 255
219 234 255
219 234 255
219 234 255
219 234 255
219 234 255
219 234 255
219 234 255
219 234 255
219 234 255
219 234 255
219 234 255
219 234 255
219 234 255
219 234 255
219 234 255
219 234 255
219 234 255
219 234 255
219 234 255
219 234 255
219 234 255
219 234 255
219 234 255
219 234 255
219 234 255
219 234 255
219 234 255
219 234 255
219 234 255
219 234 255
219 234 255
219 234 255
219 234 255
219 234 255
219 234 255
219 234 255
219 234 255
219 234 255
219 234 255
219 234 255
219 234 255
219 234 255
219 234 255
219 234 255
219 234 255
219 234 255
219 234 255
219 234 255
219 234 255
219 234 255
219 234 255
219 234 255
219 234 255
219 234 255
219 234 255
219 234 255
219 234 255
219 234 255
219 234 255
219 234 255
219 234 255
219 234 255
219 234 255
219 234 255
219 234 255
219 234 255
219 234 255
219 234 255
219 234 255
219 234 255
219 234 255
219 234 255
219 234 255
219 234 255
219 234 255
219 234 255
219 234 255
219 234 255
219 234 255
219 234 255
219 234 255
219 234 255
219 234 255
219 234 255
219 234 255
219 234 255
219 234 255
219 234 255
219 234 255
219 234 255
219 234 255
219 234 255
219 234 255
219 234 255
219 234 255
219 234 255
219 234 255
219 234 255
219 234 255
219 234 255
219 234 255
219 234 255
219 234 255
219 234 255
219 234 255
219 234 255
219 234 255
219 234 255
219 234 255
219 234 255
219 234 255
219 234 255
219 234 255
219 234 255
219 234 255
219 234 255
219 234 255
219 234 255
219 234 255
219 234 255
219 234 255
219 234 255
219 234 255
219 234 255
219 234 255
219 234 255
219 234 255
120 128 144
0 0 41
0 0 42
4 4 39
2 2 42
0 0 42
0 0 42
0 0 42
0 0 42
0 0 42
0 0 42
0 0 42
0 0 42
0 0 42
0 0 42
0 0 42
0 0 42
0 0 42
0 0 42
0 0 42
0 0 42
0 0 42
0 0 42
0 0 42
0 0 42
0 0 42
0 0 42
0 0 42
0 0 42
0 0 42
0 0 42
0 0 42
0 0 42
0 0 42
0 0 42
0 0 42
0 0 42
0 0 42
0 0 42
0 0 42
0 0 42
0 0 42
0 0 42
0 0 42
0 0 42
0 0 42
0 0 42
0 0 42
0 0 42
0 0 42
0 0 42
0 0 42
0 0 42
0 0 42
0 0 42
0 0 42
0 0 42
0 0 42
0 0 42
0 0 42
0 0 42
0 0 42
0 0 42
0 0 42
0 0 42
0 0 42
0 0 42
0 0 42
0 0 42
0 0 42
0 0 42
0 0 42
0 0 42
0 0 39
0 0 33
0 0 36
0 0 43
0 0 48
0 0 43
0 0 36
0 0 28
20 26 25
32 42 33
47 64 40
60 80 48
43 61 24
36 52 0
60 78 32
68 88 38
39 59 8
45 66 28
62 85 52
50 73 39
49 74 31
48 72 25
44 70 19
44 70 19
31 54 3
26 49 1
21 43 0
36 61 9
41 67 9
45 72 16
37 66 7
32 60 15
32 56 43
7 18 42
0 0 46
0 0 39
0 10 33
0 11 34
0 0 35
0 0 40
0 0 42
0 0 39
6 0 34
0 0 45
0 0 42
0 0 41
0 0 41
0 0 46
6 10 51
2 4 46
0 0 41
0 0 42
0 0 44
0 0 44
0 0 40
0 0 39
0 0 41
0 0 39
0 0 38
0 0 38
0 0 41
0 0 41
0 0 42
0 0 42
0 0 42
0 0 43
0 0 40
0 0 40
0 0 40
0 0 41
0 0 40
0 0 42
0 0 42
0 0 42
0 0 41
0 0 40
0 0 41
0 0 42
0 0 41
0 0 42
0 0 40
0 0 42
0 0 40
0 0 40
10 12 44
16 18 43
0 0 39
0 0 43
0 0 42
0 0 41
0 0 41
0 0 42
0 0 42
0 0 42
0 0 42
0 0 42
0 0 42
0 0 42
0 0 42
0 0 42
0 0 42
0 0 42
0 0 42
0 0 42
0 0 42
0 0 42
0 0 42
0 0 42
0 0 42
0 0 42
0 0 42
0 0 42
0 0 42
0 0 42
0 0 42
0 0 42
0 0 42
0 0 42
0 0 42
0 0 42
0 0 42
0 0 42
0 0 42
0 0 42
0 0 42
0 0 42
0 0 42
0 0 42
0 0 42
31 33 53
199 205 193
219 234 255
219 234 255
219 234 255
219 234 255
219 234 255
219 234 255
219 234 255
219 234 255
219 234 255
219 234 255
219 234 255
219 234 255
219 234 255
219 234 255
219 234 255
219 234 255
219 234 255
219 234 255
219 234 255
219 234 255
219 234 255
219 234 255
219 234 255
219 234 255
219 234 255
219 234 255
219 234 255
219 234 255
219 234 255
219 234 255
219 234 255
219 234 255
219 234 255
219 234 255
219 234 255
219 234 255
219 234 255
219 234 255
219 234 255
219 234 255
219 234 255
219 234 255
219 234 255
219 234 255
219 234 255
219 234 255
219 234 255
219 234 255
219 234 255
219 234 255
219 234 255
219 234 255
219 234 255
219 234 255
219 234 255
219 234 255
219 234 255
219 234 255
219 234 255
219 234 255
219 234 255
219 234 255
219 234 255
219 234 255
219 234 255
219 234 255
219 234 255
219 234 255
219 234 255
219 234 255
219 234 255
219 234 255
219 234 255
219 234 255
219 234 255
219 234 255
219 234 255
219 234 255
219 234 255
219 234 255
219 234 255
219 234 255
219 234 255
219 234 255
219 234 255
219 234 255
219 234 255
219 234 255
219 234 255
219 234 255
219 234 255
219 234 255
219 234 255
219 234 255
219 234 255
219 234 255
219 234 255
219 234 255
219 234 255
219 234 255
219 234 255
219 234 255
219 234 255
219 234 255
219 234 255
219 234 255
219 234 255
219 234 255
219 234 255
219 234 255
219 234 255
219 234 255
219 234 255
219 234 255
219 234 255
219 234 255
219 234 255
219 234 255
219 234 255
219 234 255
219 234 255
219 234 255
219 234 255
219 234 255
219 234 255
219 234 255
219 234 255
219 234 255
219 234 255
219 234 255
219 234 255
219 234 255
219 234 255
219 234 255
219 234 255
219 234 255
219 234 255
219 234 255
219 234 255
219 234 255
219 234 255
219 234 255
219 234 255
219 234 255
219 234 255
219 234 255
219 234 255
219 234 255
219 234 255
219 234 255
219 234 255
219 234 255
219 234 255
219 234 255
219 234 255
219 234 255
219 234 255
219 234 255
219 234 255
219 234 255
219 234 255
219 234 255
219 234 255
219 234 255
219 234 255
219 234 255
219 234 255
219 234 255
219 234 255
219 234 255
219 234 255
219 234 255
219 234 255
219 234 255
219 234 255
219 234 255
219 234 255
219 234 255
219 234 255
219 234 255
219 234 255
219 234 255
219 234 255
219 234 255
219 234 255
219 234 255
219 234 255
219 234 255
219 234 255
219 234 255
219 234 255
219 234 255
219 234 255
219 234 255
219 234 255
211 226 247
53 57 74
0 0 39
0 0 42
0 0 43
0 0 41
0 0 42
0 0 42
0 0 42
0 0 42
0 0 42
0 0 42
0 0 42
0 0 42
0 0 42
0 0 42
0 0 42
0 0 42
0 0 42
0 0 42
0 0 42
0 0 42
0 0 42
0 0 42
0 0 42
0 0 42
0 0 42
0 0 42
0 0 42
0 0 42
0 0 42
0 0 42
0 0 42
0 0 42
0 0 42
0 0 42
0 0 42
0 0 42
0 0 42
0 0 42
0 0 42
0 0 42
0 0 42
0 0 42
0 0 42
0 0 42
0 0 42
0 0 42
0 0 42
0 0 42
0 0 42
0 0 42
0 0 42
0 0 42
0 0 42
0 0 42
0 0 42
0 0 42
0 0 42
0 0 42
0 0 42
0 0 42
0 0 42
0 0 42
0 0 42
0 0 42
0 0 42
0 0 42
0 0 42
0 0 42
0 0 42
0 0 42
0 0 42
0 0 42
0 0 43
0 0 44
0 0 43
0 0 41
0 0 41
0 0 41
0 0 38
0 0 41
0 0 45
0 0 44
6 9 34
19 25 29
46 60 49
36 53 19
41 59 24
36 54 17
36 49 31
30 41 42
20 29 42
13 24 31
40 57 35
39 59 19
39 60 8
41 63 5
48 69 26
40 61 20
25 47 1
36 61 0
41 66 9
44 67 14
39 64 13
20 42 6
0 8 8
7 14 41
0 10 44
0 0 28
5 13 14
18 28 24
22 33 29
18 27 26
13 18 21
6 7 32
0 8 39
7 8 54
0 0 48
0 0 40
0 0 33
0 0 28
9 13 49
9 13 54
6 7 48
0 0 45
5 0 44
4 0 42
0 0 42
0 0 41
0 0 41
0 0 41
0 0 41
0 0 42
0 0 40
0 0 42
0 0 42
0 0 42
0 0 42
0 0 42
0 0 41
0 0 40
0 0 42
0 0 38
0 0 42
0 0 42
0 0 41
0 0 40
0 0 41
0 0 43
0 0 39
0 0 40
0 0 41
0 0 42
0 0 42
0 0 40
0 0 41
0 0 41
0 0 37
33 36 67
4 5 38
0 0 41
0 0 42
0 0 40
0 0 40
0 0 42
0 0 42
0 0 42
0 0 42
0 0 42
0 0 42
0 0 42
0 0 42
0 0 42
0 0 42
0 0 42
0 0 42
0 0 42
0 0 42
0 0 42
0 0 42
0 0 42
0 0 42
0 0 42
0 0 42
0 0 42
0 0 42
0 0 42
0 0 42
0 0 42
0 0 42
0 0 42
0 0 42
0 0 42
0 0 42
0 0 42
0 0 42
0 0 42
0 0 42
0 0 42
0 0 41
1 0 41
1 0 42
0 0 42
160 157 131
219 232 252
219 234 255
219 234 255
219 234 255
219 234 255
219 234 255
219 234 255
219 234 255
219 234 255
219 234 255
219 234 255
219 234 255
219 234 255
219 234 255
219 234 255
219 234 255
219 234 255
219 234 255
219 234 255
219 234 255
219 234 255
219 234 255
219 234 255
219 234 255
219 234 255
219 234 255
219 234 255
219 234 255
219 234 255
219 234 255
219 234 255
219 234 255
219 234 255
219 234 255
219 234 255
219 234 255
219 234 255
219 234 255
219 234 255
219 234 255
219 234 255
219 234 255
219 234 255
219 234 255
219 234 255
219 234 255
219 234 255
219 234 255
219 234 255
219 234 255
219 234 255
219 234 255
219 234 255
219 234 255
219 234 255
219 234 255
219 234 255
219 234 255
219 234 255
219 234 255
219 234 255
219 234 255
219 234 255
219 234 255
219 234 255
219 234 255
219 234 255
219 234 255
219 234 255
219 234 255
219 234 255
219 234 255
219 234 255
219 234 255
219 234 255
219 234 255
219 234 255
219 234 255
219 234 255
219 234 255
219 234 255
219 234 255
219 234 255
219 234 255
219 234 255
219 234 255
219 234 255
219 234 255
219 234 255
219 234 255
219 234 255
219 234 255
219 234 255
219 234 255
219 234 255
219 234 255
219 234 255
219 234 255
219 234 255
219 234 255
219 234 255
219 234 255
219 234 255
219 234 255
219 234 255
219 234 255
219 234 255
219 234 255
219 234 255
219 234 255
219 234 255
219 234 255
219 234 255
219 234 255
219 234 255
219 234 255
219 234 255
219 234 255
219 234 255
219 234 255
219 234 255
219 234 255
219 234 255
219 234 255
219 234 255
219 234 255
219 234 255
219 234 255
219 234 255
219 234 255
219 234 255
219 234 255
219 234 255
219 234 255
219 234 255
219 234 255
219 234 255
219 234 255
219 234 255
219 234 255
219 234 255
219 234 255
219 234 255
219 234 255
219 234 255
219 234 255
219 234 255
219 234 255
219 234 255
219 234 255
219 234 255
219 234 255
219 234 255
219 234 255
219 234 255
219 234 255
219 234 255
219 234 255
219 234 255
219 234 255
219 234 255
219 234 255
219 234 255
219 234 255
219 234 255
219 234 255
219 234 255
219 234 255
219 234 255
219 234 255
219 234 255
219 234 255
219 234 255
219 234 255
219 234 255
219 234 255
219 234 255
219 234 255
219 234 255
219 234 255
219 234 255
219 234 255
219 234 255
219 234 255
219 234 255
219 234 255
219 234 255
219 234 255
219 234 255
219 234 255
219 234 255
219 234 255
219 234 255
219 234 255
219 234 255
167 178 196
0 0 42
0 0 42
0 0 42
0 0 42
0 0 42
0 0 42
0 0 42
0 0 42
0 0 42
0 0 42
0 0 42
0 0 42
0 0 42
0 0 42
0 0 42
0 0 42
0 0 42
0 0 42
0 0 42
0 0 42
0 0 42
0 0 42
0 0 42
0 0 42
0 0 42
0 0 42
0 0 42
0 0 42
0 0 42
0 0 42
0 0 42
0 0 42
0 0 42
0 0 42
0 0 42
0 0 42
0 0 42
0 0 42
0 0 42
0 0 42
0 0 42
0 0 42
0 0 42
0 0 42
0 0 42
0 0 42
0 0 42
0 0 42
0 0 42
0 0 42
0 0 42
0 0 42
0 0 42
0 0 42
0 0 42
0 0 42
0 0 42
0 0 42
0 0 42
0 0 42
0 0 42
0 0 42
0 0 42
0 0 42
0 0 42
0 0 42
0 0 42
0 0 42
0 0 42
0 0 42
0 0 42
0 0 42
0 0 42
0 0 43
0 0 46
0 0 44
0 0 41
0 0 39
0 0 40
0 0 41
0 0 45
0 0 47
0 0 48
0 0 45
0 0 38
0 3 33
10 17 29
21 28 36
19 26 36
9 12 34
0 4 36
0 0 43
0 0 44
4 8 34
27 38 25
42 59 28
34 52 21
35 53 12
43 62 26
31 51 5
35 58 0
40 64 0
36 56 7
26 49 6
34 60 0
40 66 17
47 69 30
41 59 31
40 55 24
45 62 32
41 58 36
34 56 29
31 54 20
51 69 41
30 41 32
10 22 16
7 14 40
0 4 49
0 0 46
0 0 42
0 0 34
0 0 40
0 0 43
3 3 45
0 0 42
3 0 44
2 0 42
0 0 41
0 0 43
0 0 42
0 0 40
0 0 38
0 0 40
0 0 42
0 0 42
0 0 42
0 0 42
0 0 42
0 0 42
0 0 43
0 0 40
0 0 42
0 0 42
0 0 41
0 0 42
0 0 42
0 0 39
0 0 39
0 0 41
0 0 40
0 0 41
0 0 40
0 0 41
0 0 42
0 0 41
0 0 42
0 0 40
0 0 36
28 31 57
11 12 42
0 0 39
0 0 42
0 0 40
0 0 39
0 0 42
0 0 42
0 0 42
0 0 42
0 0 42
0 0 42
0 0 42
0 0 42
0 0 42
0 0 42
0 0 42
0 0 42
0 0 42
0 0 42
0 0 42
0 0 42
0 0 42
0 0 42
0 0 42
0 0 42
0 0 42
0 0 42
0 0 42
0 0 42
0 0 42
0 0 42
0 0 42
0 0 42
0 0 42
0 0 42
0 0 42
0 0 42
0 0 42
0 0 42
0 0 42
0 0 41
10 9 42
4 0 41
0 0 42
104 98 87
217 222 227
219 234 255
219 234 255
219 234 255
219 234 255
219 234 255
219 234 255
219 234 255
219 234 255
219 234 255
219 234 255
219 234 255
219 234 255
219 234 255
219 234 255
219 234 255
219 234 255
219 234 255
219 234 255
219 234 255
219 234 255
219 234 255
219 234 255
219 234 255
219 234 255
219 234 255
219 234 255
219 234 255
219 234 255
219 234 255
219 234 255
219 234 255
219 234 255
219 234 255
219 234 255
219 234 255
219 234 255
219 234 255
219 234 255
219 234 255
219 234 255
219 234 255
219 234 255
219 234 255
219 234 255
219 234 255
219 234 255
219 234 255
219 234 255
219 234 255
219 234 255
219 234 255
219 234 255
219 234 255
219 234 255
219 234 255
219 234 255
219 234 255
219 234 255
219 234 255
219 234 255
219 234 255
219 234 255
219 234 255
219 234 255
219 234 255
219 234 255
219 234 255
219 234 255
219 234 255
219 234 255
219 234 255
219 234 255
219 234 255
219 234 255
219 234 255
219 234 255
219 234 255
219 234 255
219 234 255
219 234 255
219 234 255
219 234 255
219 234 255
219 234 255
219 234 255
219 234 255
219 234 255
219 234 255
219 234 255
219 234 255
219 234 255
219 234 255
219 234 255
219 234 255
219 234 255
219 234 255
219 234 255
219 234 255
219 234 255
219 234 255
219 234 255
219 234 255
219 234 255
219 234 255
219 234 255
219 234 255
219 234 255
219 234 255
219 234 255
219 234 255
219 234 255
219 234 255
219 234 255
219 234 255
219 234 255
219 234 255
219 234 255
219 234 255
219 234 255
219 234 255
219 234 255
219 234 255
219 234 255
219 234 255
219 234 255
219 234 255
219 234 255
219 234 255
219 234 255
219 234 255
219 234 255
219 234 255
219 234 255
219 234 255
219 234 255
219 234 255
219 234 255
219 234 255
219 234 255
219 234 255
219 234 255
219 234 255
219 234 255
219 234 255
219 234 255
219 234 255
219 234 255
219 234 255
219 234 255
219 234 255
219 234 255
219 234 255
219 234 255
219 234 255
219 234 255
219 234 255
219 234 255
219 234 255
219 234 255
219 234 255
219 234 255
219 234 255
219 234 255
219 234 255
219 234 255
219 234 255
219 234 255
219 234 255
219 234 255
219 234 255
219 234 255
219 234 255
219 234 255
219 234 255
219 234 255
219 234 255
219 234 255
219 234 255
219 234 255
219 234 255
219 234 255
219 234 255
219 234 255
219 234 255
219 234 255
219 234 255
219 234 255
219 234 255
219 234 255
219 234 255
219 234 255
219 234 255
219 234 255
219 234 255
131 140 157
0 0 42
0 0 42
0 0 42
0 0 42
0 0 42
0 0 42
0 0 42
0 0 42
0 0 42
0 0 42
0 0 42
0 0 42
0 0 42
0 0 42
0 0 42
0 0 42
0 0 42
0 0 42
0 0 42
0 0 42
0 0 42
0 0 42
0 0 42
0 0 42
0 0 42
0 0 42
0 0 42
0 0 42
0 0 42
0 0 42
0 0 42
0 0 42
0 0 42
0 0 42
0 0 42
0 0 42
0 0 42
0 0 42
0 0 42
0 0 42
0 0 42
0 0 42
0 0 42
0 0 42
0 0 42
0 0 42
0 0 42
0 0 42
0 0 42
0 0 42
0 0 42
0 0 42
0 0 42
0 0 42
0 0 42
0 0 42
0 0 42
0 0 42
0 0 42
0 0 42
0 0 42
0 0 42
0 0 42
0 0 42
0 0 42
0 0 42
0 0 42
0 0 42
0 0 42
0 0 42
0 0 42
0 0 42
0 0 42
0 0 42
0 0 42
0 0 42
0 0 42
0 0 41
0 0 40
0 0 40
0 0 40
0 0 41
0 0 42
0 0 40
0 0 40
0 0 41
0 0 43
0 0 41
0 0 38
0 0 41
0 0 42
0 0 40
0 0 44
0 5 47
0 3 35
16 23 20
44 60 35
33 51 17
37 57 16
43 63 22
35 56 12
33 54 9
38 59 12
38 61 12
42 68 17
36 62 0
39 62 8
42 59 3
41 58 3
42 61 8
39 60 10
41 67 17
26 55 0
32 60 12
39 65 26
43 66 30
29 48 62
15 31 74
0 8 47
0 0 43
0 0 45
0 0 44
0 0 43
0 0 44
0 0 44
0 0 41
0 0 42
0 0 42
0 0 42
0 0 42
0 0 41
0 0 41
0 0 41
0 0 42
0 0 42
0 0 42
0 0 42
0 0 42
0 0 42
0 0 42
0 0 42
0 0 42
0 0 42
0 0 42
0 0 42
0 0 42
0 0 39
0 0 40
0 0 42
0 0 42
0 0 42
0 0 42
0 0 42
0 0 42
0 0 42
0 0 42
0 0 41
0 0 38
10 11 36
19 20 50
0 0 35
0 0 41
0 0 40
0 0 40
0 0 42
0 0 42
0 0 42
0 0 42
0 0 42
0 0 42
0 0 42
0 0 42
0 0 42
0 0 42
0 0 42
0 0 42
0 0 42
0 0 42
0 0 42
0 0 42
0 0 42
0 0 42
0 0 42
0 0 42
0 0 42
0 0 42
0 0 42
0 0 42
0 0 42
0 0 42
0 0 42
0 0 42
0 0 42
0 0 42
0 0 42
0 0 42
0 0 42
0 0 42
0 0 42
0 0 42
20 21 50
11 11 44
0 0 40
10 10 39
199 186 171
219 234 255
219 234 255
219 234 255
219 234 255
219 234 255
219 234 255
219 234 255
219 234 255
219 234 255
219 234 255
219 234 255
219 234 255
219 234 255
219 234 255
219 234 255
219 234 255
219 234 255
219 234 255
219 234 255
219 234 255
219 234 255
219 234 255
219 234 255
219 234 255
219 234 255
219 234 255
219 234 255
219 234 255
219 234 255
219 234 255
219 234 255
219 234 255
219 234 255
219 234 255
219 234 255
219 234 255
219 234 255
219 234 255
219 234 255
219 234 255
219 234 255
219 234 255
219 234 255
219 234 255
219 234 255
219 234 255
219 234 255
219 234 255
219 234 255
219 234 255
219 234 255
219 234 255
219 234 255
219 234 255
219 234 255
219 234 255
219 234 255
219 234 255
219 234 255
219 234 255
219 234 255
219 234 255
219 234 255
219 234 255
219 234 255
219 234 255
219 234 255
219 234 255
219 234 255
219 234 255
219 234 255
219 234 255
219 234 255
219 234 255
219 234 255
219 234 255
219 234 255
219 234 255
219 234 255
219 234 255
219 234 255
219 234 255
219 234 255
219 234 255
219 234 255
219 234 255
219 234 255
219 234 255
219 234 255
219 234 255
219 234 255
219 234 255
219 234 255
219 234 255
219 234 255
219 234 255
219 234 255
219 235 255
219 235 255
219 235 255
219 235 255
219 235 255
219 235 255
219 235 255
219 235 255
219 235 255
219 235 255
219 235 255
219 235 255
219 235 255
219 235 255
219 235 255
219 235 255
219 235 255
219 235 255
219 235 255
219 235 255
219 235 255
219 235 255
219 235 255
219 235 255
219 235 255
219 235 255
219 235 255
219 235 255
219 235 255
219 235 255
219 235 255
219 235 255
219 235 255
219 235 255
219 235 255
219 235 255
219 235 255
219 235 255
219 235 255
219 235 255
219 235 255
219 235 255
219 235 255
219 235 255
219 235 255
219 235 255
219 235 255
219 235 255
219 235 255
219 235 255
219 235 255
219 235 255
219 235 255
219 235 255
219 235 255
219 235 255
219 235 255
219 235 255
219 234 255
219 234 255
219 234 255
219 234 255
219 234 255
219 234 255
219 234 255
219 234 255
219 234 255
219 234 255
219 234 255
219 234 255
219 234 255
219 234 255
219 234 255
219 234 255
219 234 255
219 234 255
219 234 255
219 234 255
219 234 255
219 234 255
219 234 255
219 234 255
219 234 255
219 234 255
219 234 255
219 234 255
219 234 255
219 234 255
219 234 255
219 234 255
219 234 255
219 234 255
219 234 255
219 234 255
219 234 255
219 234 255
216 231 252
43 46 65
0 0 42
0 0 42
0 0 42
0 0 42
0 0 42
0 0 42
0 0 42
0 0 42
0 0 42
0 0 42
0 0 42
0 0 42
0 0 42
0 0 42
0 0 42
0 0 42
0 0 42
0 0 42
0 0 42
0 0 42
0 0 42
0 0 42
0 0 42
0 0 42
0 0 42
0 0 42
0 0 42
0 0 42
0 0 42
0 0 42
0 0 42
0 0 42
0 0 42
0 0 42
0 0 42
0 0 42
0 0 42
0 0 42
0 0 42
0 0 42
0 0 42
0 0 42
0 0 42
0 0 42
0 0 42
0 0 42
0 0 42
0 0 42
0 0 42
0 0 42
0 0 42
0 0 42
0 0 42
0 0 42
0 0 42
0 0 42
0 0 42
0 0 42
0 0 42
0 0 42
0 0 42
0 0 42
0 0 42
0 0 42
0 0 42
0 0 42
0 0 42
0 0 42
0 0 42
0 0 42
0 0 42
0 0 42
0 0 42
0 0 42
0 0 42
0 0 42
0 0 41
0 0 40
0 0 39
0 0 39
0 0 39
0 0 40
0 0 39
0 0 35
0 0 37
0 0 40
0 0 43
0 0 43
0 0 43
0 0 40
0 0 36
0 0 36
0 0 41
0 0 50
0 0 48
0 0 37
24 31 30
45 62 39
48 70 27
25 48 0
35 56 12
41 63 23
49 73 23
42 68 18
40 66 16
36 58 8
40 58 10
45 60 13
52 69 14
52 71 14
53 76 19
40 65 2
27 56 3
35 64 21
38 70 17
50 74 16
35 58 57
19 40 79
0 2 34
0 0 33
0 0 48
0 0 43
0 0 44
0 0 43
0 0 39
0 0 42
0 0 42
0 0 42
0 0 42
0 0 42
0 0 42
0 0 42
0 0 42
0 0 42
0 0 42
0 0 42
0 0 42
0 0 42
0 0 42
0 0 42
0 0 42
0 0 42
0 0 42
0 0 42
0 0 42
0 0 42
0 0 42
0 0 42
0 0 42
0 0 42
0 0 42
0 0 42
0 0 42
0 0 42
0 0 42
0 0 42
0 0 41
0 0 41
0 0 34
17 19 43
11 12 40
0 0 41
0 0 42
0 0 42
0 0 42
0 0 42
0 0 42
0 0 42
0 0 42
0 0 42
0 0 42
0 0 42
0 0 42
0 0 42
0 0 42
0 0 42
0 0 42
0 0 42
0 0 42
0 0 42
0 0 42
0 0 42
0 0 42
0 0 42
0 0 42
0 0 42
0 0 42
0 0 42
0 0 42
0 0 42
0 0 42
0 0 42
0 0 42
0 0 42
0 0 42
0 0 42
0 0 42
0 0 42
0 0 42
0 0 42
0 0 42
8 8 41
21 23 50
0 0 41
154 140 115
217 231 251
219 234 255
219 234 255
219 234 255
219 234 255
219 234 255
219 234 255
219 234 255
219 234 255
219 234 255
219 234 255
219 234 255
219 234 255
219 234 255
219 234 255
219 234 255
219 234 255
219 234 255
219 234 255
219 234 255
219 234 255
219 234 255
219 234 255
219 234 255
219 234 255
219 234 255
219 234 255
219 234 255
219 234 255
219 234 255
219 234 255
219 234 255
219 234 255
219 234 255
219 234 255
219 234 255
219 234 255
219 234 255
219 234 255
219 235 255
219 235 255
219 235 255
219 235 255
219 235 255
219 235 255
219 235 255
219 235 255
219 235 255
219 235 255
219 235 255
219 235 255
219 235 255
219 235 255
219 235 255
219 235 255
219 235 255
219 235 255
219 235 255
219 235 255
219 235 255
219 235 255
219 235 255
219 235 255
219 235 255
219 235 255
219 235 255
219 235 255
219 235 255
219 235 255
219 235 255
219 235 255
219 235 255
219 235 255
219 235 255
219 235 255
219 235 255
219 235 255
219 235 255
219 235 255
219 235 255
219 235 255
219 235 255
219 235 255
219 235 255
219 235 255
219 235 255
219 235 255
219 235 255
219 235 255
219 235 255
219 235 255
219 235 255
219 235 255
219 235 255
219 235 255
219 235 255
219 235 255
219 235 255
219 235 255
219 235 255
219 235 255
219 235 255
219 235 255
219 235 255
219 235 255
219 235 255
219 235 255
219 235 255
219 235 255
219 235 255
219 235 255
219 235 255
219 235 255
219 235 255
219 235 255
219 235 255
219 235 255
219 235 255
219 235 255
219 235 255
219 235 255
219 235 255
219 235 255
219 235 255
219 235 255
219 235 255
219 235 255
219 235 255
219 235 255
219 235 255
219 235 255
219 235 255
219 235 255
219 235 255
219 235 255
219 235 255
219 235 255
219 235 255
219 235 255
219 235 255
219 235 255
219 235 255
219 235 255
219 235 255
219 235 255
219 235 255
219 235 255
219 235 255
219 235 255
219 235 255
219 235 255
219 235 255
219 235 255
219 235 255
219 235 255
219 235 255
219 235 255
219 235 255
219 235 255
219 235 255
219 235 255
219 235 255
219 235 255
219 235 255
219 235 255
219 235 255
219 235 255
219 235 255
219 235 255
219 235 255
219 235 255
219 235 255
219 235 255
219 235 255
219 235 255
219 235 255
219 235 255
219 235 255
219 235 255
219 235 255
219 235 255
219 235 255
219 235 255
219 235 255
219 235 255
219 235 255
219 235 255
219 235 255
219 235 255
219 235 255
219 235 255
219 235 255
219 235 255
186 199 218
0 0 42
0 0 42
0 0 42
0 0 42
0 0 42
0 0 42
0 0 42
0 0 42
0 0 42
0 0 42
0 0 42
0 0 42
0 0 42
0 0 42
0 0 42
0 0 42
0 0 42
0 0 42
0 0 42
0 0 42
0 0 42
0 0 42
0 0 42
0 0 42
0 0 42
0 0 42
0 0 42
0 0 42
0 0 42
0 0 42
0 0 42
0 0 42
0 0 42
0 0 42
0 0 42
0 0 42
0 0 42
0 0 42
0 0 42
0 0 42
0 0 42
0 0 42
0 0 42
0 0 42
0 0 42
0 0 42
0 0 42
0 0 42
0 0 42
0 0 42
0 0 42
0 0 42
0 0 42
0 0 42
0 0 42
0 0 42
0 0 42
0 0 42
0 0 42
0 0 42
0 0 42
0 0 42
0 0 42
0 0 42
0 0 42
0 0 42
0 0 42
0 0 42
0 0 42
0 0 42
0 0 42
0 0 42
0 0 42
0 0 42
0 0 41
0 0 41
0 0 42
0 0 42
0 0 43
0 0 43
0 0 42
0 0 42
0 0 42
0 0 39
0 0 40
0 0 39
0 0 41
0 0 43
0 0 44
0 0 44
0 0 42
0 0 41
0 0 41
0 0 44
0 0 43
0 0 41
0 0 46
0 0 34
14 19 25
42 57 36
46 67 38
43 64 28
36 57 24
40 66 12
35 62 7
31 56 0
34 56 4
39 57 11
47 62 15
51 65 13
52 68 15
53 74 14
41 66 1
32 59 1
37 64 14
34 62 9
48 76 16
32 53 52
15 29 68
0 0 40
0 0 38
7 7 48
5 5 42
0 0 43
0 0 41
0 0 39
0 0 42
0 0 41
0 0 41
0 0 41
0 0 41
0 0 42
0 0 42
0 0 42
0 0 42
0 0 42
0 0 42
0 0 42
0 0 42
0 0 42
0 0 42
0 0 42
0 0 42
0 0 42
0 0 42
0 0 42
0 0 42
0 0 42
0 0 42
0 0 42
0 0 42
0 0 42
0 0 42
0 0 42
0 0 42
0 0 42
0 0 42
0 0 42
0 0 42
6 6 41
13 16 41
22 24 51
0 0 40
0 0 43
0 0 43
0 0 42
0 0 42
0 0 42
0 0 42
0 0 42
0 0 42
0 0 42
0 0 42
0 0 42
0 0 42
0 0 42
0 0 42
0 0 42
0 0 42
0 0 42
0 0 42
0 0 42
0 0 42
0 0 42
0 0 42
0 0 42
0 0 42
0 0 42
0 0 42
0 0 42
0 0 42
0 0 42
0 0 42
0 0 42
0 0 42
0 0 42
0 0 42
0 0 42
0 0 42
0 0 42
0 0 42
0 0 42
0 0 39
20 21 48
0 0 42
97 87 76
210 217 229
219 235 255
219 235 255
219 235 255
219 235 255
219 235 255
219 235 255
219 235 255
219 235 255
219 235 255
219 235 255
219 235 255
219 235 255
219 235 255
219 235 255
219 235 255
219 235 255
219 235 255
219 235 255
219 235 255
219 235 255
219 235 255
219 235 255
219 235 255
219 235 255
219 235 255
219 235 255
219 235 255
219 235 255
219 235 255
219 235 255
219 235 255
219 235 255
219 235 255
219 235 255
219 235 255
219 235 255
219 235 255
219 235 255
219 235 255
219 235 255
219 235 255
219 235 255
219 235 255
219 235 255
219 235 255
219 235 255
219 235 255
219 235 255
219 235 255
219 235 255
219 235 255
219 235 255
219 235 255
219 235 255
219 235 255
219 235 255
219 235 255
219 235 255
219 235 255
219 235 255
219 235 255
219 235 255
219 235 255
219 235 255
219 235 255
219 235 255
219 235 255
219 235 255
219 235 255
219 235 255
219 235 255
219 235 255
219 235 255
219 235 255
219 235 255
219 235 255
219 235 255
219 235 255
219 235 255
219 235 255
219 235 255
219 235 255
219 235 255
219 235 255
219 235 255
219 235 255
219 235 255
219 235 255
219 235 255
219 235 255
219 235 255
219 235 255
219 235 255
219 235 255
219 235 255
219 235 255
220 235 255
220 235 255
220 235 255
220 235 255
220 235 255
220 235 255
220 235 255
220 235 255
220 235 255
220 235 255
220 235 255
220 235 255
220 235 255
220 235 255
220 235 255
220 235 255
220 235 255
220 235 255
220 235 255
220 235 255
220 235 255
220 235 255
220 235 255
220 235 255
220 235 255
220 235 255
220 235 255
220 235 255
220 235 255
220 235 255
220 235 255
220 235 255
220 235 255
220 235 255
220 235 255
220 235 255
220 235 255
220 235 255
220 235 255
220 235 255
220 235 255
220 235 255
220 235 255
220 235 255
220 235 255
220 235 255
220 235 255
220 235 255
220 235 255
220 235 255
220 235 255
220 235 255
220 235 255
220 235 255
220 235 255
220 235 255
220 235 255
220 235 255
220 235 255
220 235 255
220 235 255
219 235 255
219 235 255
219 235 255
219 235 255
219 235 255
220 235 255
219 235 255
219 235 255
219 235 255
219 235 255
219 235 255
219 235 255
219 235 255
219 235 255
219 235 255
219 235 255
219 235 255
219 235 255
219 235 255
219 235 255
219 235 255
219 235 255
219 235 255
219 235 255
219 235 255
219 235 255
219 235 255
219 235 255
219 235 255
219 235 255
219 235 255
219 235 255
219 235 255
219 235 255
219 235 255
137 146 163
0 0 42
0 0 42
0 0 42
0 0 42
0 0 42
0 0 42
0 0 42
0 0 42
0 0 42
0 0 42
0 0 42
0 0 42
0 0 42
0 0 42
0 0 42
0 0 42
0 0 42
0 0 42
0 0 42
0 0 42
0 0 42
0 0 42
0 0 42
0 0 42
0 0 42
0 0 42
0 0 42
0 0 42
0 0 42
0 0 42
0 0 42
0 0 42
0 0 42
0 0 42
0 0 42
0 0 42
0 0 42
0 0 42
0 0 42
0 0 42
0 0 42
0 0 42
0 0 42
0 0 42
0 0 42
0 0 42
0 0 42
0 0 42
0 0 42
0 0 42
0 0 42
0 0 42
0 0 42
0 0 42
0 0 42
0 0 42
0 0 42
0 0 42
0 0 42
0 0 42
0 0 42
0 0 42
0 0 42
0 0 42
0 0 42
0 0 42
0 0 42
0 0 42
0 0 42
0 0 42
0 0 42
0 0 42
0 0 42
0 0 41
0 0 39
0 0 39
0 0 42
0 0 46
0 0 49
0 0 50
0 0 47
0 0 43
0 0 39
0 0 40
0 0 45
0 0 43
0 0 42
0 0 42
0 0 41
0 0 41
0 0 44
0 0 46
0 0 46
0 0 38
0 0 36
0 0 41
0 0 39
0 0 39
0 0 40
0 0 38
12 18 37
13 20 27
23 34 21
32 52 17
44 67 28
41 63 27
39 60 21
45 62 22
47 63 20
54 69 21
53 71 20
46 67 14
51 78 24
43 72 10
55 82 14
46 71 19
36 64 21
9 23 23
0 0 50
0 0 50
0 0 49
0 0 41
0 0 40
0 0 42
0 0 41
0 0 41
0 0 40
0 0 41
0 0 41
0 0 39
0 0 39
0 0 39
0 0 40
0 0 40
0 0 41
0 0 42
0 0 42
0 0 44
0 0 43
0 0 42
0 0 42
0 0 42
0 0 42
0 0 42
0 0 43
0 0 41
0 0 43
0 0 45
0 0 44
0 0 42
0 0 42
0 0 42
0 0 42
0 0 42
0 0 42
0 0 42
0 0 42
0 0 43
0 0 43
0 0 39
0 0 34
25 26 57
0 0 39
0 0 43
0 0 45
0 0 43
0 0 42
0 0 42
0 0 42
0 0 42
0 0 42
0 0 42
0 0 42
0 0 42
0 0 42
0 0 42
0 0 42
0 0 42
0 0 42
0 0 42
0 0 42
0 0 42
0 0 42
0 0 42
0 0 42
0 0 42
0 0 42
0 0 42
0 0 42
0 0 42
0 0 42
0 0 42
0 0 42
0 0 42
0 0 42
0 0 42
0 0 42
0 0 42
0 0 42
0 0 42
0 0 42
0 0 42
1 1 40
24 25 53
0 0 42
50 50 56
185 189 186
219 235 255
219 235 255
219 235 255
219 235 255
219 235 255
219 235 255
219 235 255
219 235 255
219 235 255
219 235 255
219 235 255
219 235 255
219 235 255
219 235 255
219 235 255
219 235 255
219 235 255
219 235 255
219 235 255
219 235 255
219 235 255
219 235 255
219 235 255
219 235 255
219 235 255
219 235 255
219 235 255
219 235 255
219 235 255
219 235 255
219 235 255
219 235 255
219 235 255
219 235 255
219 235 255
219 235 255
220 235 255
219 235 255
220 235 255
220 235 255
220 235 255
220 235 255
220 235 255
220 235 255
220 235 255
220 235 255
220 235 255
220 235 255
220 235 255
220 235 255
220 235 255
220 235 255
220 235 255
220 235 255
220 235 255
220 235 255
220 235 255
220 235 255
220 235 255
220 235 255
220 235 255
220 235 255
220 235 255
220 235 255
220 235 255
220 235 255
220 235 255
220 235 255
220 235 255
220 235 255
220 235 255
220 235 255
220 235 255
220 235 255
220 235 255
220 235 255
220 235 255
220 235 255
220 235 255
220 235 255
220 235 255
220 235 255
220 235 255
220 235 255
220 235 255
220 235 255
220 235 255
220 235 255
220 235 255
220 235 255
220 235 255
220 235 255
220 235 255
220 235 255
220 235 255
220 235 255
220 235 255
220 235 255
220 235 255
220 235 255
220 235 255
220 235 255
220 235 255
220 235 255
220 235 255
220 235 255
220 235 255
220 235 255
220 235 255
220 235 255
220 235 255
220 235 255
220 235 255
220 235 255
220 235 255
220 235 255
220 235 255
220 235 255
220 235 255
220 235 255
220 235 255
220 235 255
220 235 255
220 235 255
220 235 255
220 235 255
220 235 255
220 235 255
220 235 255
220 235 255
220 235 255
220 235 255
220 235 255
220 235 255
220 235 255
220 235 255
220 235 255
220 235 255
220 235 255
220 235 255
220 235 255
220 235 255
220 235 255
220 235 255
220 235 255
220 235 255
220 235 255
220 235 255
220 235 255
220 235 255
220 235 255
220 235 255
220 235 255
220 235 255
220 235 255
220 235 255
220 235 255
220 235 255
220 235 255
220 235 255
220 235 255
220 235 255
220 235 255
220 235 255
220 235 255
220 235 255
220 235 255
220 235 255
220 235 255
220 235 255
220 235 255
220 235 255
220 235 255
220 235 255
220 235 255
220 235 255
220 235 255
220 235 255
220 235 255
220 235 255
220 235 255
220 235 255
220 235 255
220 235 255
220 235 255
220 235 255
220 235 255
220 235 255
220 235 255
220 235 255
220 235 255
220 235 255
85 91 106
0 0 42
0 0 42
0 0 42
0 0 42
0 0 42
0 0 42
0 0 42
0 0 42
0 0 42
0 0 42
0 0 42
0 0 42
0 0 42
0 0 42
0 0 42
0 0 42
0 0 42
0 0 42
0 0 42
0 0 42
0 0 42
0 0 42
0 0 42
0 0 42
0 0 42
0 0 42
0 0 42
0 0 42
0 0 42
0 0 42
0 0 42
0 0 42
0 0 42
0 0 42
0 0 42
0 0 42
0 0 42
0 0 42
0 0 42
0 0 42
0 0 42
0 0 42
0 0 42
0 0 42
0 0 42
0 0 42
0 0 42
0 0 42
0 0 42
0 0 42
0 0 42
0 0 42
0 0 42
0 0 42
0 0 42
0 0 42
0 0 42
0 0 42
0 0 42
0 0 42
0 0 42
0 0 42
0 0 42
0 0 42
0 0 42
0 0 42
0 0 42
0 0 42
0 0 42
0 0 42
0 0 42
0 0 42
0 0 42
0 0 42
0 0 41
0 0 41
0 0 42
0 0 42
0 0 43
0 0 44
0 0 42
0 0 42
0 0 41
0 0 42
0 0 42
0 0 42
0 0 42
0 0 42
0 0 42
0 0 42
0 0 42
0 0 42
0 0 42
0 0 41
0 0 40
0 0 42
0 0 42
0 0 41
0 0 40
0 0 43
0 0 43
0 0 38
0 0 33
0 0 36
8 15 27
23 31 29
38 52 35
31 44 26
36 52 17
51 73 21
48 71 12
48 71 23
49 76 24
51 83 15
60 92 16
49 78 21
43 66 43
0 7 24
0 0 46
0 0 50
0 0 44
0 0 42
0 0 43
0 0 46
0 0 42
0 0 41
0 0 43
0 0 47
0 0 47
0 0 42
0 0 34
0 0 34
0 0 36
0 0 33
0 0 38
0 0 40
0 0 43
0 0 51
0 0 48
0 0 42
2 0 40
5 0 45
0 0 45
0 0 46
0 0 46
0 0 32
0 0 35
3 0 44
7 0 42
0 0 41
0 0 43
0 0 42
0 0 41
0 0 41
0 0 42
0 0 44
0 0 42
0 0 41
0 0 41
0 0 46
3 3 35
7 8 39
0 0 43
7 8 39
8 9 41
0 0 47
0 0 42
0 0 42
0 0 42
0 0 42
0 0 42
0 0 42
0 0 42
0 0 42
0 0 42
0 0 42
0 0 42
0 0 42
0 0 42
0 0 42
0 0 42
0 0 42
0 0 42
0 0 42
0 0 42
0 0 42
0 0 42
0 0 42
0 0 42
0 0 42
0 0 42
0 0 42
0 0 42
0 0 42
0 0 42
0 0 42
0 0 42
0 0 42
0 0 42
0 0 42
0 0 42
0 0 42
0 0 41
20 21 51
0 0 41
14 15 41
152 157 131
220 235 255
220 235 255
220 235 255
220 235 255
220 235 255
220 235 255
220 235 255
220 235 255
220 235 255
220 235 255
220 235 255
220 235 255
220 235 255
220 235 255
220 235 255
220 235 255
220 235 255
220 235 255
220 235 255
220 235 255
220 235 255
220 235 255
220 235 255
220 235 255
220 235 255
220 235 255
220 235 255
220 235 255
220 235 255
220 235 255
220 235 255
220 235 255
220 235 255
220 235 255
220 235 255
220 235 255
220 235 255
220 235 255
220 235 255
220 235 255
220 235 255
220 235 255
220 235 255
220 235 255
220 235 255
220 235 255
220 235 255
220 235 255
220 235 255
220 235 255
220 235 255
220 235 255
220 235 255
220 235 255
220 235 255
220 235 255
220 235 255
220 235 255
220 235 255
220 235 255
220 235 255
220 235 255
220 235 255
220 235 255
220 235 255
220 235 255
220 235 255
220 235 255
220 235 255
220 235 255
220 235 255
220 235 255
220 235 255
220 235 255
220 235 255
220 235 255
220 235 255
220 235 255
220 235 255
220 235 255
220 235 255
220 235 255
220 235 255
220 235 255
220 235 255
220 235 255
220 235 255
220 235 255
220 235 255
220 235 255
220 235 255
220 235 255
220 235 255
220 235 255
220 235 255
220 235 255
220 235 255
220 235 255
220 235 255
220 235 255
220 235 255
220 235 255
220 235 255
220 235 255
220 235 255
220 235 255
220 235 255
220 235 255
220 235 255
220 235 255
220 235 255
220 235 255
220 235 255
220 235 255
220 235 255
220 235 255
220 235 255
220 235 255
220 235 255
220 235 255
220 235 255
220 235 255
220 235 255
220 235 255
220 235 255
220 235 255
220 235 255
220 235 255
220 235 255
220 235 255
220 235 255
220 235 255
220 235 255
220 235 255
220 235 255
220 235 255
220 235 255
220 235 255
220 235 255
220 235 255
220 235 255
220 235 255
220 235 255
220 235 255
220 235 255
220 235 255
220 235 255
220 235 255
220 235 255
220 235 255
220 235 255
220 235 255
220 235 255
220 235 255
220 235 255
220 235 255
220 235 255
220 235 255
220 235 255
220 235 255
220 235 255
220 235 255
220 235 255
220 235 255
220 235 255
220 235 255
220 235 255
220 235 255
220 235 255
220 235 255
220 235 255
220 235 255
220 235 255
220 235 255
220 235 255
220 235 255
220 235 255
220 235 255
220 235 255
220 235 255
220 235 255
220 235 255
220 235 255
220 235 255
220 235 255
220 235 255
220 235 255
220 235 255
220 235 255
220 235 255
220 235 255
209 224 244
0 0 42
0 0 42
0 0 42
0 0 42
0 0 42
0 0 42
0 0 42
0 0 42
0 0 42
0 0 42
0 0 42
0 0 42
0 0 42
0 0 42
0 0 42
0 0 42
0 0 42
0 0 42
0 0 42
0 0 42
0 0 42
0 0 42
0 0 42
0 0 42
0 0 42
0 0 42
0 0 42
0 0 42
0 0 42
0 0 42
0 0 42
0 0 42
0 0 42
0 0 42
0 0 42
0 0 42
0 0 42
0 0 42
0 0 42
0 0 42
0 0 42
0 0 42
0 0 42
0 0 42
0 0 42
0 0 42
0 0 42
0 0 42
0 0 42
0 0 42
0 0 42
0 0 42
0 0 42
0 0 42
0 0 42
0 0 42
0 0 42
0 0 42
0 0 42
0 0 42
0 0 42
0 0 42
0 0 42
0 0 42
0 0 42
0 0 42
0 0 42
0 0 42
0 0 42
0 0 42
0 0 42
0 0 42
0 0 42
0 0 42
0 0 42
0 0 42
0 0 42
0 0 42
0 0 42
0 0 42
0 0 42
0 0 42
0 0 42
0 0 42
0 0 42
0 0 42
0 0 42
0 0 42
0 0 42
0 0 42
0 0 42
0 0 42
0 0 42
0 0 42
0 0 42
0 0 42
0 0 42
0 0 42
0 0 42
0 0 40
0 0 42
0 0 42
0 0 42
0 0 40
0 0 36
0 0 34
0 0 41
0 0 39
0 8 24
27 39 24
52 73 32
60 84 29
46 69 12
58 87 27
65 101 28
65 102 26
55 86 27
48 71 45
9 19 27
0 0 41
0 0 39
0 0 36
0 0 45
0 0 46
0 0 43
0 0 39
0 0 36
0 0 37
0 0 40
0 0 41
0 0 42
0 0 38
0 0 42
0 0 49
0 0 48
0 0 41
0 0 41
2 0 42
6 0 44
6 0 42
4 0 40
2 0 37
9 6 36
5 6 35
0 0 39
0 0 43
0 0 34
0 0 38
0 0 50
0 0 42
0 0 40
0 0 46
0 0 45
0 0 40
0 0 42
0 0 44
0 0 46
0 0 45
0 0 42
0 0 40
0 0 50
0 0 38
9 10 39
0 0 43
12 14 44
18 21 46
0 0 48
0 0 42
0 0 42
0 0 42
0 0 42
0 0 42
0 0 42
0 0 42
0 0 42
0 0 42
0 0 42
0 0 42
0 0 42
0 0 42
0 0 42
0 0 42
0 0 42
0 0 42
0 0 42
0 0 42
0 0 42
0 0 42
0 0 42
0 0 42
0 0 42
0 0 42
0 0 42
0 0 42
0 0 42
0 0 42
0 0 42
0 0 42
0 0 42
0 0 42
0 0 42
0 0 42
0 0 42
0 0 41
0 0 40
0 0 42
0 0 42
98 108 68
207 221 236
220 235 255
220 235 255
220 235 255
220 235 255
220 235 255
220 235 255
220 235 255
220 235 255
220 235 255
220 235 255
220 235 255
220 235 255
220 235 255
220 235 255
220 235 255
220 235 255
220 235 255
220 235 255
220 235 255
220 235 255
220 235 255
220 235 255
220 235 255
220 235 255
220 235 255
220 235 255
220 235 255
220 235 255
220 235 255
220 235 255
220 235 255
220 235 255
220 235 255
220 235 255
220 235 255
220 235 255
220 235 255
220 235 255
220 235 255
220 235 255
220 235 255
220 235 255
220 235 255
220 235 255
220 235 255
220 235 255
220 235 255
220 235 255
220 235 255
220 235 255
220 235 255
220 235 255
220 235 255
220 235 255
220 235 255
220 235 255
220 235 255
220 235 255
220 235 255
220 235 255
220 235 255
220 235 255
220 235 255
220 235 255
220 235 255
220 235 255
220 235 255
220 235 255
220 235 255
220 235 255
220 235 255
220 235 255
220 235 255
220 235 255
220 235 255
220 235 255
220 235 255
220 235 255
220 235 255
220 235 255
220 235 255
220 235 255
220 235 255
220 235 255
220 235 255
220 235 255
220 235 255
220 235 255
220 235 255
220 235 255
220 235 255
220 235 255
220 235 255
220 235 255
220 235 255
220 235 255
220 235 255
220 235 255
220 235 255
220 235 255
220 235 255
220 235 255
220 235 255
220 235 255
220 235 255
220 235 255
220 235 255
220 235 255
220 235 255
220 235 255
220 235 255
220 235 255
220 235 255
220 235 255
220 235 255
220 235 255
220 235 255
220 235 255
220 235 255
220 235 255
220 235 255
220 235 255
220 235 255
220 235 255
220 235 255
220 235 255
220 235 255
220 235 255
220 235 255
220 235 255
220 235 255
220 235 255
220 235 255
220 235 255
220 235 255
220 235 255
220 235 255
220 235 255
220 235 255
220 235 255
220 235 255
220 235 255
220 235 255
220 235 255
220 235 255
220 235 255
220 235 255
220 235 255
220 235 255
220 235 255
220 235 255
220 235 255
220 235 255
220 235 255
220 235 255
220 235 255
220 235 255
220 235 255
220 235 255
220 235 255
220 235 255
220 235 255
220 235 255
220 235 255
220 235 255
220 235 255
220 235 255
220 235 255
220 235 255
220 235 255
220 235 255
220 235 255
220 235 255
220 235 255
220 235 255
220 235 255
220 235 255
220 235 255
220 235 255
220 235 255
220 235 255
220 235 255
220 235 255
220 235 255
220 235 255
220 235 255
220 235 255
220 235 255
220 235 255
220 235 255
171 183 201
0 0 42
0 0 42
0 0 42
0 0 42
0 0 42
0 0 42
0 0 42
0 0 42
0 0 42
0 0 42
0 0 42
0 0 42
0 0 42
0 0 42
0 0 42
0 0 42
0 0 42
0 0 42
0 0 42
0 0 42
0 0 42
0 0 42
0 0 42
0 0 42
0 0 42
0 0 42
0 0 42
0 0 42
0 0 42
0 0 42
0 0 42
0 0 42
0 0 42
0 0 42
0 0 42
0 0 42
0 0 42
0 0 42
0 0 42
0 0 42
0 0 42
0 0 42
0 0 42
0 0 42
0 0 42
0 0 42
0 0 42
0 0 42
0 0 42
0 0 42
0 0 42
0 0 42
0 0 42
0 0 42
0 0 42
0 0 42
0 0 42
0 0 42
0 0 42
0 0 42
0 0 42
0 0 42
0 0 42
0 0 42
0 0 42
0 0 42
0 0 42
0 0 42
0 0 42
0 0 42
0 0 42
0 0 42
0 0 42
0 0 42
0 0 42
0 0 42
0 0 42
0 0 42
0 0 42
0 0 42
0 0 42
0 0 42
0 0 42
0 0 42
0 0 42
0 0 42
0 0 42
0 0 42
0 0 42
0 0 42
0 0 42
0 0 42
0 0 42
0 0 42
0 0 42
0 0 42
0 0 42
0 0 42
0 0 42
0 0 41
0 0 40
0 0 41
0 0 42
0 0 42
0 0 38
0 0 41
0 0 45
0 0 43
0 0 39
0 9 28
32 44 38
76 96 69
66 90 43
55 83 19
69 104 42
70 106 39
60 94 30
50 75 40
4 12 23
0 0 38
0 0 38
0 0 31
0 0 43
0 0 43
0 0 40
0 0 41
0 0 41
0 0 40
0 0 40
0 0 41
0 0 42
0 0 46
0 0 47
0 0 47
0 0 50
0 0 40
0 0 38
0 0 39
0 0 35
0 0 33
7 0 41
18 17 30
100 110 92
62 73 58
0 0 28
9 5 33
18 13 38
13 16 43
8 12 43
15 14 51
4 4 36
0 0 42
0 0 39
0 0 39
0 0 40
0 0 44
0 0 46
0 0 43
0 0 41
0 0 39
0 0 45
4 4 49
2 2 39
6 6 39
4 4 35
0 0 36
0 0 40
0 0 41
0 0 42
0 0 42
0 0 42
0 0 42
0 0 42
0 0 42
0 0 42
0 0 42
0 0 42
0 0 42
0 0 42
0 0 42
0 0 42
0 0 42
0 0 42
0 0 42
0 0 42
0 0 42
0 0 42
0 0 42
0 0 42
0 0 42
0 0 42
0 0 42
0 0 42
0 0 42
0 0 42
0 0 42
0 0 42
0 0 42
0 0 42
0 0 42
0 0 42
0 0 42
0 0 42
0 0 41
0 0 42
0 0 43
0 0 42
68 78 50
176 192 196
220 235 255
220 235 255
220 235 255
220 235 255
220 235 255
220 235 255
220 235 255
220 235 255
220 235 255
220 235 255
220 235 255
220 235 255
220 235 255
220 235 255
220 235 255
220 235 255
220 235 255
220 235 255
220 235 255
220 235 255
220 235 255
220 235 255
220 235 255
220 235 255
220 235 255
220 235 255
220 235 255
220 235 255
220 235 255
220 235 255
220 235 255
220 235 255
220 235 255
220 235 255
220 235 255
220 235 255
220 235 255
220 235 255
220 235 255
220 235 255
220 235 255
220 235 255
220 235 255
220 235 255
220 235 255
220 235 255
220 235 255
220 235 255
220 235 255
220 235 255
220 235 255
220 235 255
220 235 255
220 235 255
220 235 255
220 235 255
220 235 255
220 235 255
220 235 255
220 235 255
220 235 255
220 235 255
220 235 255
220 235 255
220 235 255
220 235 255
220 235 255
220 235 255
220 235 255
220 235 255
220 235 255
220 235 255
220 235 255
220 235 255
220 235 255
220 235 255
220 235 255
220 235 255
220 235 255
220 235 255
220 235 255
220 235 255
220 235 255
220 235 255
220 235 255
220 235 255
220 235 255
220 235 255
220 235 255
220 235 255
220 235 255
220 235 255
220 235 255
220 235 255
220 235 255
220 235 255
220 235 255
220 235 255
220 235 255
220 235 255
220 235 255
220 235 255
220 235 255
220 235 255
220 235 255
220 235 255
220 235 255
220 235 255
220 235 255
220 235 255
220 235 255
220 235 255
220 235 255
220 235 255
220 235 255
220 235 255
220 235 255
220 235 255
220 235 255
220 235 255
220 235 255
220 235 255
220 235 255
220 235 255
220 235 255
220 235 255
220 235 255
220 235 255
220 235 255
220 235 255
220 235 255
220 235 255
220 235 255
220 235 255
220 235 255
220 235 255
220 235 255
220 235 255
220 235 255
220 235 255
220 235 255
220 235 255
220 235 255
220 235 255
220 235 255
220 235 255
220 235 255
220 235 255
220 235 255
220 235 255
220 235 255
220 235 255
220 235 255
220 235 255
220 235 255
220 235 255
220 235 255
220 235 255
220 235 255
220 235 255
220 235 255
220 235 255
220 235 255
220 235 255
220 235 255
220 235 255
220 235 255
220 235 255
220 235 255
220 235 255
220 235 255
220 235 255
220 235 255
220 235 255
220 235 255
220 235 255
220 235 255
220 235 255
220 235 255
220 235 255
220 235 255
220 235 255
220 235 255
220 235 255
220 235 255
220 235 255
220 235 255
220 235 255
220 235 255
220 235 255
126 135 151
0 0 42
0 0 42
0 0 42
0 0 42
0 0 42
0 0 42
0 0 42
0 0 42
0 0 42
0 0 42
0 0 42
0 0 42
0 0 42
0 0 42
0 0 42
0 0 42
0 0 42
0 0 42
0 0 42
0 0 42
0 0 42
0 0 42
0 0 42
0 0 42
0 0 42
0 0 42
0 0 42
0 0 42
0 0 42
0 0 42
0 0 42
0 0 42
0 0 42
0 0 42
0 0 42
0 0 42
0 0 42
0 0 42
0 0 42
0 0 42
0 0 42
0 0 42
0 0 42
0 0 42
0 0 42
0 0 42
0 0 42
0 0 42
0 0 42
0 0 42
0 0 42
0 0 42
0 0 42
0 0 42
0 0 42
0 0 42
0 0 42
0 0 42
0 0 42
0 0 42
0 0 42
0 0 42
0 0 42
0 0 42
0 0 42
0 0 42
0 0 42
0 0 42
0 0 42
0 0 42
0 0 42
0 0 42
0 0 42
0 0 42
0 0 42
0 0 42
0 0 42
0 0 42
0 0 42
0 0 42
0 0 42
0 0 42
0 0 42
0 0 42
0 0 42
0 0 42
0 0 42
0 0 42
0 0 42
0 0 42
0 0 42
0 0 42
0 0 42
0 0 42
0 0 42
0 0 42
0 0 42
0 0 42
0 0 42
0 0 42
0 0 42
0 0 42
0 0 42
0 0 42
0 0 42
0 0 42
0 0 36
0 0 38
0 0 42
0 7 50
0 3 36
33 43 44
53 72 47
26 43 16
46 74 40
63 97 38
60 92 35
54 76 54
0 0 27
0 0 46
0 0 41
0 0 37
0 0 38
0 0 37
0 0 38
0 0 43
0 0 48
0 0 46
0 0 41
0 0 41
0 0 44
0 0 49
0 0 50
0 0 40
0 0 35
0 0 33
0 0 37
0 0 46
0 0 41
4 6 33
41 47 39
89 97 80
138 153 115
116 139 114
0 13 26
98 92 104
85 83 86
10 12 24
5 10 27
21 17 52
5 9 37
6 7 39
19 21 54
5 5 37
1 1 38
0 0 41
0 0 45
0 0 40
0 0 36
0 0 36
0 0 38
11 12 52
2 2 47
0 0 46
0 0 42
0 0 37
0 0 33
0 0 40
0 0 42
0 0 42
0 0 42
0 0 42
0 0 42
0 0 42
0 0 42
0 0 42
0 0 42
0 0 42
0 0 42
0 0 42
0 0 42
0 0 42
0 0 42
0 0 42
0 0 42
0 0 42
0 0 42
0 0 42
0 0 42
0 0 42
0 0 42
0 0 42
0 0 42
0 0 42
0 0 42
0 0 42
0 0 42
0 0 42
0 0 42
0 0 42
0 0 42
0 0 42
0 0 42
0 0 42
0 0 42
0 0 42
0 0 42
27 33 39
142 160 153
220 235 255
220 235 255
220 235 255
220 235 255
220 235 255
220 235 255
220 235 255
220 235 255
220 235 255
220 235 255
220 235 255
220 235 255
220 235 255
220 235 255
220 235 255
220 235 255
220 235 255
220 235 255
220 235 255
220 235 255
220 235 255
220 235 255
220 235 255
220 235 255
220 235 255
220 235 255
220 235 255
220 235 255
220 235 255
220 235 255
220 235 255
220 235 255
220 235 255
220 235 255
220 235 255
220 235 255
220 235 255
220 235 255
220 235 255
220 235 255
220 235 255
220 235 255
220 235 255
220 235 255
220 235 255
220 235 255
220 235 255
220 235 255
220 235 255
220 235 255
220 235 255
220 235 255
220 235 255
220 235 255
220 235 255
220 235 255
220 235 255
220 235 255
220 235 255
220 235 255
220 235 255
220 235 255
220 235 255
220 235 255
220 235 255
220 235 255
220 235 255
220 235 255
220 235 255
220 235 255
220 235 255
220 235 255
220 235 255
220 235 255
220 235 255
220 235 255
220 235 255
220 235 255
220 235 255
220 235 255
220 235 255
220 235 255
220 235 255
220 235 255
220 235 255
220 235 255
220 235 255
220 235 255
220 235 255
220 235 255
220 235 255
220 235 255
220 235 255
220 235 255
220 235 255
220 235 255
220 235 255
220 235 255
220 235 255
220 235 255
220 235 255
220 235 255
220 235 255
220 235 255
220 235 255
220 235 255
220 235 255
220 235 255
220 235 255
220 235 255
220 235 255
220 235 255
220 235 255
220 235 255
220 235 255
220 235 255
220 235 255
220 235 255
220 235 255
220 235 255
220 235 255
220 235 255
220 235 255
220 235 255
220 235 255
220 235 255
220 235 255
220 235 255
220 235 255
220 235 255
220 235 255
220 235 255
220 235 255
220 235 255
220 235 255
220 235 255
220 235 255
220 235 255
220 235 255
220 235 255
220 235 255
220 235 255
220 235 255
220 235 255
220 235 255
220 235 255
220 235 255
220 235 255
220 235 255
220 235 255
220 235 255
220 235 255
220 235 255
220 235 255
220 235 255
220 235 255
220 235 255
220 235 255
220 235 255
220 235 255
220 235 255
220 235 255
220 235 255
220 235 255
220 235 255
220 235 255
220 235 255
220 235 255
220 235 255
220 235 255
220 235 255
220 235 255
220 235 255
220 235 255
220 235 255
220 235 255
220 235 255
220 235 255
220 235 255
220 235 255
220 235 255
220 235 255
220 235 255
220 235 255
220 235 255
220 235 255
220 235 255
220 235 255
220 235 255
220 235 255
69 74 90
0 0 42
0 0 42
0 0 42
0 0 42
0 0 42
0 0 42
0 0 42
0 0 42
0 0 42
0 0 42
0 0 42
0 0 42
0 0 42
0 0 42
0 0 42
0 0 42
0 0 42
0 0 42
0 0 42
0 0 42
0 0 42
0 0 42
0 0 42
0 0 42
0 0 42
0 0 42
0 0 42
0 0 42
0 0 42
0 0 42
0 0 42
0 0 42
0 0 42
0 0 42
0 0 42
0 0 42
0 0 42
0 0 42
0 0 42
0 0 42
0 0 42
0 0 42
0 0 42
0 0 42
0 0 42
0 0 42
0 0 42
0 0 42
0 0 42
0 0 42
0 0 42
0 0 42
0 0 42
0 0 42
0 0 42
0 0 42
0 0 42
0 0 42
0 0 42
0 0 42
0 0 42
0 0 42
0 0 42
0 0 42
0 0 42
0 0 42
0 0 42
0 0 42
0 0 42
0 0 42
0 0 42
0 0 42
0 0 42
0 0 42
0 0 42
0 0 42
0 0 42
0 0 42
0 0 42
0 0 42
0 0 42
0 0 42
0 0 42
0 0 42
0 0 42
0 0 42
0 0 42
0 0 42
0 0 42
0 0 42
0 0 42
0 0 42
0 0 42
0 0 42
0 0 42
0 0 42
0 0 42
0 0 42
0 0 42
0 0 42
0 0 42
0 0 42
0 0 42
0 0 39
0 0 37
0 0 41
0 0 41
0 0 39
0 0 35
0 0 40
0 0 50
6 9 33
32 43 39
42 57 45
22 38 22
54 87 26
55 84 39
39 55 40
0 1 32
0 0 44
0 0 41
0 0 42
0 0 43
0 0 40
0 0 41
0 0 44
0 0 44
0 0 41
0 0 35
0 0 31
0 0 37
0 0 45
0 0 50
0 0 46
0 0 29
0 0 24
5 9 25
10 16 37
12 20 40
31 39 40
74 86 59
111 127 78
70 79 52
30 53 51
0 18 28
82 79 60
131 135 114
59 71 63
47 59 55
0 0 35
0 0 39
0 0 39
16 18 48
6 7 42
3 3 38
0 0 42
0 0 45
0 0 37
0 0 37
0 0 36
0 0 40
1 1 39
0 0 39
4 4 47
0 0 47
0 0 36
0 0 40
0 0 41
0 0 42
0 0 42
0 0 42
0 0 42
0 0 42
0 0 42
0 0 42
0 0 42
0 0 42
0 0 42
0 0 42
0 0 42
0 0 42
0 0 42
0 0 42
0 0 42
0 0 42
0 0 42
0 0 42
0 0 42
0 0 42
0 0 42
0 0 42
0 0 42
0 0 42
0 0 42
0 0 42
0 0 42
0 0 42
0 0 42
0 0 42
0 0 42
0 0 42
0 0 42
0 0 42
0 0 42
0 0 42
0 0 42
0 0 42
0 0 40
89 109 83
219 234 254
220 235 255
220 235 255
220 235 255
220 235 255
220 235 255
220 235 255
220 235 255
220 235 255
220 235 255
220 235 255
220 235 255
220 235 255
220 235 255
220 235 255
220 235 255
220 235 255
220 235 255
220 235 255
220 235 255
220 235 255
220 235 255
220 235 255
220 235 255
220 235 255
220 235 255
220 235 255
220 235 255
220 235 255
220 235 255
220 235 255
220 235 255
220 235 255
220 235 255
220 235 255
220 235 255
220 235 255
220 235 255
220 235 255
220 235 255
220 235 255
220 235 255
220 235 255
220 235 255
220 235 255
220 235 255
220 235 255
220 235 255
220 235 255
220 235 255
220 235 255
220 235 255
220 235 255
220 235 255
220 235 255
220 235 255
220 235 255
220 235 255
220 235 255
220 235 255
220 235 255
220 235 255
220 235 255
220 235 255
220 235 255
220 235 255
220 235 255
220 235 255
220 235 255
220 235 255
220 235 255
220 235 255
220 235 255
220 235 255
220 235 255
220 235 255
220 235 255
220 235 255
220 235 255
220 235 255
220 235 255
220 235 255
220 235 255
220 235 255
220 235 255
220 235 255
220 235 255
220 235 255
220 235 255
220 235 255
220 235 255
220 235 255
220 235 255
220 235 255
220 235 255
220 235 255
220 235 255
220 235 255
220 235 255
220 235 255
220 235 255
220 235 255
220 235 255
220 235 255
220 235 255
220 235 255
220 235 255
220 235 255
220 235 255
220 235 255
220 235 255
220 235 255
220 235 255
220 235 255
220 235 255
220 235 255
220 235 255
220 235 255
220 235 255
220 235 255
220 235 255
220 235 255
220 235 255
220 235 255
220 235 255
220 235 255
220 235 255
220 235 255
220 235 255
220 235 255
220 235 255
220 235 255
220 235 255
220 235 255
220 235 255
220 235 255
220 235 255
220 235 255
220 235 255
220 235 255
220 235 255
220 235 255
220 235 255
220 235 255
220 235 255
220 235 255
220 235 255
220 235 255
220 235 255
220 235 255
220 235 255
220 235 255
220 235 255
220 235 255
220 235 255
220 235 255
220 235 255
220 235 255
220 235 255
220 235 255
220 235 255
220 235 255
220 235 255
220 235 255
220 235 255
220 235 255
220 235 255
220 235 255
220 235 255
220 235 255
220 235 255
220 235 255
220 235 255
220 235 255
220 235 255
220 235 255
220 235 255
220 235 255
220 235 255
220 235 255
220 235 255
220 235 255
220 235 255
220 235 255
220 235 255
220 235 255
220 235 255
220 235 255
220 235 255
206 220 240
0 0 42
0 0 42
0 0 42
0 0 42
0 0 42
0 0 42
0 0 42
0 0 42
0 0 42
0 0 42
0 0 42
0 0 42
0 0 42
0 0 42
0 0 42
0 0 42
0 0 42
0 0 42
0 0 42
0 0 42
0 0 42
0 0 42
0 0 42
0 0 42
0 0 42
0 0 42
0 0 42
0 0 42
0 0 42
0 0 42
0 0 42
0 0 42
0 0 42
0 0 42
0 0 42
0 0 42
0 0 42
0 0 42
0 0 42
0 0 42
0 0 42
0 0 42
0 0 42
0 0 42
0 0 42
0 0 42
0 0 42
0 0 42
0 0 42
0 0 42
0 0 42
0 0 42
0 0 42
0 0 42
0 0 42
0 0 42
0 0 42
0 0 42
0 0 42
0 0 42
0 0 42
0 0 42
0 0 42
0 0 42
0 0 40
0 0 42
0 0 42
0 0 42
0 0 42
0 0 42
0 0 42
0 0 42
0 0 42
0 0 42
0 0 42
0 0 42
0 0 42
0 0 42
0 0 42
0 0 42
0 0 42
0 0 42
0 0 42
0 0 42
0 0 42
0 0 42
0 0 42
0 0 42
0 0 42
0 0 42
0 0 42
0 0 42
0 0 42
0 0 42
0 0 42
0 0 42
0 0 42
0 0 42
0 0 42
0 0 42
0 0 42
0 0 42
0 0 42
0 0 42
0 0 40
0 0 38
0 0 43
0 0 46
0 0 40
0 0 34
0 0 35
0 0 41
0 8 39
0 0 17
44 61 49
47 74 38
64 97 36
57 88 32
53 74 54
7 10 29
0 0 38
0 0 45
1 0 39
4 0 41
7 0 49
0 0 49
0 0 42
0 0 41
0 0 32
0 0 26
0 7 29
0 2 33
0 0 38
0 0 46
0 0 48
0 0 34
21 28 36
56 73 64
35 54 25
43 63 25
41 58 22
52 67 17
51 60 27
88 91 74
67 87 53
110 133 93
117 114 74
87 77 35
66 75 39
73 88 44
62 64 48
0 0 35
0 0 39
0 0 36
0 0 33
7 8 35
6 8 42
3 4 36
30 35 70
0 0 33
0 0 35
4 6 35
0 7 29
3 7 25
9 10 42
0 0 39
0 0 42
0 0 46
0 0 47
0 0 42
0 0 42
0 0 42
0 0 42
0 0 42
0 0 42
0 0 42
0 0 42
0 0 42
0 0 42
0 0 42
0 0 42
0 0 42
0 0 42
0 0 42
0 0 42
0 0 42
0 0 42
0 0 42
0 0 42
0 0 42
0 0 42
0 0 42
0 0 42
0 0 42
0 0 42
0 0 42
0 0 42
0 0 42
0 0 42
0 0 42
0 0 42
0 0 42
0 0 42
0 0 42
0 0 42
0 0 42
0 0 42
0 0 42
0 0 42
54 75 39
206 221 238
220 235 255
220 235 255
220 235 255
220 235 255
220 235 255
220 235 255
220 235 255
220 235 255
220 235 255
220 235 255
220 235 255
220 235 255
220 235 255
220 235 255
220 235 255
220 235 255
220 235 255
220 235 255
220 235 255
220 235 255
220 235 255
220 235 255
220 235 255
220 235 255
220 235 255
220 235 255
220 235 255
220 235 255
220 235 255
220 235 255
220 235 255
220 235 255
220 235 255
220 235 255
220 235 255
220 235 255
220 235 255
220 235 255
220 235 255
220 235 255
220 235 255
220 235 255
220 235 255
220 235 255
220 235 255
220 235 255
220 235 255
220 235 255
220 235 255
220 235 255
220 235 255
220 235 255
220 235 255
220 235 255
220 235 255
220 235 255
220 235 255
220 235 255
220 235 255
220 235 255
220 235 255
220 235 255
220 235 255
220 235 255
220 235 255
220 235 255
220 235 255
220 235 255
220 235 255
220 235 255
220 235 255
220 235 255
220 235 255
220 235 255
220 235 255
220 235 255
220 235 255
220 235 255
220 235 255
220 235 255
220 235 255
220 235 255
220 235 255
220 235 255
220 235 255
220 235 255
220 235 255
220 235 255
220 235 255
220 235 255
220 235 255
220 235 255
220 235 255
220 235 255
220 235 255
220 235 255
220 235 255
220 235 255
220 235 255
220 235 255
220 235 255
220 235 255
220 235 255
220 235 255
220 235 255
220 235 255
220 235 255
220 235 255
220 235 255
220 235 255
220 235 255
220 235 255
220 235 255
220 235 255
220 235 255
220 235 255
220 235 255
220 235 255
220 235 255
220 235 255
220 235 255
220 235 255
220 235 255
220 235 255
220 235 255
220 235 255
220 235 255
220 235 255
220 235 255
220 235 255
220 235 255
220 235 255
220 235 255
220 235 255
220 235 255
220 235 255
220 235 255
220 235 255
220 235 255
220 235 255
220 235 255
220 235 255
220 235 255
220 235 255
220 235 255
220 235 255
220 235 255
220 235 255
220 235 255
220 235 255
220 235 255
220 235 255
220 235 255
220 235 255
220 235 255
220 235 255
220 235 255
220 235 255
220 235 255
220 235 255
220 235 255
220 235 255
220 235 255
220 235 255
220 235 255
220 235 255
220 235 255
220 235 255
220 235 255
220 235 255
220 235 255
220 235 255
220 235 255
220 235 255
220 235 255
220 235 255
220 235 255
220 235 255
220 235 255
220 235 255
220 235 255
220 235 255
220 235 255
220 235 255
220 235 255
220 235 255
220 235 255
220 235 255
180 192 210
0 0 42
0 0 42
0 0 42
0 0 42
0 0 42
0 0 42
0 0 42
0 0 42
0 0 42
0 0 42
0 0 42
0 0 42
0 0 42
0 0 42
0 0 42
0 0 42
0 0 42
0 0 42
0 0 42
0 0 42
0 0 42
0 0 42
0 0 42
0 0 42
0 0 42
0 0 42
0 0 42
0 0 42
0 0 42
0 0 42
0 0 42
0 0 42
0 0 42
0 0 42
0 0 42
0 0 42
0 0 42
0 0 42
0 0 42
0 0 42
0 0 42
0 0 42
0 0 42
0 0 42
0 0 42
0 0 42
0 0 42
0 0 42
0 0 42
0 0 42
0 0 42
0 0 42
0 0 42
0 0 42
0 0 42
0 0 42
0 0 42
0 0 42
0 0 42
0 0 42
0 0 42
0 0 42
0 0 42
0 0 42
0 0 42
0 0 42
0 0 42
0 0 42
0 0 42
0 0 42
0 0 42
0 0 42
0 0 42
0 0 42
0 0 42
0 0 42
0 0 42
0 0 42
0 0 42
0 0 42
0 0 42
0 0 42
0 0 42
0 0 42
0 0 42
0 0 42
0 0 42
0 0 42
0 0 42
0 0 42
0 0 42
0 0 42
0 0 42
0 0 42
0 0 42
0 0 42
0 0 42
0 0 42
0 0 42
0 0 42
0 0 42
0 0 42
0 0 42
0 0 42
0 0 43
0 0 49
0 0 47
0 0 42
0 0 38
0 0 39
0 0 44
0 0 50
0 0 37
0 6 16
46 61 49
45 71 29
56 87 22
55 85 16
67 94 44
28 40 21
0 0 34
0 0 46
5 0 46
5 0 40
0 0 41
0 0 46
0 0 45
0 0 44
0 0 49
0 0 54
0 0 48
0 0 46
0 0 41
0 0 36
0 0 39
16 22 28
61 79 59
58 82 38
43 69 13
31 53 7
43 62 22
47 63 24
60 75 30
108 121 85
60 83 43
47 72 22
75 77 33
91 88 46
58 71 27
50 70 7
53 65 24
23 32 22
29 41 16
39 53 33
28 39 33
9 15 28
4 8 36
2 4 27
31 41 53
37 48 25
36 49 22
32 44 47
3 5 29
45 57 58
23 29 33
0 0 48
0 0 48
0 0 50
0 0 46
0 0 42
0 0 42
0 0 42
0 0 42
0 0 42
0 0 42
0 0 42
0 0 42
0 0 42
0 0 42
0 0 42
0 0 42
0 0 42
0 0 42
0 0 42
0 0 42
0 0 42
0 0 42
0 0 42
0 0 42
0 0 42
0 0 42
0 0 42
0 0 42
0 0 42
0 0 42
0 0 42
0 0 42
0 0 42
0 0 42
0 0 42
0 0 42
0 0 42
0 0 42
0 0 42
0 0 42
0 0 42
0 0 42
0 0 42
0 0 42
40 61 46
178 192 203
220 235 255
220 235 255
220 235 255
220 235 255
220 235 255
220 235 255
220 235 255
220 235 255
220 235 255
220 235 255
220 235 255
220 235 255
220 235 255
220 235 255
220 235 255
220 235 255
220 235 255
220 235 255
220 235 255
220 235 255
220 235 255
220 235 255
220 235 255
220 235 255
220 235 255
220 235 255
220 235 255
220 235 255
220 235 255
220 235 255
220 235 255
220 235 255
220 235 255
220 235 255
220 235 255
220 235 255
220 235 255
220 235 255
220 235 255
220 235 255
220 235 255
220 235 255
220 235 255
220 235 255
220 235 255
220 235 255
220 235 255
220 235 255
220 235 255
220 235 255
220 235 255
220 235 255
220 235 255
220 235 255
220 235 255
220 235 255
220 235 255
220 235 255
220 235 255
220 235 255
220 235 255
220 235 255
220 235 255
220 235 255
220 235 255
220 235 255
220 235 255
220 235 255
220 235 255
220 235 255
220 235 255
220 235 255
220 235 255
220 235 255
220 235 255
220 235 255
220 235 255
220 235 255
220 235 255
220 235 255
220 235 255
220 235 255
220 235 255
220 235 255
220 235 255
220 235 255
220 235 255
220 235 255
220 235 255
220 235 255
220 235 255
220 235 255
220 235 255
220 235 255
220 235 255
220 235 255
220 235 255
220 235 255
220 235 255
220 235 255
220 235 255
220 235 255
220 235 255
220 235 255
220 235 255
220 235 255
220 235 255
220 235 255
220 235 255
220 235 255
220 235 255
220 235 255
220 235 255
220 235 255
220 235 255
220 235 255
220 235 255
220 235 255
220 235 255
220 235 255
220 235 255
220 235 255
220 235 255
220 235 255
220 235 255
220 235 255
220 235 255
220 235 255
220 235 255
220 235 255
220 235 255
220 235 255
220 235 255
220 235 255
220 235 255
220 235 255
220 235 255
220 235 255
220 235 255
220 235 255
220 235 255
220 235 255
220 235 255
220 235 255
220 235 255
220 235 255
220 235 255
220 235 255
220 235 255
220 235 255
220 235 255
220 235 255
220 235 255
220 235 255
220 235 255
220 235 255
220 235 255
220 235 255
220 235 255
220 235 255
220 235 255
220 235 255
220 235 255
220 235 255
220 235 255
220 235 255
220 235 255
220 235 255
220 235 255
220 235 255
220 235 255
220 235 255
220 235 255
220 235 255
220 235 255
220 235 255
220 235 255
220 235 255
220 235 255
220 235 255
220 235 255
220 235 255
220 235 255
220 235 255
220 235 255
220 235 255
220 235 255
220 235 255
139 148 165
0 0 42
0 0 42
0 0 42
0 0 42
0 0 42
0 0 42
0 0 42
0 0 42
0 0 42
0 0 42
0 0 42
0 0 42
0 0 42
0 0 42
0 0 42
0 0 42
0 0 42
0 0 42
0 0 42
0 0 42
0 0 42
0 0 42
0 0 42
0 0 42
0 0 42
0 0 42
0 0 42
0 0 42
0 0 42
0 0 42
0 0 42
0 0 42
0 0 42
0 0 42
0 0 42
0 0 42
0 0 42
0 0 42
0 0 42
0 0 42
0 0 42
0 0 42
0 0 42
0 0 42
0 0 42
0 0 42
0 0 42
0 0 42
0 0 42
0 0 42
0 0 42
0 0 42
0 0 42
0 0 42
0 0 42
0 0 42
0 0 42
0 0 42
0 0 42
0 0 42
0 0 42
0 0 42
0 0 40
0 0 42
0 0 42
0 0 42
0 0 40
0 0 42
0 0 42
0 0 42
0 0 42
0 0 42
0 0 42
0 0 42
0 0 42
0 0 42
0 0 42
0 0 42
0 0 42
0 0 42
0 0 42
0 0 42
0 0 42
0 0 42
0 0 42
0 0 42
0 0 42
0 0 42
0 0 42
0 0 42
0 0 42
0 0 42
0 0 42
0 0 42
0 0 42
0 0 42
0 0 42
0 0 42
0 0 42
0 0 42
0 0 42
0 0 42
0 0 42
0 0 42
0 0 42
0 0 47
0 0 44
0 0 41
0 0 43
0 0 46
0 0 46
0 0 39
0 0 35
0 3 26
30 42 42
40 59 42
41 63 25
51 75 32
55 79 24
43 63 28
21 30 23
0 0 32
0 0 39
0 0 38
0 0 45
0 0 43
0 0 36
0 3 37
0 1 37
0 0 47
0 0 57
0 0 53
0 0 45
0 0 34
0 0 35
18 25 26
50 71 38
53 78 11
47 73 6
54 78 24
61 83 31
32 49 9
65 86 29
55 66 36
27 41 23
46 68 41
72 82 45
96 103 62
93 108 63
42 62 0
55 76 24
59 81 43
57 80 27
53 75 21
49 68 36
35 54 33
38 56 32
39 55 33
41 57 29
49 64 18
43 61 0
35 52 18
22 34 11
51 63 57
22 27 34
0 0 58
0 0 44
0 0 33
0 0 43
0 0 42
0 0 42
0 0 42
0 0 42
0 0 42
0 0 42
0 0 42
0 0 42
0 0 42
0 0 42
0 0 42
0 0 42
0 0 42
0 0 42
0 0 42
0 0 42
0 0 42
0 0 42
0 0 42
0 0 42
0 0 42
0 0 42
0 0 42
0 0 42
0 0 42
0 0 42
0 0 42
0 0 42
0 0 42
0 0 42
0 0 42
0 0 42
0 0 42
0 0 42
0 0 42
0 0 42
0 0 42
0 0 42
0 0 42
0 0 42
22 36 45
157 171 178
220 235 255
220 235 255
220 235 255
220 235 255
220 235 255
220 235 255
220 235 255
220 235 255
220 235 255
220 235 255
220 235 255
220 235 255
220 235 255
220 235 255
220 235 255
220 235 255
220 235 255
220 235 255
220 235 255
220 235 255
220 235 255
220 235 255
220 235 255
220 235 255
220 235 255
220 235 255
220 235 255
220 235 255
220 235 255
220 235 255
220 235 255
220 235 255
220 235 255
220 235 255
220 235 255
220 235 255
220 235 255
220 235 255
220 235 255
220 235 255
220 235 255
220 235 255
220 235 255
220 235 255
220 235 255
220 235 255
220 235 255
220 235 255
220 235 255
220 235 255
220 235 255
220 235 255
220 235 255
220 235 255
220 235 255
220 235 255
220 235 255
220 235 255
220 235 255
220 235 255
220 235 255
220 235 255
220 235 255
220 235 255
220 235 255
220 235 255
220 235 255
220 235 255
220 235 255
220 235 255
220 235 255
220 235 255
220 235 255
220 235 255
220 235 255
220 235 255
220 235 255
220 235 255
220 235 255
220 235 255
220 235 255
220 235 255
220 235 255
220 235 255
220 235 255
220 235 255
220 235 255
220 235 255
220 235 255
220 235 255
220 235 255
220 235 255
220 235 255
220 235 255
220 235 255
220 235 255
220 235 255
220 235 255
220 235 255
220 235 255
220 235 255
220 235 255
220 235 255
220 235 255
220 235 255
220 235 255
220 235 255
220 235 255
220 235 255
220 235 255
220 235 255
220 235 255
220 235 255
220 235 255
220 235 255
220 235 255
220 235 255
220 235 255
220 235 255
220 235 255
220 235 255
220 235 255
220 235 255
220 235 255
220 235 255
220 235 255
220 235 255
220 235 255
220 235 255
220 235 255
220 235 255
220 235 255
220 235 255
220 235 255
220 235 255
220 235 255
220 235 255
220 235 255
220 235 255
220 235 255
220 235 255
220 235 255
220 235 255
220 235 255
220 235 255
220 235 255
220 235 255
220 235 255
220 235 255
220 235 255
220 235 255
220 235 255
220 235 255
220 235 255
220 235 255
220 235 255
220 235 255
220 235 255
220 235 255
220 235 255
220 235 255
220 235 255
220 235 255
220 235 255
220 235 255
220 235 255
220 235 255
220 235 255
220 235 255
220 235 255
220 235 255
220 235 255
220 235 255
220 235 255
220 235 255
220 235 255
220 235 255
220 235 255
220 235 255
220 235 255
220 235 255
220 235 255
220 235 255
220 235 255
220 235 255
220 235 255
220 235 255
220 235 255
122 131 146
0 0 42
0 0 42
0 0 42
0 0 42
0 0 42
0 0 42
0 0 42
0 0 42
0 0 42
0 0 42
0 0 42
0 0 42
0 0 42
0 0 42
0 0 42
0 0 42
0 0 42
0 0 42
0 0 42
0 0 42
0 0 42
0 0 42
0 0 42
0 0 42
0 0 42
0 0 42
0 0 42
0 0 42
0 0 42
0 0 42
0 0 42
0 0 42
0 0 42
0 0 42
0 0 42
0 0 42
0 0 42
0 0 42
0 0 42
0 0 42
0 0 42
0 0 42
0 0 42
0 0 42
0 0 42
0 0 42
0 0 42
0 0 42
0 0 42
0 0 42
0 0 42
0 0 42
0 0 42
0 0 42
0 0 42
0 0 42
0 0 42
0 0 42
0 0 42
0 0 42
0 0 42
0 0 42
0 0 42
0 0 42
0 0 42
0 0 42
0 0 42
0 0 42
0 0 42
0 0 42
0 0 42
0 0 42
0 0 42
0 0 42
0 0 42
0 0 42
0 0 42
0 0 42
0 0 42
0 0 42
0 0 42
0 0 42
0 0 42
0 0 42
0 0 42
0 0 42
0 0 42
0 0 42
0 0 42
0 0 42
0 0 42
0 0 42
0 0 42
0 0 42
0 0 42
0 0 42
0 0 42
0 0 42
0 0 42
0 0 42
0 0 42
0 0 42
0 0 42
0 0 42
0 0 42
0 0 42
0 0 38
0 0 37
0 0 42
0 0 47
0 0 42
0 0 36
0 0 34
0 0 43
0 0 41
20 29 29
18 26 25
42 58 46
45 63 44
32 50 17
40 58 23
28 39 24
3 5 34
0 0 45
0 0 53
0 0 37
0 9 17
39 52 34
37 51 28
21 33 24
2 8 25
0 0 39
0 0 45
0 0 38
6 12 25
24 38 25
55 78 39
57 81 26
54 78 17
56 79 25
56 77 32
29 49 9
57 82 27
30 43 24
0 0 10
55 79 44
51 71 29
49 60 17
53 66 22
48 71 15
45 71 13
56 80 15
54 77 11
50 76 6
59 87 19
51 81 7
47 75 16
46 69 19
63 83 28
71 87 31
62 79 22
39 60 12
40 62 14
38 54 22
21 29 34
2 4 41
0 0 36
0 0 36
0 0 39
0 0 42
0 0 42
0 0 42
0 0 42
0 0 42
0 0 42
0 0 42
0 0 42
0 0 42
0 0 42
0 0 42
0 0 42
0 0 42
0 0 42
0 0 42
0 0 42
0 0 42
0 0 42
0 0 42
0 0 42
0 0 42
0 0 42
0 0 42
0 0 42
0 0 42
0 0 42
0 0 42
0 0 42
0 0 42
0 0 42
0 0 42
0 0 42
0 0 42
0 0 42
0 0 42
0 0 42
0 0 42
0 0 42
0 0 42
0 0 42
3 6 40
130 144 148
220 235 255
220 235 255
220 235 255
220 235 255
220 235 255
220 235 255
220 235 255
220 235 255
220 235 255
220 235 255
220 235 255
220 235 255
220 235 255
220 235 255
220 235 255
220 235 255
220 235 255
220 235 255
220 235 255
220 235 255
220 235 255
220 235 255
220 235 255
220 235 255
220 235 255
220 235 255
220 235 255
220 235 255
220 235 255
220 235 255
220 235 255
220 235 255
220 235 255
220 235 255
220 235 255
220 235 255
220 235 255
220 235 255
220 235 255
220 235 255
220 235 255
220 235 255
220 235 255
220 235 255
220 235 255
220 235 255
220 235 255
220 235 255
220 235 255
220 235 255
220 235 255
220 235 255
220 235 255
220 235 255
220 235 255
220 235 255
220 235 255
220 235 255
220 235 255
220 235 255
220 235 255
220 235 255
220 235 255
220 235 255
220 235 255
220 235 255
220 235 255
220 235 255
220 235 255
220 235 255
220 235 255
220 235 255
220 235 255
220 235 255
220 235 255
220 235 255
220 235 255
220 235 255
220 235 255
220 235 255
220 235 255
220 235 255
220 235 255
220 235 255
220 235 255
220 235 255
220 235 255
220 235 255
220 235 255
220 235 255
220 235 255
220 235 255
220 235 255
220 235 255
220 235 255
220 235 255
220 235 255
220 235 255
220 235 255
220 235 255
220 235 255
220 235 255
220 235 255
220 235 255
220 235 255
220 235 255
220 235 255
220 235 255
220 235 255
220 235 255
220 235 255
220 235 255
220 235 255
220 235 255
220 235 255
220 235 255
220 235 255
220 235 255
220 235 255
220 235 255
220 235 255
220 235 255
220 235 255
220 235 255
220 235 255
220 235 255
220 235 255
220 235 255
220 235 255
220 235 255
220 235 255
220 235 255
220 235 255
220 235 255
220 235 255
220 235 255
220 235 255
220 235 255
220 235 255
220 235 255
220 235 255
220 235 255
220 235 255
220 235 255
220 235 255
220 235 255
220 235 255
220 235 255
220 235 255
220 235 255
220 235 255
220 235 255
220 235 255
220 235 255
220 235 255
220 235 255
220 235 255
220 235 255
220 235 255
220 235 255
220 235 255
220 235 255
220 235 255
220 235 255
220 235 255
220 235 255
220 235 255
220 235 255
220 235 255
220 235 255
220 235 255
220 235 255
220 235 255
220 235 255
220 235 255
220 235 255
220 235 255
220 235 255
220 235 255
220 235 255
220 235 255
220 235 255
220 235 255
220 235 255
220 235 255
220 235 255
220 235 255
219 234 254
22 23 49
0 0 42
0 0 42
0 0 42
0 0 42
0 0 42
0 0 42
0 0 42
0 0 42
0 0 42
0 0 42
0 0 42
0 0 42
0 0 42
0 0 42
0 0 42
0 0 42
0 0 42
0 0 42
0 0 42
0 0 42
0 0 42
0 0 42
0 0 42
0 0 42
0 0 42
0 0 42
0 0 42
0 0 42
0 0 42
0 0 42
0 0 42
0 0 42
0 0 42
0 0 42
0 0 42
0 0 42
0 0 42
0 0 42
0 0 42
0 0 42
0 0 42
0 0 42
0 0 42
0 0 42
0 0 42
0 0 42
0 0 42
0 0 42
0 0 42
0 0 42
0 0 42
0 0 42
0 0 42
0 0 42
0 0 42
0 0 42
0 0 42
0 0 42
0 0 42
0 0 42
0 0 42
0 0 42
0 0 42
0 0 41
0 0 40
0 0 42
0 0 42
0 0 42
0 0 42
0 0 42
0 0 42
0 0 42
0 0 42
0 0 42
0 0 42
0 0 42
0 0 42
0 0 42
0 0 42
0 0 42
0 0 42
0 0 42
0 0 42
0 0 42
0 0 42
0 0 42
0 0 42
0 0 42
0 0 42
0 0 42
0 0 42
0 0 42
0 0 42
0 0 42
0 0 42
0 0 42
0 0 42
0 0 42
0 0 42
0 0 42
0 0 42
0 0 42
0 0 42
0 0 42
0 0 42
0 0 40
0 0 37
0 0 37
0 0 40
0 0 43
0 0 42
0 0 36
0 0 40
0 0 48
0 0 53
0 0 43
0 0 45
0 0 36
28 36 34
47 66 32
39 64 0
39 62 3
27 42 16
15 24 27
7 15 25
29 46 28
54 75 47
67 86 67
50 66 44
62 82 53
59 80 46
31 45 30
0 0 30
0 0 34
47 66 47
81 114 73
67 96 41
63 89 31
52 76 12
50 72 20
39 57 23
21 42 5
41 66 20
48 67 36
37 51 23
58 84 34
47 74 23
33 53 5
45 69 9
49 80 17
39 72 9
52 81 17
57 81 21
57 79 19
58 83 16
62 90 19
57 85 18
55 78 14
77 95 36
84 98 40
83 97 40
54 76 18
40 62 11
41 62 14
53 72 43
45 56 45
0 0 34
0 0 44
0 0 43
0 0 42
0 0 40
0 0 41
0 0 42
0 0 42
0 0 41
0 0 42
0 0 42
0 0 42
0 0 42
0 0 42
0 0 42
0 0 42
0 0 42
0 0 42
0 0 42
0 0 42
0 0 42
0 0 42
0 0 42
0 0 42
0 0 42
0 0 42
0 0 42
0 0 42
0 0 42
0 0 42
0 0 42
0 0 42
0 0 42
0 0 42
0 0 42
0 0 42
0 0 42
0 0 42
0 0 42
0 0 42
0 0 42
0 0 42
0 0 42
0 0 42
79 89 86
219 234 254
220 235 255
220 235 255
220 235 255
220 235 255
220 235 255
220 235 255
220 235 255
220 235 255
220 235 255
220 235 255
220 235 255
220 235 255
220 235 255
220 235 255
220 235 255
220 235 255
220 235 255
220 235 255
220 235 255
220 235 255
220 235 255
220 235 255
220 235 255
220 235 255
220 235 255
220 235 255
220 235 255
220 235 255
220 235 255
220 235 255
220 235 255
220 235 255
220 235 255
220 235 255
220 235 255
220 235 255
220 235 255
220 235 255
220 235 255
220 235 255
220 235 255
220 235 255
220 235 255
220 235 255
220 235 255
220 235 255
220 235 255
220 235 255
220 235 255
220 235 255
220 235 255
220 235 255
220 235 255
220 235 255
220 235 255
220 235 255
220 235 255
220 235 255
220 235 255
220 235 255
220 235 255
220 235 255
220 235 255
220 235 255
220 235 255
220 235 255
220 235 255
220 235 255
220 235 255
220 235 255
220 235 255
220 235 255
220 235 255
220 235 255
220 235 255
220 235 255
220 235 255
220 235 255
220 235 255
220 235 255
220 235 255
220 235 255
220 235 255
220 235 255
220 235 255
220 235 255
220 235 255
220 235 255
220 235 255
220 235 255
220 235 255
220 235 255
220 235 255
220 235 255
220 235 255
220 235 255
220 235 255
220 235 255
220 235 255
220 235 255
220 235 255
220 235 255
220 235 255
220 235 255
220 235 255
220 235 255
220 235 255
220 235 255
220 235 255
220 235 255
220 235 255
220 235 255
220 235 255
220 235 255
220 235 255
220 235 255
220 235 255
220 235 255
220 235 255
220 235 255
220 235 255
220 235 255
220 235 255
220 235 255
220 235 255
220 235 255
220 235 255
220 235 255
220 235 255
220 235 255
220 235 255
220 235 255
220 235 255
220 235 255
220 235 255
220 235 255
220 235 255
220 235 255
220 235 255
220 235 255
220 235 255
220 235 255
220 235 255
220 235 255
220 235 255
220 235 255
220 235 255
220 235 255
220 235 255
220 235 255
220 235 255
220 235 255
220 235 255
220 235 255
220 235 255
220 235 255
220 235 255
220 235 255
220 235 255
220 235 255
220 235 255
220 235 255
220 235 255
220 235 255
220 235 255
220 235 255
220 235 255
220 235 255
220 235 255
220 235 255
220 235 255
220 235 255
220 235 255
220 235 255
220 235 255
220 235 255
220 235 255
220 235 255
220 235 255
220 235 255
220 235 255
220 235 255
220 235 255
220 235 255
220 235 255
220 235 255
199 213 232
0 0 42
0 0 42
0 0 42
0 0 42
0 0 42
0 0 42
0 0 42
0 0 42
0 0 42
0 0 42
0 0 42
0 0 42
0 0 42
0 0 42
0 0 42
0 0 42
0 0 42
0 0 42
0 0 42
0 0 42
0 0 42
0 0 42
0 0 42
0 0 42
0 0 42
0 0 42
0 0 42
0 0 42
0 0 42
0 0 42
0 0 42
0 0 42
0 0 42
0 0 42
0 0 42
0 0 42
0 0 42
0 0 42
0 0 42
0 0 42
0 0 42
0 0 42
0 0 42
0 0 42
0 0 42
0 0 42
0 0 42
0 0 42
0 0 42
0 0 42
0 0 42
0 0 42
0 0 42
0 0 42
0 0 42
0 0 42
0 0 42
0 0 42
0 0 42
0 0 42
0 0 42
0 0 42
0 0 42
0 0 42
0 0 42
0 0 42
0 0 42
0 0 42
0 0 42
0 0 42
0 0 42
0 0 42
0 0 42
0 0 42
0 0 42
0 0 42
0 0 42
0 0 42
0 0 42
0 0 42
0 0 42
0 0 42
0 0 42
0 0 42
0 0 42
0 0 42
0 0 42
0 0 42
0 0 42
0 0 42
0 0 42
0 0 42
0 0 42
0 0 42
0 0 42
0 0 42
0 0 42
0 0 42
0 0 42
0 0 42
0 0 42
0 0 42
0 0 42
0 0 42
0 0 42
0 0 42
0 0 42
0 0 41
0 0 41
0 0 42
0 0 42
0 0 42
0 0 41
0 0 42
0 0 42
0 0 45
0 0 50
0 0 48
0 0 38
9 14 25
31 46 30
49 71 38
66 92 45
55 81 35
50 75 35
43 69 25
51 80 28
59 87 46
30 41 40
9 13 30
29 41 35
60 83 41
55 81 37
33 50 35
29 43 45
77 108 74
70 106 43
61 93 29
56 85 21
49 75 8
47 71 15
43 66 17
25 50 0
36 63 16
55 77 31
59 75 30
58 77 34
36 55 7
48 74 16
43 72 10
43 75 9
43 76 0
45 78 8
53 75 13
82 99 41
78 95 36
66 83 23
59 75 18
67 78 25
101 109 55
99 101 51
64 63 10
72 89 39
56 74 25
42 58 2
46 63 20
95 113 82
32 42 29
0 0 30
0 0 43
0 0 43
0 0 32
0 0 36
0 0 45
0 0 45
0 0 40
0 0 41
0 0 44
0 0 44
0 0 43
0 0 42
0 0 42
0 0 42
0 0 44
0 0 42
0 0 42
0 0 42
0 0 42
0 0 42
0 0 42
0 0 42
0 0 42
0 0 42
0 0 42
0 0 42
0 0 42
0 0 42
0 0 42
0 0 42
0 0 42
0 0 42
0 0 42
0 0 42
0 0 42
0 0 42
0 0 42
0 0 42
0 0 42
0 0 42
0 0 42
0 0 42
29 38 39
206 221 239
220 235 255
220 235 255
220 235 255
220 235 255
220 235 255
220 235 255
220 235 255
220 235 255
220 235 255
220 235 255
220 235 255
220 235 255
220 235 255
220 235 255
220 235 255
220 235 255
220 235 255
220 235 255
220 235 255
220 235 255
220 235 255
220 235 255
220 235 255
220 235 255
220 235 255
220 235 255
220 235 255
220 235 255
220 235 255
220 235 255
220 235 255
220 235 255
220 235 255
220 235 255
220 235 255
220 235 255
220 235 255
220 235 255
220 235 255
220 235 255
220 235 255
220 235 255
220 235 255
220 235 255
220 235 255
220 235 255
220 235 255
220 235 255
220 235 255
220 235 255
220 235 255
220 235 255
220 235 255
220 235 255
220 235 255
220 235 255
220 235 255
220 235 255
220 235 255
220 235 255
220 235 255
220 235 255
220 235 255
220 235 255
220 235 255
220 235 255
220 235 255
220 235 255
220 235 255
220 235 255
220 235 255
220 235 255
220 235 255
220 235 255
220 235 255
220 235 255
220 235 255
220 235 255
220 235 255
220 235 255
220 235 255
220 235 255
220 235 255
220 235 255
220 235 255
220 235 255
220 235 255
220 235 255
220 235 255
220 235 255
220 235 255
220 235 255
220 235 255
220 235 255
220 235 255
220 235 255
220 235 255
220 235 255
220 235 255
220 235 255
220 235 255
220 235 255
220 235 255
220 235 255
220 235 255
220 235 255
220 235 255
220 235 255
220 235 255
220 235 255
220 235 255
220 235 255
220 235 255
220 235 255
220 235 255
220 235 255
220 235 255
220 235 255
220 235 255
220 235 255
220 235 255
220 235 255
220 235 255
220 235 255
220 235 255
220 235 255
220 235 255
220 235 255
220 235 255
220 235 255
220 235 255
220 235 255
220 235 255
220 235 255
220 235 255
220 235 255
220 235 255
220 235 255
220 235 255
220 235 255
220 235 255
220 235 255
220 235 255
220 235 255
220 235 255
220 235 255
220 235 255
220 235 255
220 235 255
220 235 255
220 235 255
220 235 255
220 235 255
220 235 255
220 235 255
220 235 255
220 235 255
220 235 255
220 235 255
220 235 255
220 235 255
220 235 255
220 235 255
220 235 255
220 235 255
220 235 255
220 235 255
220 235 255
220 235 255
220 235 255
220 235 255
220 235 255
220 235 255
220 235 255
220 235 255
220 235 255
220 235 255
220 235 255
220 235 255
220 235 255
220 235 255
220 235 255
220 235 255
220 235 255
220 235 255
220 235 255
184 196 215
0 0 42
0 0 42
0 0 42
0 0 42
0 0 42
0 0 42
0 0 42
0 0 42
0 0 42
0 0 42
0 0 42
0 0 42
0 0 42
0 0 42
0 0 42
0 0 42
0 0 42
0 0 42
0 0 42
0 0 42
0 0 42
0 0 42
0 0 42
0 0 42
0 0 42
0 0 42
0 0 42
0 0 42
0 0 42
0 0 42
0 0 42
0 0 42
0 0 42
0 0 42
0 0 42
0 0 42
0 0 42
0 0 42
0 0 42
0 0 42
0 0 42
0 0 42
0 0 42
0 0 42
0 0 42
0 0 42
0 0 42
0 0 42
0 0 42
0 0 42
0 0 42
0 0 42
0 0 42
0 0 42
0 0 42
0 0 42
0 0 42
0 0 42
0 0 42
0 0 42
0 0 42
0 0 42
0 0 42
0 0 42
0 0 42
0 0 42
0 0 42
0 0 42
0 0 42
0 0 42
0 0 42
0 0 42
0 0 42
0 0 42
0 0 42
0 0 42
0 0 42
0 0 42
0 0 42
0 0 42
0 0 42
0 0 42
0 0 42
0 0 42
0 0 42
0 0 42
0 0 42
0 0 42
0 0 42
0 0 42
0 0 42
0 0 42
0 0 42
0 0 42
0 0 42
0 0 42
0 0 42
0 0 42
0 0 42
0 0 42
0 0 42
0 0 42
0 0 42
0 0 42
0 0 42
0 0 42
0 0 42
0 0 42
0 0 42
0 0 42
0 0 42
0 0 42
0 0 42
0 0 42
0 0 42
0 0 40
0 0 38
0 0 38
0 0 34
0 0 30
6 11 27
28 38 45
22 33 28
37 53 30
52 75 35
51 81 16
61 91 36
15 27 16
0 7 16
9 11 34
12 17 33
48 66 47
57 83 30
46 74 21
32 56 26
69 102 53
63 97 35
56 88 25
49 78 21
37 62 9
37 62 8
50 74 20
33 54 6
41 62 17
56 78 30
44 63 11
41 64 12
52 78 24
57 85 27
47 77 13
47 78 10
50 81 12
52 84 17
46 71 8
57 76 17
64 81 26
91 103 50
85 94 43
94 100 51
83 88 39
92 97 45
73 80 26
61 75 27
35 49 10
36 53 1
32 50 0
41 58 24
40 56 33
37 49 42
0 1 30
0 0 49
0 0 41
0 0 37
0 0 41
0 0 41
0 0 39
0 0 40
0 0 42
0 0 44
0 0 41
0 0 41
0 0 42
0 0 42
0 0 44
0 0 42
0 0 42
0 0 42
0 0 42
0 0 42
0 0 42
0 0 42
0 0 42
0 0 42
0 0 42
0 0 42
0 0 42
0 0 42
0 0 42
0 0 42
0 0 42
0 0 42
0 0 42
0 0 42
0 0 42
0 0 42
0 0 42
0 0 42
0 0 42
0 0 42
0 0 42
0 0 42
3 4 43
187 201 216
220 235 255
220 235 255
220 235 255
220 235 255
220 235 255
220 235 255
220 235 255
220 235 255
220 235 255
220 235 255
220 235 255
220 235 255
220 235 255
220 235 255
220 235 255
220 235 255
220 235 255
220 235 255
220 235 255
220 235 255
220 235 255
220 235 255
220 235 255
220 235 255
220 235 255
220 235 255
220 235 255
220 235 255
220 235 255
220 235 255
220 235 255
220 235 255
220 235 255
220 235 255
220 235 255
220 235 255
220 235 255
220 235 255
220 235 255
220 235 255
220 235 255
220 235 255
220 235 255
220 235 255
220 235 255
220 235 255
220 235 255
220 235 255
220 235 255
220 235 255
220 235 255
220 235 255
220 235 255
220 235 255
220 235 255
220 235 255
220 235 255
220 235 255
220 235 255
220 235 255
220 235 255
220 235 255
220 235 255
220 235 255
220 235 255
220 235 255
220 235 255
220 235 255
220 235 255
220 235 255
220 235 255
220 235 255
220 235 255
220 235 255
220 235 255
220 235 255
220 235 255
220 235 255
220 235 255
220 235 255
220 235 255
220 235 255
220 235 255
220 235 255
220 235 255
220 235 255
220 235 255
220 235 255
220 235 255
220 235 255
220 235 255
220 235 255
220 235 255
220 235 255
220 235 255
220 235 255
220 235 255
220 235 255
220 235 255
220 235 255
220 235 255
220 235 255
220 235 255
220 235 255
220 235 255
220 235 255
220 235 255
220 235 255
220 235 255
220 235 255
220 235 255
220 235 255
220 235 255
220 235 255
220 235 255
220 235 255
220 235 255
220 235 255
220 235 255
220 235 255
220 235 255
220 235 255
220 235 255
220 235 255
220 235 255
220 235 255
220 235 255
220 235 255
220 235 255
220 235 255
220 235 255
220 235 255
220 235 255
220 235 255
220 235 255
220 235 255
220 235 255
220 235 255
220 235 255
220 235 255
220 235 255
220 235 255
220 235 255
220 235 255
220 235 255
220 235 255
220 235 255
220 235 255
220 235 255
220 235 255
220 235 255
220 235 255
220 235 255
220 235 255
220 235 255
220 235 255
220 235 255
220 235 255
220 235 255
220 235 255
220 235 255
220 235 255
220 235 255
220 235 255
220 235 255
220 235 255
220 235 255
220 235 255
220 235 255
220 235 255
220 235 255
220 235 255
220 235 255
220 235 255
220 235 255
220 235 255
220 235 255
220 235 255
220 235 255
220 235 255
220 235 255
220 235 255
220 235 255
220 235 255
220 235 255
220 235 255
157 168 185
0 0 42
0 0 42
0 0 42
0 0 42
0 0 42
0 0 42
0 0 42
0 0 42
0 0 42
0 0 42
0 0 42
0 0 42
0 0 42
0 0 42
0 0 42
0 0 42
0 0 42
0 0 42
0 0 42
0 0 42
0 0 42
0 0 42
0 0 42
0 0 42
0 0 42
0 0 42
0 0 42
0 0 42
0 0 42
0 0 42
0 0 42
0 0 42
0 0 42
0 0 42
0 0 42
0 0 42
0 0 42
0 0 42
0 0 42
0 0 42
0 0 42
0 0 42
0 0 42
0 0 42
0 0 42
0 0 42
0 0 42
0 0 42
0 0 42
0 0 42
0 0 42
0 0 42
0 0 42
0 0 42
0 0 42
0 0 42
0 0 42
0 0 42
0 0 42
0 0 42
0 0 42
0 0 42
0 0 42
0 0 42
0 0 42
0 0 42
0 0 42
0 0 42
0 0 42
0 0 42
0 0 42
0 0 42
0 0 42
0 0 42
0 0 42
0 0 42
0 0 42
0 0 42
0 0 42
0 0 42
0 0 42
0 0 42
0 0 42
0 0 42
0 0 42
0 0 42
0 0 42
0 0 42
0 0 42
0 0 42
0 0 42
0 0 42
0 0 42
0 0 42
0 0 42
0 0 42
0 0 42
0 0 42
0 0 42
0 0 42
0 0 42
0 0 42
0 0 42
0 0 42
0 0 42
0 0 42
0 0 42
0 0 42
0 0 42
0 0 42
0 0 42
0 0 42
0 0 42
0 0 42
0 0 42
0 0 42
0 0 39
0 0 33
0 0 32
0 0 37
0 0 47
0 0 51
0 0 41
5 7 28
34 47 35
40 61 20
73 100 53
54 70 54
4 8 22
0 0 37
0 0 38
30 41 40
50 71 47
40 67 8
71 99 59
65 93 52
40 65 17
52 80 26
46 75 22
21 46 0
34 60 9
49 72 22
38 56 7
57 72 30
44 63 15
39 64 6
42 69 11
40 68 7
52 80 21
42 69 5
49 76 12
48 74 5
46 72 0
57 82 19
57 80 21
52 69 15
64 74 24
82 88 42
89 95 48
77 85 35
79 89 36
85 101 48
42 55 17
54 73 30
34 56 8
20 45 0
26 52 0
27 50 7
34 51 29
29 39 29
3 4 38
0 0 51
0 0 49
0 0 38
0 0 36
0 0 42
0 0 42
0 0 39
0 0 39
0 0 38
0 0 39
0 0 39
0 0 39
0 0 42
0 0 42
0 0 42
0 0 42
0 0 42
0 0 42
0 0 42
0 0 42
0 0 42
0 0 42
0 0 42
0 0 42
0 0 42
0 0 42
0 0 42
0 0 42
0 0 42
0 0 42
0 0 42
0 0 42
0 0 42
0 0 42
0 0 42
0 0 42
0 0 42
0 0 42
0 0 42
0 0 42
0 0 42
160 173 184
220 235 255
220 235 255
220 235 255
220 235 255
220 235 255
220 235 255
220 235 255
220 235 255
220 235 255
220 235 255
220 235 255
220 235 255
220 235 255
220 235 255
220 235 255
220 235 255
220 235 255
220 235 255
220 235 255
220 235 255
220 235 255
220 235 255
220 235 255
220 235 255
220 235 255
220 235 255
220 235 255
220 235 255
220 235 255
220 235 255
220 235 255
220 235 255
220 235 255
220 235 255
220 235 255
220 235 255
220 235 255
220 235 255
220 235 255
220 235 255
220 235 255
220 235 255
220 235 255
220 235 255
220 235 255
220 235 255
220 235 255
220 235 255
220 235 255
220 235 255
220 235 255
220 235 255
220 235 255
220 235 255
220 235 255
220 235 255
220 235 255
220 235 255
220 235 255
220 235 255
220 235 255
220 235 255
220 235 255
220 235 255
220 235 255
220 235 255
220 235 255
220 235 255
220 235 255
220 235 255
220 235 255
220 235 255
220 235 255
220 235 255
220 235 255
220 235 255
220 235 255
220 235 255
220 235 255
220 235 255
220 235 255
220 235 255
220 235 255
220 235 255
220 235 255
220 235 255
220 235 255
220 235 255
220 235 255
220 235 255
220 235 255
220 235 255
220 235 255
220 235 255
220 235 255
220 235 255
220 235 255
220 235 255
220 235 255
220 235 255
220 235 255
220 235 255
220 235 255
220 235 255
220 235 255
220 235 255
220 235 255
220 235 255
220 235 255
220 235 255
220 235 255
220 235 255
220 235 255
220 235 255
220 235 255
220 235 255
220 235 255
220 235 255
220 235 255
220 235 255
220 235 255
220 235 255
220 235 255
220 235 255
220 235 255
220 235 255
220 235 255
220 235 255
220 235 255
220 235 255
220 235 255
220 235 255
220 235 255
220 235 255
220 235 255
220 235 255
220 235 255
220 235 255
220 235 255
220 235 255
220 235 255
220 235 255
220 235 255
220 235 255
220 235 255
220 235 255
220 235 255
220 235 255
220 235 255
220 235 255
220 235 255
220 235 255
220 235 255
220 235 255
220 235 255
220 235 255
220 235 255
220 235 255
220 235 255
220 235 255
220 235 255
220 235 255
220 235 255
220 235 255
220 235 255
220 235 255
220 235 255
220 235 255
220 235 255
220 235 255
220 235 255
220 235 255
220 235 255
220 235 255
220 235 255
220 235 255
220 235 255
220 235 255
220 235 255
220 235 255
220 235 255
220 235 255
220 235 255
220 235 255
220 235 255
220 235 255
141 150 167
0 0 42
0 0 42
0 0 42
0 0 42
0 0 42
0 0 42
0 0 42
0 0 42
0 0 42
0 0 42
0 0 42
0 0 42
0 0 42
0 0 42
0 0 42
0 0 42
0 0 42
0 0 42
0 0 42
0 0 42
0 0 42
0 0 42
0 0 42
0 0 42
0 0 42
0 0 42
0 0 42
0 0 42
0 0 42
0 0 42
0 0 42
0 0 42
0 0 42
0 0 42
0 0 42
0 0 42
0 0 42
0 0 42
0 0 42
0 0 42
0 0 42
0 0 42
0 0 42
0 0 42
0 0 42
0 0 42
0 0 42
0 0 42
0 0 42
0 0 42
0 0 42
0 0 42
0 0 42
0 0 42
0 0 42
0 0 42
0 0 42
0 0 42
0 0 42
0 0 42
0 0 42
0 0 42
0 0 42
0 0 42
0 0 42
0 0 42
0 0 42
0 0 42
0 0 42
0 0 42
0 0 42
0 0 42
0 0 42
0 0 42
0 0 42
0 0 42
0 0 42
0 0 42
0 0 42
0 0 42
0 0 42
0 0 42
0 0 42
0 0 42
0 0 42
0 0 42
0 0 42
0 0 42
0 0 42
0 0 42
0 0 42
0 0 42
0 0 42
0 0 42
0 0 42
0 0 42
0 0 42
0 0 42
0 0 42
0 0 42
0 0 42
0 0 42
0 0 42
0 0 42
0 0 42
0 0 42
0 0 42
0 0 42
0 0 42
0 0 42
0 0 42
0 0 42
0 0 42
0 0 42
0 0 42
0 0 42
0 0 41
0 0 41
0 0 42
0 0 40
0 0 45
0 0 47
0 0 47
6 8 40
16 21 42
20 27 28
49 65 47
30 39 44
5 7 45
0 0 44
7 8 46
14 18 34
41 55 43
66 93 41
72 101 52
72 98 55
33 53 7
31 55 4
25 51 0
19 45 0
28 52 6
39 59 11
47 61 18
62 72 31
46 64 19
43 72 13
39 68 6
44 72 6
45 70 8
40 63 3
43 63 8
45 64 7
50 66 7
50 67 10
43 62 5
48 64 12
60 77 24
54 68 20
54 65 18
49 63 12
46 58 8
86 101 51
42 56 25
64 85 46
49 75 32
28 55 8
26 55 0
26 52 0
27 47 8
44 60 33
28 34 26
4 0 34
2 0 54
0 0 46
0 0 41
0 0 46
0 0 43
0 0 40
0 0 38
0 0 38
0 0 39
0 0 39
0 0 39
0 0 39
0 0 41
0 0 42
0 0 42
0 0 42
0 0 42
0 0 42
0 0 42
0 0 42
0 0 42
0 0 42
0 0 42
0 0 42
0 0 42
0 0 42
0 0 42
0 0 42
0 0 42
0 0 42
0 0 42
0 0 42
0 0 42
0 0 42
0 0 42
0 0 42
0 0 42
0 0 42
0 0 42
0 0 42
133 144 156
220 235 255
220 235 255
220 235 255
220 235 255
220 235 255
220 235 255
220 235 255
220 235 255
220 235 255
220 235 255
220 235 255
220 235 255
220 235 255
220 235 255
220 235 255
220 235 255
220 235 255
220 235 255
220 235 255
220 235 255
220 235 255
220 235 255
220 235 255
220 235 255
220 235 255
220 235 255
220 235 255
220 235 255
220 235 255
220 235 255
220 235 255
220 235 255
220 235 255
220 235 255
220 235 255
220 235 255
220 235 255
220 235 255
220 235 255
220 235 255
220 235 255
220 235 255
220 235 255
220 235 255
220 235 255
220 235 255
220 235 255
220 235 255
220 235 255
220 235 255
220 235 255
220 235 255
220 235 255
220 235 255
220 235 255
220 235 255
220 235 255
220 235 255
220 235 255
220 235 255
220 235 255
220 235 255
220 235 255
220 235 255
220 235 255
220 235 255
220 235 255
220 235 255
220 235 255
220 235 255
220 235 255
220 235 255
220 235 255
220 235 255
220 235 255
220 235 255
220 235 255
220 235 255
220 235 255
220 235 255
220 235 255
220 235 255
220 235 255
220 235 255
220 235 255
220 235 255
220 235 255
220 235 255
220 235 255
220 235 255
220 235 255
220 235 255
220 235 255
220 235 255
220 235 255
220 235 255
220 235 255
220 235 255
220 235 255
220 235 255
220 235 255
220 235 255
220 235 255
220 235 255
220 235 255
220 235 255
220 235 255
220 235 255
220 235 255
220 235 255
220 235 255
220 235 255
220 235 255
220 235 255
220 235 255
220 235 255
220 235 255
220 235 255
220 235 255
220 235 255
220 235 255
220 235 255
220 235 255
220 235 255
220 235 255
220 235 255
220 235 255
220 235 255
220 235 255
220 235 255
220 235 255
220 235 255
220 235 255
220 235 255
220 235 255
220 235 255
220 235 255
220 235 255
220 235 255
220 235 255
220 235 255
220 235 255
220 235 255
220 235 255
220 235 255
220 235 255
220 235 255
220 235 255
220 235 255
220 235 255
220 235 255
220 235 255
220 235 255
220 235 255
220 235 255
220 235 255
220 235 255
220 235 255
220 235 255
220 235 255
220 235 255
220 235 255
220 235 255
220 235 255
220 235 255
220 235 255
220 235 255
220 235 255
220 235 255
220 235 255
220 235 255
220 235 255
220 235 255
220 235 255
220 235 255
220 235 255
220 235 255
220 235 255
220 235 255
220 235 255
220 235 255
220 235 255
220 235 255
220 235 255
220 235 255
220 235 255
93 99 115
0 0 42
0 0 42
0 0 42
0 0 42
0 0 42
0 0 42
0 0 42
0 0 42
0 0 42
0 0 42
0 0 42
0 0 42
0 0 42
0 0 42
0 0 42
0 0 42
0 0 42
0 0 42
0 0 42
0 0 42
0 0 42
0 0 42
0 0 42
0 0 42
0 0 42
0 0 42
0 0 42
0 0 42
0 0 42
0 0 42
0 0 42
0 0 42
0 0 42
0 0 42
0 0 42
0 0 42
0 0 42
0 0 42
0 0 42
0 0 42
0 0 42
0 0 42
0 0 42
0 0 42
0 0 42
0 0 42
0 0 42
0 0 42
0 0 42
0 0 42
0 0 42
0 0 42
0 0 42
0 0 42
0 0 42
0 0 42
0 0 42
0 0 42
0 0 42
0 0 42
0 0 42
0 0 42
0 0 42
0 0 42
0 0 42
0 0 42
0 0 42
0 0 42
0 0 42
0 0 42
0 0 42
0 0 42
0 0 42
0 0 42
0 0 42
0 0 42
0 0 42
0 0 42
0 0 42
0 0 42
0 0 42
0 0 42
0 0 42
0 0 42
0 0 42
0 0 42
0 0 42
0 0 42
0 0 42
0 0 42
0 0 42
0 0 42
0 0 42
0 0 42
0 0 42
0 0 42
0 0 42
0 0 42
0 0 42
0 0 42
0 0 42
0 0 42
0 0 42
0 0 42
0 0 42
0 0 42
0 0 42
0 0 42
0 0 42
0 0 42
0 0 42
0 0 42
0 0 42
0 0 42
0 0 42
0 0 41
0 0 40
0 0 44
0 0 46
0 0 50
0 0 45
0 0 41
0 0 38
0 0 41
0 0 48
0 0 45
0 0 39
0 0 47
0 0 51
0 0 43
0 0 48
0 0 44
0 0 15
77 100 66
61 88 46
61 85 43
25 43 0
40 61 18
32 57 10
28 54 6
36 60 13
39 58 14
47 59 17
64 70 33
73 87 43
52 79 19
40 67 0
42 66 0
44 65 9
46 63 4
56 69 16
63 73 23
78 86 37
79 90 41
65 77 29
48 62 15
49 70 21
33 56 0
29 52 0
40 59 5
47 62 10
72 85 39
42 56 19
43 61 25
40 63 21
25 54 4
23 54 0
26 54 0
29 54 0
36 55 13
60 73 42
19 22 19
1 0 38
0 0 56
0 0 49
0 0 43
0 0 46
0 0 39
0 0 40
0 0 42
0 0 43
0 0 43
0 0 40
0 0 39
0 0 40
0 0 42
0 0 42
0 0 42
0 0 42
0 0 42
0 0 42
0 0 42
0 0 42
0 0 42
0 0 42
0 0 42
0 0 42
0 0 42
0 0 42
0 0 42
0 0 42
0 0 42
0 0 42
0 0 42
0 0 42
0 0 42
0 0 42
0 0 42
0 0 42
0 0 42
0 0 42
0 0 42
103 112 122
220 235 255
220 235 255
220 235 255
220 235 255
220 235 255
220 235 255
220 235 255
220 235 255
220 235 255
220 235 255
220 235 255
220 235 255
220 235 255
220 235 255
220 235 255
220 235 255
220 235 255
220 235 255
220 235 255
220 235 255
220 235 255
220 235 255
220 235 255
220 235 255
220 235 255
220 235 255
220 235 255
220 235 255
220 235 255
220 235 255
220 235 255
220 235 255
220 235 255
220 235 255
220 235 255
220 235 255
220 235 255
220 235 255
220 235 255
220 235 255
220 235 255
220 235 255
220 235 255
220 235 255
220 235 255
220 235 255
220 235 255
220 235 255
220 235 255
220 235 255
220 235 255
220 235 255
220 235 255
220 235 255
220 235 255
220 235 255
220 235 255
220 235 255
220 235 255
220 235 255
220 235 255
220 235 255
220 235 255
220 235 255
220 235 255
220 235 255
220 235 255
220 235 255
220 235 255
220 235 255
220 235 255
220 235 255
220 235 255
220 235 255
220 235 255
220 235 255
220 235 255
220 235 255
220 235 255
220 235 255
220 235 255
220 235 255
220 235 255
220 235 255
220 235 255
220 235 255
220 235 255
220 235 255
220 235 255
220 235 255
220 235 255
220 235 255
220 235 255
220 235 255
220 235 255
220 235 255
220 235 255
220 235 255
220 235 255
220 235 255
220 235 255
220 235 255
220 235 255
220 235 255
220 235 255
220 235 255
220 235 255
220 235 255
220 235 255
220 235 255
220 235 255
220 235 255
220 235 255
220 235 255
220 235 255
220 235 255
220 235 255
220 235 255
220 235 255
220 235 255
220 235 255
220 235 255
220 235 255
220 235 255
220 235 255
220 235 255
220 235 255
220 235 255
220 235 255
220 235 255
220 235 255
220 235 255
220 235 255
220 235 255
220 235 255
220 235 255
220 235 255
220 235 255
220 235 255
220 235 255
220 235 255
220 235 255
220 235 255
220 235 255
220 235 255
220 235 255
220 235 255
220 235 255
220 235 255
220 235 255
220 235 255
220 235 255
220 235 255
220 235 255
220 235 255
220 235 255
220 235 255
220 235 255
220 235 255
220 235 255
220 235 255
220 235 255
220 235 255
220 235 255
220 235 255
220 235 255
220 235 255
220 235 255
220 235 255
220 235 255
220 235 255
220 235 255
220 235 255
220 235 255
220 235 255
220 235 255
220 235 255
220 235 255
220 235 255
220 235 255
220 235 255
220 235 255
220 235 255
220 235 255
220 235 255
220 235 255
66 70 86
0 0 42
0 0 42
0 0 42
0 0 42
0 0 42
0 0 42
0 0 42
0 0 42
0 0 42
0 0 42
0 0 42
0 0 42
0 0 42
0 0 42
0 0 42
0 0 42
0 0 42
0 0 42
0 0 42
0 0 42
0 0 42
0 0 42
0 0 42
0 0 42
0 0 42
0 0 42
0 0 42
0 0 42
0 0 42
0 0 42
0 0 42
0 0 42
0 0 42
0 0 42
0 0 42
0 0 42
0 0 42
0 0 42
0 0 42
0 0 42
0 0 42
0 0 42
0 0 42
0 0 42
0 0 42
0 0 42
0 0 42
0 0 42
0 0 42
0 0 42
0 0 42
0 0 42
0 0 42
0 0 42
0 0 42
0 0 42
0 0 42
0 0 42
0 0 42
0 0 42
0 0 42
0 0 42
0 0 42
0 0 42
0 0 42
0 0 42
0 0 42
0 0 42
0 0 42
0 0 42
0 0 42
0 0 42
0 0 42
0 0 42
0 0 42
0 0 42
0 0 42
0 0 42
0 0 42
0 0 42
0 0 42
0 0 42
0 0 42
0 0 42
0 0 42
0 0 42
0 0 42
0 0 42
0 0 42
0 0 42
0 0 42
0 0 42
0 0 42
0 0 42
0 0 42
0 0 42
0 0 42
0 0 42
0 0 42
0 0 42
0 0 42
0 0 42
0 0 42
0 0 42
0 0 42
0 0 42
0 0 42
0 0 42
0 0 42
0 0 42
0 0 42
0 0 42
0 0 42
0 0 42
0 0 42
0 0 40
0 0 33
0 0 40
0 0 48
0 0 52
0 0 47
0 0 40
0 0 36
0 0 38
0 0 45
0 0 47
0 0 44
0 0 42
0 0 38
0 0 44
0 0 49
0 0 40
0 0 26
56 68 70
76 99 83
78 101 61
30 47 5
36 56 13
30 52 10
34 59 11
40 63 15
32 50 8
41 51 11
67 73 37
67 77 40
50 73 13
40 62 3
46 65 4
43 57 3
53 64 12
69 76 25
73 78 30
76 80 35
70 76 29
59 74 29
38 53 12
39 59 11
28 52 1
34 57 8
45 68 18
46 65 13
43 58 6
32 47 0
26 43 0
26 49 4
25 51 7
25 52 0
26 52 0
29 52 0
27 48 0
41 58 19
47 62 35
18 25 28
0 0 38
0 0 38
0 9 26
4 11 26
3 6 35
0 0 39
0 0 44
0 0 44
0 0 47
0 0 43
0 0 41
0 0 39
0 0 42
0 0 42
0 0 42
0 0 42
0 0 42
0 0 42
0 0 42
0 0 42
0 0 42
0 0 42
0 0 42
0 0 42
0 0 42
0 0 42
0 0 42
0 0 42
0 0 42
0 0 42
0 0 42
0 0 42
0 0 42
0 0 42
0 0 42
0 0 42
0 0 42
0 0 42
0 0 42
59 65 77
220 235 255
220 235 255
220 235 255
220 235 255
220 235 255
220 235 255
220 235 255
220 235 255
220 235 255
220 235 255
220 235 255
220 235 255
220 235 255
220 235 255
220 235 255
220 235 255
220 235 255
220 235 255
220 235 255
220 235 255
220 235 255
220 235 255
220 235 255
220 235 255
220 235 255
220 235 255
220 235 255
220 235 255
220 235 255
220 235 255
220 235 255
220 235 255
220 235 255
220 235 255
220 235 255
220 235 255
220 235 255
220 235 255
220 235 255
220 235 255
220 235 255
220 235 255
220 235 255
220 235 255
220 235 255
220 235 255
220 235 255
220 235 255
220 235 255
220 235 255
220 235 255
220 235 255
220 235 255
220 235 255
220 235 255
220 235 255
220 235 255
220 235 255
220 235 255
220 235 255
220 235 255
220 235 255
220 235 255
220 235 255
220 235 255
220 235 255
220 235 255
220 235 255
220 235 255
220 235 255
220 235 255
220 235 255
220 235 255
220 235 255
220 235 255
220 235 255
220 235 255
220 235 255
220 235 255
220 235 255
220 235 255
220 235 255
220 235 255
220 235 255
220 235 255
220 235 255
220 235 255
220 235 255
220 235 255
220 235 255
220 235 255
220 235 255
220 235 255
220 235 255
220 235 255
220 235 255
220 235 255
220 235 255
220 235 255
220 235 255
220 235 255
220 235 255
220 235 255
220 235 255
220 235 255
220 235 255
220 235 255
220 235 255
220 235 255
220 235 255
220 235 255
220 235 255
220 235 255
220 235 255
220 235 255
220 235 255
220 235 255
220 235 255
220 235 255
220 235 255
220 235 255
220 235 255
220 235 255
220 235 255
220 235 255
220 235 255
220 235 255
220 235 255
220 235 255
220 235 255
220 235 255
220 235 255
220 235 255
220 235 255
220 235 255
220 235 255
220 235 255
220 235 255
220 235 255
220 235 255
220 235 255
220 235 255
220 235 255
220 235 255
220 235 255
220 235 255
220 235 255
220 235 255
220 235 255
220 235 255
220 235 255
220 235 255
220 235 255
220 235 255
220 235 255
220 235 255
220 235 255
220 235 255
220 235 255
220 235 255
220 235 255
220 235 255
220 235 255
220 235 255
220 235 255
220 235 255
220 235 255
220 235 255
220 235 255
220 235 255
220 235 255
220 235 255
220 235 255
220 235 255
220 235 255
220 235 255
220 235 255
220 235 255
220 235 255
220 235 255
220 235 255
220 235 255
220 235 255
220 235 255
220 235 255
214 228 248
0 0 42
0 0 42
0 0 42
0 0 42
0 0 42
0 0 42
0 0 42
0 0 42
0 0 42
0 0 42
0 0 42
0 0 42
0 0 42
0 0 42
0 0 42
0 0 42
0 0 42
0 0 42
0 0 42
0 0 42
0 0 42
0 0 42
0 0 42
0 0 42
0 0 42
0 0 42
0 0 42
0 0 42
0 0 42
0 0 42
0 0 42
0 0 42
0 0 42
0 0 42
0 0 42
0 0 42
0 0 42
0 0 42
0 0 42
0 0 42
0 0 42
0 0 42
0 0 42
0 0 42
0 0 42
0 0 42
0 0 42
0 0 42
0 0 42
0 0 42
0 0 42
0 0 42
0 0 42
0 0 42
0 0 42
0 0 42
0 0 42
0 0 42
0 0 42
0 0 42
0 0 42
0 0 42
0 0 42
0 0 42
0 0 42
0 0 42
0 0 42
0 0 42
0 0 42
0 0 42
0 0 42
0 0 42
0 0 42
0 0 42
0 0 42
0 0 42
0 0 42
0 0 42
0 0 42
0 0 42
0 0 42
0 0 42
0 0 42
0 0 42
0 0 42
0 0 42
0 0 42
0 0 42
0 0 42
0 0 42
0 0 42
0 0 42
0 0 42
0 0 42
0 0 42
0 0 42
0 0 42
0 0 42
0 0 42
0 0 42
0 0 42
0 0 42
0 0 42
0 0 42
0 0 42
0 0 42
0 0 42
0 0 42
0 0 42
0 0 42
0 0 42
0 0 42
0 0 42
0 0 42
0 0 42
0 0 42
0 0 41
0 0 38
0 0 39
0 0 43
0 0 44
0 0 43
0 0 40
0 0 38
0 0 38
0 0 39
0 0 40
0 0 37
0 0 39
0 0 38
0 0 39
0 0 42
0 0 46
0 0 33
40 52 44
59 84 50
85 110 68
46 63 25
35 53 10
23 42 0
48 70 21
37 56 13
43 59 12
47 58 20
74 84 45
48 58 14
60 79 23
51 69 15
46 60 8
58 70 17
61 70 18
67 73 23
68 72 23
72 74 27
68 77 32
35 56 14
30 49 0
38 56 9
29 44 2
42 60 16
51 71 27
40 62 12
32 56 0
34 53 11
23 40 0
27 46 6
35 53 13
31 49 0
26 46 5
27 47 9
33 54 9
35 57 6
42 63 22
49 70 32
28 45 20
28 45 21
52 76 41
44 67 39
23 39 31
13 17 28
1 2 33
0 3 42
0 0 43
0 0 45
0 0 40
0 0 43
0 0 42
0 0 42
0 0 42
0 0 42
0 0 42
0 0 42
0 0 42
0 0 42
0 0 42
0 0 42
0 0 42
0 0 42
0 0 42
0 0 42
0 0 42
0 0 42
0 0 42
0 0 42
0 0 42
0 0 42
0 0 42
0 0 42
0 0 42
0 0 42
0 0 42
0 0 42
0 0 42
7 10 41
214 228 248
220 235 255
220 235 255
220 235 255
220 235 255
220 235 255
220 235 255
220 235 255
220 235 255
220 235 255
220 235 255
220 235 255
220 235 255
220 235 255
220 235 255
220 235 255
220 235 255
220 235 255
220 235 255
220 235 255
220 235 255
220 235 255
220 235 255
220 235 255
220 235 255
220 235 255
220 235 255
220 235 255
220 235 255
220 235 255
220 235 255
220 235 255
220 235 255
220 235 255
220 235 255
220 235 255
220 235 255
220 235 255
220 235 255
220 235 255
220 235 255
220 235 255
220 235 255
220 235 255
220 235 255
220 235 255
220 235 255
220 235 255
220 235 255
220 235 255
220 235 255
220 235 255
220 235 255
220 235 255
220 235 255
220 235 255
220 235 255
220 235 255
220 235 255
220 235 255
220 235 255
220 235 255
220 235 255
220 235 255
220 235 255
220 235 255
220 235 255
220 235 255
220 235 255
220 235 255
220 235 255
220 235 255
220 235 255
220 235 255
220 235 255
220 235 255
220 235 255
220 235 255
220 235 255
220 235 255
220 235 255
220 235 255
220 235 255
220 235 255
220 235 255
220 235 255
220 235 255
220 235 255
220 235 255
220 235 255
220 235 255
220 235 255
220 235 255
221 235 255
221 235 255
221 235 255
221 235 255
221 235 255
221 235 255
221 235 255
221 235 255
221 235 255
221 235 255
221 235 255
221 235 255
221 235 255
221 235 255
221 235 255
221 235 255
221 235 255
221 235 255
221 235 255
221 235 255
221 235 255
221 235 255
221 235 255
221 235 255
221 235 255
221 235 255
221 235 255
221 235 255
221 235 255
221 235 255
221 235 255
221 235 255
221 235 255
221 235 255
221 235 255
221 235 255
221 235 255
221 235 255
221 235 255
221 235 255
221 235 255
221 235 255
221 235 255
221 235 255
221 235 255
221 235 255
221 235 255
221 235 255
221 235 255
221 235 255
221 235 255
221 235 255
221 235 255
221 235 255
221 235 255
221 235 255
221 235 255
221 235 255
221 235 255
221 235 255
221 235 255
221 235 255
221 235 255
221 235 255
221 235 255
221 235 255
221 235 255
221 235 255
221 235 255
221 235 255
221 235 255
221 235 255
221 235 255
221 235 255
221 235 255
221 235 255
221 235 255
221 235 255
221 235 255
221 235 255
221 235 255
221 235 255
221 235 255
221 235 255
221 235 255
221 235 255
221 235 255
221 235 255
221 235 255
221 235 255
221 235 255
221 235 255
206 219 239
0 0 42
0 0 42
0 0 42
0 0 42
0 0 42
0 0 42
0 0 42
0 0 42
0 0 42
0 0 42
0 0 42
0 0 42
0 0 42
0 0 42
0 0 42
0 0 42
0 0 42
0 0 42
0 0 42
0 0 42
0 0 42
0 0 42
0 0 42
0 0 42
0 0 42
0 0 42
0 0 42
0 0 42
0 0 42
0 0 42
0 0 42
0 0 42
0 0 42
0 0 42
0 0 42
0 0 42
0 0 42
0 0 42
0 0 42
0 0 42
0 0 42
0 0 42
0 0 42
0 0 42
0 0 42
0 0 42
0 0 42
0 0 42
0 0 42
0 0 42
0 0 42
0 0 42
0 0 42
0 0 42
0 0 42
0 0 42
0 0 42
0 0 42
0 0 42
0 0 42
0 0 42
0 0 42
0 0 42
0 0 42
0 0 42
0 0 42
0 0 42
0 0 42
0 0 42
0 0 42
0 0 42
0 0 42
0 0 42
0 0 42
0 0 42
0 0 42
0 0 42
0 0 42
0 0 42
0 0 42
0 0 42
0 0 42
0 0 42
0 0 42
0 0 42
0 0 42
0 0 42
0 0 42
0 0 42
0 0 42
0 0 42
0 0 42
0 0 42
0 0 42
0 0 42
0 0 42
0 0 42
0 0 42
0 0 42
0 0 42
0 0 42
0 0 42
0 0 42
0 0 42
0 0 42
0 0 42
0 0 42
0 0 42
0 0 42
0 0 42
0 0 42
0 0 42
0 0 42
0 0 42
0 0 42
0 0 42
0 0 42
0 0 47
0 0 43
0 0 40
0 0 36
0 0 37
0 0 39
0 0 42
0 0 42
0 0 41
0 0 39
0 0 36
0 0 38
0 0 42
0 0 40
0 0 39
0 2 43
0 5 39
60 78 61
75 103 62
72 100 47
51 70 29
39 57 13
29 45 0
49 67 23
47 63 17
63 79 33
73 88 45
53 65 25
55 69 23
56 73 17
56 72 19
54 68 17
63 75 24
64 72 21
65 74 25
70 78 28
68 76 27
56 68 21
22 46 0
27 50 9
29 47 2
32 46 8
35 49 7
39 57 17
36 58 12
32 57 0
29 52 6
31 48 9
28 42 2
47 61 12
32 42 0
38 51 16
31 48 7
28 48 6
30 53 12
35 58 13
32 55 4
33 56 13
34 57 17
23 47 0
20 45 1
27 49 23
40 55 45
33 44 40
0 6 31
0 0 40
0 0 43
0 0 44
0 0 43
0 0 42
0 0 42
0 0 42
0 0 42
0 0 42
0 0 42
0 0 42
0 0 42
0 0 42
0 0 42
0 0 42
0 0 42
0 0 42
0 0 42
0 0 42
0 0 42
0 0 42
0 0 42
0 0 42
0 0 42
0 0 42
0 0 42
0 0 42
0 0 42
0 0 42
0 0 42
0 0 42
0 0 42
202 216 235
221 235 255
221 235 255
221 235 255
221 235 255
221 235 255
221 235 255
221 235 255
221 235 255
221 235 255
221 235 255
221 235 255
221 235 255
221 235 255
221 235 255
221 235 255
221 235 255
221 235 255
221 235 255
221 235 255
221 235 255
221 235 255
221 235 255
221 235 255
221 235 255
221 235 255
221 235 255
221 235 255
221 235 255
221 235 255
221 235 255
221 235 255
221 235 255
221 235 255
221 235 255
221 235 255
221 235 255
221 235 255
221 235 255
221 235 255
221 235 255
221 235 255
221 235 255
221 235 255
221 235 255
221 235 255
221 235 255
221 235 255
221 235 255
221 235 255
221 235 255
221 235 255
221 235 255
221 235 255
221 235 255
221 235 255
221 235 255
221 235 255
221 235 255
221 235 255
221 235 255
221 235 255
221 235 255
221 235 255
221 235 255
221 235 255
221 235 255
221 235 255
221 235 255
221 235 255
221 235 255
221 235 255
221 235 255
221 235 255
221 235 255
221 235 255
221 235 255
221 235 255
221 235 255
221 235 255
221 235 255
221 235 255
221 235 255
221 235 255
221 235 255
221 235 255
221 235 255
221 235 255
221 235 255
221 235 255
221 235 255
221 235 255
221 235 255
221 235 255
221 235 255
221 235 255
221 235 255
221 235 255
221 235 255
221 235 255
221 235 255
221 235 255
221 235 255
221 235 255
221 235 255
221 235 255
221 235 255
221 235 255
221 235 255
221 235 255
221 235 255
221 235 255
221 235 255
221 235 255
221 235 255
221 235 255
221 235 255
221 235 255
221 235 255
221 235 255
221 235 255
221 235 255
221 235 255
221 235 255
221 235 255
221 235 255
221 235 255
221 235 255
221 235 255
221 235 255
221 235 255
221 235 255
221 235 255
221 235 255
221 235 255
221 235 255
221 235 255
221 235 255
221 235 255
221 235 255
221 235 255
221 235 255
221 235 255
221 235 255
221 235 255
221 235 255
221 235 255
221 235 255
221 235 255
221 235 255
221 235 255
221 235 255
221 235 255
221 235 255
221 235 255
221 235 255
221 235 255
221 235 255
221 235 255
221 235 255
221 235 255
221 235 255
221 235 255
221 235 255
221 235 255
221 235 255
221 235 255
221 235 255
221 235 255
221 235 255
221 235 255
221 235 255
221 235 255
221 235 255
221 235 255
221 235 255
221 235 255
221 235 255
221 235 255
221 235 255
221 235 255
221 235 255
221 235 255
221 235 255
221 235 255
191 204 222
0 0 42
0 0 42
0 0 42
0 0 42
0 0 42
0 0 42
0 0 42
0 0 42
0 0 42
0 0 42
0 0 42
0 0 42
0 0 42
0 0 42
0 0 42
0 0 42
0 0 42
0 0 42
0 0 42
0 0 42
0 0 42
0 0 42
0 0 42
0 0 42
0 0 42
0 0 42
0 0 42
0 0 42
0 0 42
0 0 42
0 0 42
0 0 42
0 0 42
0 0 42
0 0 42
0 0 42
0 0 42
0 0 42
0 0 42
0 0 42
0 0 42
0 0 42
0 0 42
0 0 42
0 0 42
0 0 42
0 0 42
0 0 42
0 0 42
0 0 42
0 0 42
0 0 42
0 0 42
0 0 42
0 0 42
0 0 42
0 0 42
0 0 42
0 0 42
0 0 42
0 0 42
0 0 42
0 0 42
0 0 42
0 0 42
0 0 42
0 0 42
0 0 42
0 0 42
0 0 42
0 0 42
0 0 42
0 0 42
0 0 42
0 0 42
0 0 42
0 0 42
0 0 42
0 0 42
0 0 42
0 0 42
0 0 42
0 0 42
0 0 42
0 0 42
0 0 42
0 0 42
0 0 42
0 0 42
0 0 42
0 0 42
0 0 42
0 0 42
0 0 42
0 0 42
0 0 42
0 0 42
0 0 42
0 0 42
0 0 42
0 0 42
0 0 42
0 0 42
0 0 42
0 0 42
0 0 42
0 0 42
0 0 42
0 0 42
0 0 42
0 0 42
0 0 42
0 0 42
0 0 42
0 0 42
0 0 42
0 0 42
0 0 43
0 0 43
0 0 41
0 0 40
0 0 41
0 0 45
0 0 45
0 0 43
0 0 42
0 0 41
0 0 41
0 0 41
0 0 45
0 0 43
0 0 39
0 2 40
0 4 33
62 78 73
78 106 75
68 97 39
39 59 15
58 79 34
39 57 13
50 66 18
63 78 31
75 93 44
42 57 7
58 76 28
56 76 26
56 73 17
53 69 15
66 81 29
65 78 26
69 80 29
68 80 30
76 91 39
63 77 25
42 57 6
32 53 9
26 46 8
20 42 0
23 43 0
33 54 11
38 59 17
28 51 0
32 52 0
30 50 9
24 40 0
35 46 0
54 63 16
56 60 20
44 50 17
39 54 12
32 54 3
34 58 14
28 51 8
22 45 0
20 43 0
24 46 0
26 46 14
21 39 6
25 44 9
28 48 11
36 52 30
28 39 32
0 0 21
0 0 40
0 0 47
0 0 45
0 0 42
0 0 42
0 0 42
0 0 42
0 0 42
0 0 42
0 0 42
0 0 42
0 0 42
0 0 42
0 0 42
0 0 42
0 0 42
0 0 42
0 0 42
0 0 42
0 0 42
0 0 42
0 0 42
0 0 42
0 0 42
0 0 42
0 0 42
0 0 42
0 0 42
0 0 42
0 0 42
0 0 42
179 191 209
221 235 255
221 235 255
221 235 255
221 235 255
221 235 255
221 235 255
221 235 255
221 235 255
221 235 255
221 235 255
221 235 255
221 235 255
221 235 255
221 235 255
221 235 255
221 235 255
221 235 255
221 235 255
221 235 255
221 235 255
221 235 255
221 235 255
221 235 255
221 235 255
221 235 255
221 235 255
221 235 255
221 235 255
221 235 255
221 235 255
221 235 255
221 235 255
221 235 255
221 235 255
221 235 255
221 235 255
221 235 255
221 235 255
221 235 255
221 235 255
221 235 255
221 235 255
221 235 255
221 235 255
221 235 255
221 235 255
221 235 255
221 235 255
221 235 255
221 235 255
221 235 255
221 235 255
221 235 255
221 235 255
221 235 255
221 235 255
221 235 255
221 235 255
221 235 255
221 235 255
221 235 255
221 235 255
221 235 255
221 235 255
221 235 255
221 235 255
221 235 255
221 235 255
221 235 255
221 235 255
221 235 255
221 235 255
221 235 255
221 235 255
221 235 255
221 235 255
221 235 255
221 235 255
221 235 255
221 235 255
221 235 255
221 235 255
221 235 255
221 235 255
221 235 255
221 235 255
221 235 255
221 235 255
221 235 255
221 235 255
221 235 255
221 235 255
221 235 255
221 235 255
221 235 255
221 235 255
221 235 255
221 235 255
221 235 255
221 235 255
221 235 255
221 235 255
221 235 255
221 235 255
221 235 255
221 235 255
221 235 255
221 235 255
221 235 255
221 235 255
221 235 255
221 235 255
221 235 255
221 235 255
221 235 255
221 235 255
221 235 255
221 235 255
221 235 255
221 235 255
221 235 255
221 235 255
221 235 255
221 235 255
221 235 255
221 235 255
221 235 255
221 235 255
221 235 255
221 235 255
221 235 255
221 235 255
221 235 255
221 235 255
221 235 255
221 235 255
221 235 255
221 235 255
221 235 255
221 235 255
221 235 255
221 235 255
221 235 255
221 235 255
221 235 255
221 235 255
221 235 255
221 235 255
221 235 255
221 235 255
221 235 255
221 235 255
221 235 255
221 235 255
221 235 255
221 235 255
221 235 255
221 235 255
221 235 255
221 235 255
221 235 255
221 235 255
221 235 255
221 235 255
221 235 255
221 235 255
221 235 255
221 235 255
221 235 255
221 235 255
221 235 255
221 235 255
221 235 255
221 235 255
221 235 255
221 235 255
221 235 255
221 235 255
221 235 255
221 235 255
221 235 255
221 235 255
221 235 255
221 235 255
169 181 198
0 0 42
0 0 42
0 0 42
0 0 42
0 0 42
0 0 42
0 0 42
0 0 42
0 0 42
0 0 42
0 0 42
0 0 42
0 0 42
0 0 42
0 0 42
0 0 42
0 0 42
0 0 42
0 0 42
0 0 42
0 0 42
0 0 42
0 0 42
0 0 42
0 0 42
0 0 42
0 0 42
0 0 42
0 0 42
0 0 42
0 0 42
0 0 42
0 0 42
0 0 42
0 0 42
0 0 42
0 0 42
0 0 42
0 0 42
0 0 42
0 0 42
0 0 42
0 0 42
0 0 42
0 0 42
0 0 42
0 0 42
0 0 42
0 0 42
0 0 42
0 0 42
0 0 42
0 0 42
0 0 42
0 0 42
0 0 42
0 0 42
0 0 42
0 0 42
0 0 42
0 0 42
0 0 42
0 0 42
0 0 42
0 0 42
0 0 42
0 0 42
0 0 42
0 0 42
0 0 42
0 0 42
0 0 42
0 0 42
0 0 42
0 0 42
0 0 42
0 0 42
0 0 42
0 0 42
0 0 42
0 0 42
0 0 42
0 0 42
0 0 42
0 0 42
0 0 42
0 0 42
0 0 42
0 0 42
0 0 42
0 0 42
0 0 42
0 0 42
0 0 42
0 0 42
0 0 42
0 0 42
0 0 42
0 0 42
0 0 42
0 0 42
0 0 42
0 0 42
0 0 42
0 0 42
0 0 42
0 0 42
0 0 42
0 0 42
0 0 42
0 0 42
0 0 42
0 0 42
0 0 42
0 0 42
0 0 42
0 0 42
0 0 42
0 0 42
0 0 42
0 0 42
0 0 43
0 0 45
0 0 44
0 0 42
0 0 42
0 0 43
0 0 48
0 0 41
0 0 47
0 0 49
0 0 43
0 0 41
0 0 34
49 64 55
68 95 65
54 81 26
48 68 17
57 77 29
45 62 16
51 67 21
71 88 39
52 67 15
54 71 18
55 72 19
52 68 12
57 74 20
63 80 24
71 88 35
70 85 34
61 76 27
61 77 27
51 68 19
36 54 4
33 51 0
33 50 14
24 42 2
22 45 0
30 54 12
27 50 8
36 59 20
30 49 3
32 48 10
28 45 3
23 41 0
29 46 0
46 57 12
69 74 30
85 90 49
51 60 20
39 61 13
30 56 3
28 51 0
26 47 0
23 45 0
27 47 0
23 43 12
18 33 8
29 48 5
31 53 0
29 49 8
38 54 32
40 52 46
6 10 28
0 0 45
0 0 44
0 0 41
0 0 41
0 0 41
0 0 42
0 0 42
0 0 42
0 0 42
0 0 42
0 0 42
0 0 42
0 0 42
0 0 42
0 0 42
0 0 42
0 0 42
0 0 42
0 0 42
0 0 42
0 0 42
0 0 42
0 0 42
0 0 42
0 0 42
0 0 42
0 0 42
0 0 42
0 0 42
0 0 42
175 187 204
221 235 255
221 235 255
221 235 255
221 235 255
221 235 255
221 235 255
221 235 255
221 235 255
221 235 255
221 235 255
221 235 255
221 235 255
221 235 255
221 235 255
221 235 255
221 235 255
221 235 255
221 235 255
221 235 255
221 235 255
221 235 255
221 235 255
221 235 255
221 235 255
221 235 255
221 235 255
221 235 255
221 235 255
221 235 255
221 235 255
221 235 255
221 235 255
221 235 255
221 235 255
221 235 255
221 235 255
221 235 255
221 235 255
221 235 255
221 235 255
221 235 255
221 235 255
221 235 255
221 235 255
221 235 255
221 235 255
221 235 255
221 235 255
221 235 255
221 235 255
221 235 255
221 235 255
221 235 255
221 235 255
221 235 255
221 235 255
221 235 255
221 235 255
221 235 255
221 235 255
221 235 255
221 235 255
221 235 255
221 235 255
221 235 255
221 235 255
221 235 255
221 235 255
221 235 255
221 235 255
221 235 255
221 235 255
221 235 255
221 235 255
221 235 255
221 235 255
221 235 255
221 235 255
221 235 255
221 235 255
221 235 255
221 235 255
221 235 255
221 235 255
221 235 255
221 235 255
221 235 255
221 235 255
221 235 255
221 235 255
221 235 255
221 235 255
221 235 255
221 235 255
221 235 255
221 235 255
221 235 255
221 235 255
221 235 255
221 235 255
221 235 255
221 235 255
221 235 255
221 235 255
221 235 255
221 235 255
221 235 255
221 235 255
221 235 255
221 235 255
221 235 255
221 235 255
221 235 255
221 235 255
221 235 255
221 235 255
221 235 255
221 235 255
221 235 255
221 235 255
221 235 255
221 235 255
221 235 255
221 235 255
221 235 255
221 235 255
221 235 255
221 235 255
221 235 255
221 235 255
221 235 255
221 235 255
221 235 255
221 235 255
221 235 255
221 235 255
221 235 255
221 235 255
221 235 255
221 235 255
221 235 255
221 235 255
221 235 255
221 235 255
221 235 255
221 235 255
221 235 255
221 235 255
221 235 255
221 235 255
221 235 255
221 235 255
221 235 255
221 235 255
221 235 255
221 235 255
221 235 255
221 235 255
221 235 255
221 235 255
221 235 255
221 235 255
221 235 255
221 235 255
221 235 255
221 235 255
221 235 255
221 235 255
221 235 255
221 235 255
221 235 255
221 235 255
221 235 255
221 235 255
221 235 255
221 235 255
221 235 255
221 235 255
221 235 255
221 235 255
221 235 255
221 235 255
221 235 255
221 235 255
157 168 185
0 0 41
0 0 42
0 0 42
0 0 42
0 0 42
0 0 42
0 0 42
0 0 42
0 0 42
0 0 42
0 0 42
0 0 42
0 0 42
0 0 42
0 0 42
0 0 42
0 0 42
0 0 42
0 0 42
0 0 42
0 0 42
0 0 42
0 0 42
0 0 42
0 0 42
0 0 42
0 0 42
0 0 42
0 0 42
0 0 42
0 0 42
0 0 42
0 0 42
0 0 42
0 0 42
0 0 42
0 0 42
0 0 42
0 0 42
0 0 42
0 0 42
0 0 42
0 0 42
0 0 42
0 0 42
0 0 42
0 0 42
0 0 42
0 0 42
0 0 42
0 0 42
0 0 42
0 0 42
0 0 42
0 0 42
0 0 42
0 0 42
0 0 42
0 0 42
0 0 42
0 0 42
0 0 42
0 0 42
0 0 42
0 0 42
0 0 42
0 0 42
0 0 42
0 0 42
0 0 42
0 0 42
0 0 42
0 0 42
0 0 42
0 0 42
0 0 42
0 0 42
0 0 42
0 0 42
0 0 42
0 0 42
0 0 42
0 0 42
0 0 42
0 0 42
0 0 42
0 0 42
0 0 42
0 0 42
0 0 42
0 0 42
0 0 42
0 0 42
0 0 42
0 0 42
0 0 42
0 0 42
0 0 42
0 0 42
0 0 42
0 0 42
0 0 42
0 0 42
0 0 42
0 0 42
0 0 42
0 0 42
0 0 42
0 0 42
0 0 42
0 0 42
0 0 42
0 0 42
0 0 42
0 0 42
0 0 42
0 0 42
0 0 42
0 0 42
0 0 42
0 0 42
0 0 42
0 0 42
0 0 42
0 0 42
0 0 42
0 0 43
0 0 46
0 0 37
0 0 43
0 0 47
0 0 45
1 0 44
6 0 33
59 73 61
65 90 58
59 86 37
61 79 32
56 71 28
53 69 27
62 80 35
65 82 35
49 66 13
60 77 21
63 79 23
63 79 20
58 74 12
61 80 20
56 74 19
52 69 18
41 59 10
45 63 17
38 57 12
34 55 0
33 54 8
30 50 4
26 46 0
23 42 0
24 42 6
33 51 13
33 51 11
30 47 0
34 50 9
24 41 1
27 48 0
23 47 0
36 54 10
57 67 17
73 75 30
56 61 18
40 59 10
37 63 16
30 54 0
23 46 0
22 43 0
24 46 4
28 51 13
28 50 5
29 51 0
29 50 0
28 46 9
28 48 0
52 72 44
38 51 45
0 0 41
0 0 35
0 0 42
0 0 43
0 0 37
0 0 46
0 0 41
0 0 46
0 0 42
0 0 42
0 0 42
0 0 42
0 0 42
0 0 42
0 0 42
0 0 42
0 0 42
0 0 42
0 0 42
0 0 42
0 0 42
0 0 42
0 0 42
0 0 42
0 0 42
0 0 42
0 0 42
0 0 42
0 0 42
0 0 42
164 174 191
221 235 255
221 235 255
221 235 255
221 235 255
221 235 255
221 235 255
221 235 255
221 235 255
221 235 255
221 235 255
221 235 255
221 235 255
221 235 255
221 235 255
221 235 255
221 235 255
221 235 255
221 235 255
221 235 255
221 235 255
221 235 255
221 235 255
221 235 255
221 235 255
221 235 255
221 235 255
221 235 255
221 235 255
221 235 255
221 235 255
221 235 255
221 235 255
221 235 255
221 235 255
221 235 255
221 235 255
221 235 255
221 235 255
221 235 255
221 235 255
221 235 255
221 235 255
221 235 255
221 235 255
221 235 255
221 235 255
221 235 255
221 235 255
221 235 255
221 235 255
221 235 255
221 235 255
221 235 255
221 235 255
221 235 255
221 235 255
221 235 255
221 235 255
221 235 255
221 235 255
221 235 255
221 235 255
221 235 255
221 235 255
221 235 255
221 235 255
221 235 255
221 235 255
221 235 255
221 235 255
221 235 255
221 235 255
221 235 255
221 235 255
221 235 255
221 235 255
221 235 255
221 235 255
221 235 255
221 235 255
221 235 255
221 235 255
221 235 255
221 235 255
221 235 255
221 235 255
221 235 255
221 235 255
221 235 255
221 235 255
221 235 255
221 235 255
221 235 255
221 235 255
221 235 255
221 235 255
221 235 255
221 235 255
221 235 255
221 235 255
221 235 255
221 235 255
221 235 255
221 235 255
221 235 255
221 235 255
221 235 255
221 235 255
221 235 255
221 235 255
221 235 255
221 235 255
221 235 255
221 235 255
221 235 255
221 235 255
221 235 255
221 235 255
221 235 255
221 235 255
221 235 255
221 235 255
221 235 255
221 235 255
221 235 255
221 235 255
221 235 255
221 235 255
221 235 255
221 235 255
221 235 255
221 235 255
221 235 255
221 235 255
221 235 255
221 235 255
221 235 255
221 235 255
221 235 255
221 235 255
221 235 255
221 235 255
221 235 255
221 235 255
221 235 255
221 235 255
221 235 255
221 235 255
221 235 255
221 235 255
221 235 255
221 235 255
221 235 255
221 235 255
221 235 255
221 235 255
221 235 255
221 235 255
221 235 255
221 235 255
221 235 255
221 235 255
221 235 255
221 235 255
221 235 255
221 235 255
221 235 255
221 235 255
221 235 255
221 235 255
221 235 255
221 235 255
221 235 255
221 235 255
221 235 255
221 235 255
221 235 255
221 235 255
221 235 255
221 235 255
221 235 255
221 235 255
221 235 255
221 235 255
158 168 185
0 0 42
2 2 43
0 0 42
0 0 42
0 0 42
0 0 42
0 0 42
0 0 42
0 0 42
0 0 42
0 0 42
0 0 42
0 0 42
0 0 42
0 0 42
0 0 42
0 0 42
0 0 42
0 0 42
0 0 42
0 0 42
0 0 42
0 0 42
0 0 42
0 0 42
0 0 42
0 0 42
0 0 42
0 0 42
0 0 42
0 0 42
0 0 42
0 0 42
0 0 42
0 0 42
0 0 42
0 0 42
0 0 42
0 0 42
0 0 42
0 0 42
0 0 42
0 0 42
0 0 42
0 0 42
0 0 42
0 0 42
0 0 42
0 0 42
0 0 42
0 0 42
0 0 42
0 0 42
0 0 42
0 0 42
0 0 42
0 0 42
0 0 42
0 0 42
0 0 42
0 0 42
0 0 42
0 0 42
0 0 42
0 0 42
0 0 42
0 0 42
0 0 42
0 0 42
0 0 42
0 0 42
0 0 42
0 0 42
0 0 42
0 0 42
0 0 42
0 0 42
0 0 42
0 0 42
0 0 42
0 0 42
0 0 42
0 0 42
0 0 42
0 0 42
0 0 42
0 0 42
0 0 42
0 0 42
0 0 42
0 0 42
0 0 42
0 0 42
0 0 42
0 0 42
0 0 42
0 0 42
0 0 42
0 0 42
0 0 42
0 0 42
0 0 42
0 0 42
0 0 42
0 0 42
0 0 42
0 0 42
0 0 42
0 0 42
0 0 42
0 0 42
0 0 42
0 0 42
0 0 42
0 0 42
0 0 42
0 0 42
0 0 42
0 0 42
0 0 42
0 0 42
0 0 42
0 0 42
0 0 42
0 0 42
0 0 42
0 0 42
0 0 44
0 0 36
0 0 36
0 0 42
0 0 46
0 0 46
0 0 32
15 24 15
60 87 47
56 79 30
55 69 23
44 56 14
58 74 27
69 88 42
50 67 21
55 73 21
57 75 19
57 73 18
56 72 13
53 71 12
47 65 10
41 57 5
39 56 0
40 58 0
39 57 11
31 49 4
29 47 2
32 52 7
32 51 8
29 49 0
31 50 11
34 52 11
24 42 0
32 52 0
31 50 0
31 50 0
35 52 7
31 50 4
35 57 7
57 77 25
73 81 31
87 88 43
77 81 40
45 60 16
42 66 19
34 57 5
28 51 0
22 42 0
23 44 0
29 50 2
27 50 0
28 50 0
27 48 0
27 46 2
32 54 0
28 49 0
34 49 36
0 0 36
0 0 46
0 0 43
0 0 42
0 0 42
0 0 42
0 0 42
0 0 45
0 0 42
0 0 42
0 0 42
0 0 42
0 0 42
0 0 42
0 0 42
0 0 42
0 0 42
0 0 42
0 0 42
0 0 42
0 0 42
0 0 42
0 0 42
0 0 42
0 0 42
0 0 42
0 0 42
0 0 42
0 0 42
0 0 42
146 156 172
221 235 255
221 235 255
221 235 255
221 235 255
221 235 255
221 235 255
221 235 255
221 235 255
221 235 255
221 235 255
221 235 255
221 235 255
221 235 255
221 235 255
221 235 255
221 235 255
221 235 255
221 235 255
221 235 255
221 235 255
221 235 255
221 235 255
221 235 255
221 235 255
221 235 255
221 235 255
221 235 255
221 235 255
221 235 255
221 235 255
221 235 255
221 235 255
221 235 255
221 235 255
221 235 255
221 235 255
221 235 255
221 235 255
221 235 255
221 235 255
221 235 255
221 235 255
221 235 255
221 235 255
221 235 255
221 235 255
221 235 255
221 235 255
221 235 255
221 235 255
221 235 255
221 235 255
221 235 255
221 235 255
221 235 255
221 235 255
221 235 255
221 235 255
221 235 255
221 235 255
221 235 255
221 235 255
221 235 255
221 235 255
221 235 255
221 235 255
221 235 255
221 235 255
221 235 255
221 235 255
221 235 255
221 235 255
221 235 255
221 235 255
221 235 255
221 235 255
221 235 255
221 235 255
221 235 255
221 235 255
221 235 255
221 235 255
221 235 255
221 235 255
221 235 255
221 235 255
221 235 255
221 235 255
221 235 255
221 235 255
221 235 255
221 235 255
221 235 255
221 235 255
221 235 255
221 235 255
221 235 255
221 235 255
221 235 255
221 235 255
221 235 255
221 235 255
221 235 255
221 235 255
221 235 255
221 235 255
221 235 255
221 235 255
221 235 255
221 235 255
221 235 255
221 235 255
221 235 255
221 235 255
221 235 255
221 235 255
221 235 255
221 235 255
221 235 255
221 235 255
221 235 255
221 235 255
221 235 255
221 235 255
221 235 255
221 235 255
221 235 255
221 235 255
221 235 255
221 235 255
221 235 255
221 235 255
221 235 255
221 235 255
221 235 255
221 235 255
221 235 255
221 235 255
221 235 255
221 235 255
221 235 255
221 235 255
221 235 255
221 235 255
221 235 255
221 235 255
221 235 255
221 235 255
221 235 255
221 235 255
221 235 255
221 235 255
221 235 255
221 235 255
221 235 255
221 235 255
221 235 255
221 235 255
221 235 255
221 235 255
221 235 255
221 235 255
221 235 255
221 235 255
221 235 255
221 235 255
221 235 255
221 235 255
221 235 255
221 235 255
221 235 255
221 235 255
221 235 255
221 235 255
221 235 255
221 235 255
221 235 255
221 235 255
221 235 255
221 235 255
221 235 255
221 235 255
221 235 255
221 235 255
143 152 169
0 0 42
1 2 42
0 0 42
0 0 41
0 0 42
0 0 42
0 0 42
0 0 42
0 0 42
0 0 42
0 0 42
0 0 42
0 0 42
0 0 42
0 0 42
0 0 42
0 0 42
0 0 42
0 0 42
0 0 42
0 0 42
0 0 42
0 0 42
0 0 42
0 0 42
0 0 42
0 0 42
0 0 42
0 0 42
0 0 42
0 0 42
0 0 42
0 0 42
0 0 42
0 0 42
0 0 42
0 0 42
0 0 42
0 0 42
0 0 42
0 0 42
0 0 42
0 0 42
0 0 42
0 0 42
0 0 42
0 0 42
0 0 42
0 0 42
0 0 42
0 0 42
0 0 42
0 0 42
0 0 42
0 0 42
0 0 42
0 0 42
0 0 42
0 0 42
0 0 42
0 0 42
0 0 42
0 0 42
0 0 42
0 0 42
0 0 42
0 0 42
0 0 42
0 0 42
0 0 42
0 0 42
0 0 42
0 0 42
0 0 42
0 0 42
0 0 42
0 0 42
0 0 42
0 0 42
0 0 42
0 0 42
0 0 42
0 0 42
0 0 42
0 0 42
0 0 42
0 0 42
0 0 42
0 0 42
0 0 42
0 0 42
0 0 42
0 0 42
0 0 42
0 0 42
0 0 42
0 0 42
0 0 42
0 0 42
0 0 42
0 0 42
0 0 42
0 0 42
0 0 42
0 0 42
0 0 42
0 0 42
0 0 42
0 0 42
0 0 42
0 0 42
0 0 42
0 0 42
0 0 42
0 0 42
0 0 42
0 0 42
0 0 42
0 0 42
0 0 42
0 0 42
0 0 42
0 0 42
0 0 42
0 0 42
0 0 42
0 0 42
0 0 45
0 0 32
0 0 37
0 0 39
0 0 35
0 0 33
0 5 26
49 68 48
70 94 53
48 66 19
58 70 27
49 61 16
75 92 48
50 67 23
43 61 11
49 69 18
55 74 19
60 78 24
54 72 16
42 60 7
36 53 0
34 51 3
39 57 8
35 53 6
38 56 12
34 52 7
36 54 11
42 60 18
30 50 0
27 47 0
31 49 8
31 49 9
20 37 0
32 51 0
34 53 5
31 49 1
30 48 0
35 54 0
34 57 5
51 70 18
86 96 46
91 92 46
64 66 29
45 57 18
40 60 14
34 55 0
32 53 0
25 44 0
27 46 0
27 47 0
29 49 0
33 53 0
28 48 0
28 47 0
27 50 0
31 52 0
41 59 34
3 4 28
0 0 53
0 0 47
0 0 43
0 0 48
0 0 37
0 0 43
0 0 42
0 0 42
0 0 42
0 0 42
0 0 42
0 0 42
0 0 42
0 0 42
0 0 42
0 0 42
0 0 42
0 0 42
0 0 42
0 0 42
0 0 42
0 0 42
0 0 42
0 0 42
0 0 42
0 0 42
0 0 42
0 0 42
0 0 42
139 149 165
221 235 255
221 235 255
221 235 255
221 235 255
221 235 255
221 235 255
221 235 255
221 235 255
221 235 255
221 235 255
221 235 255
221 235 255
221 235 255
221 235 255
221 235 255
221 235 255
221 235 255
221 235 255
221 235 255
221 235 255
221 235 255
221 235 255
221 235 255
221 235 255
221 235 255
221 235 255
221 235 255
221 235 255
221 235 255
221 235 255
221 235 255
221 235 255
221 235 255
221 235 255
221 235 255
221 235 255
221 235 255
221 235 255
221 235 255
221 235 255
221 235 255
221 235 255
221 235 255
221 235 255
221 235 255
221 235 255
221 235 255
221 235 255
221 235 255
221 235 255
221 235 255
221 235 255
221 235 255
221 235 255
221 235 255
221 235 255
221 235 255
221 235 255
221 235 255
221 235 255
221 235 255
221 235 255
221 235 255
221 235 255
221 235 255
221 235 255
221 235 255
221 235 255
221 235 255
221 235 255
221 235 255
221 235 255
221 235 255
221 235 255
221 235 255
221 235 255
221 235 255
221 235 255
221 235 255
221 235 255
221 235 255
221 235 255
221 235 255
221 235 255
221 235 255
221 235 255
221 235 255
221 235 255
221 235 255
221 235 255
221 235 255
221 235 255
221 235 255
221 235 255
221 235 255
221 235 255
221 235 255
221 235 255
221 235 255
221 235 255
221 235 255
221 235 255
221 235 255
221 235 255
221 235 255
221 235 255
221 235 255
221 235 255
221 235 255
221 235 255
221 235 255
221 235 255
221 235 255
221 235 255
221 235 255
221 235 255
221 235 255
221 235 255
221 235 255
221 235 255
221 235 255
221 235 255
221 235 255
221 235 255
221 235 255
221 235 255
221 235 255
221 235 255
221 235 255
221 235 255
221 235 255
221 235 255
221 235 255
221 235 255
221 235 255
221 235 255
221 235 255
221 235 255
221 235 255
221 235 255
221 235 255
221 235 255
221 235 255
221 235 255
221 235 255
221 235 255
221 235 255
221 235 255
221 235 255
221 235 255
221 235 255
221 235 255
221 235 255
221 235 255
221 235 255
221 235 255
221 235 255
221 235 255
221 235 255
221 235 255
221 235 255
221 235 255
221 235 255
221 235 255
221 235 255
221 235 255
221 235 255
221 235 255
221 235 255
221 235 255
221 235 255
221 235 255
221 235 255
221 235 255
221 235 255
221 235 255
221 235 255
221 235 255
221 235 255
221 235 255
221 235 255
221 235 255
221 235 255
221 235 255
127 135 151
0 0 42
0 0 41
0 0 42
0 0 42
0 0 42
0 0 42
0 0 42
0 0 42
0 0 42
0 0 42
0 0 42
0 0 42
0 0 42
0 0 42
0 0 42
0 0 42
0 0 42
0 0 42
0 0 42
0 0 42
0 0 42
0 0 42
0 0 42
0 0 42
0 0 42
0 0 42
0 0 42
0 0 42
0 0 42
0 0 42
0 0 42
0 0 42
0 0 42
0 0 42
0 0 42
0 0 42
0 0 42
0 0 42
0 0 42
0 0 42
0 0 42
0 0 42
0 0 42
0 0 42
0 0 42
0 0 42
0 0 42
0 0 42
0 0 42
0 0 42
0 0 42
0 0 42
0 0 42
0 0 42
0 0 42
0 0 42
0 0 42
0 0 42
0 0 42
0 0 42
0 0 42
0 0 42
0 0 42
0 0 42
0 0 42
0 0 42
0 0 42
0 0 42
0 0 42
0 0 42
0 0 42
0 0 42
0 0 42
0 0 42
0 0 42
0 0 42
0 0 42
0 0 42
0 0 42
0 0 42
0 0 42
0 0 42
0 0 42
0 0 42
0 0 42
0 0 42
0 0 42
0 0 42
0 0 42
0 0 42
0 0 42
0 0 42
0 0 42
0 0 42
0 0 42
0 0 42
0 0 42
0 0 42
0 0 42
0 0 42
0 0 42
0 0 42
0 0 42
0 0 42
0 0 42
0 0 42
0 0 42
0 0 42
0 0 42
0 0 42
0 0 42
0 0 42
0 0 42
0 0 42
0 0 42
0 0 42
0 0 42
0 0 42
0 0 42
0 0 42
0 0 42
0 0 42
0 0 42
0 0 42
0 0 42
0 0 42
0 0 42
0 0 43
0 0 37
0 0 40
0 0 37
7 9 29
29 39 47
31 50 47
60 83 55
49 69 32
50 63 20
55 67 22
51 63 23
71 88 45
41 57 18
31 49 0
33 53 0
39 59 5
46 65 10
46 66 9
40 59 7
35 54 0
33 51 0
42 60 9
36 54 6
32 51 3
37 55 13
33 51 8
33 51 0
30 49 0
27 48 0
29 49 0
27 46 0
22 41 0
26 44 0
35 54 8
35 53 2
30 50 0
34 56 0
37 59 0
47 66 15
79 91 41
61 65 17
66 71 30
61 73 33
38 55 9
38 58 5
29 48 0
26 45 0
24 44 0
26 45 0
30 49 0
33 52 0
31 51 8
28 48 0
32 55 0
32 53 0
37 54 23
36 44 36
0 0 40
0 0 44
0 0 45
0 0 52
0 0 36
0 0 41
0 0 42
0 0 42
0 0 42
0 0 42
0 0 42
0 0 42
0 0 42
0 0 42
0 0 42
0 0 42
0 0 42
0 0 42
0 0 42
0 0 42
0 0 42
0 0 42
0 0 42
0 0 42
0 0 42
0 0 42
0 0 42
0 0 42
0 0 42
123 131 146
221 235 255
221 235 255
221 235 255
221 235 255
221 235 255
221 235 255
221 235 255
221 235 255
221 235 255
221 235 255
221 235 255
221 235 255
221 235 255
221 235 255
221 235 255
221 235 255
221 235 255
221 235 255
221 235 255
221 235 255
221 235 255
221 235 255
221 235 255
221 235 255
221 235 255
221 235 255
221 235 255
221 235 255
221 235 255
221 235 255
221 235 255
221 235 255
221 235 255
221 235 255
221 235 255
221 235 255
221 235 255
221 235 255
221 235 255
221 235 255
221 235 255
221 235 255
221 235 255
221 235 255
221 235 255
221 235 255
221 235 255
221 235 255
221 235 255
221 235 255
221 235 255
221 235 255
221 235 255
221 235 255
221 235 255
221 235 255
221 235 255
221 235 255
221 235 255
221 235 255
221 235 255
221 235 255
221 235 255
221 235 255
221 235 255
221 235 255
221 235 255
221 235 255
221 235 255
221 235 255
221 235 255
221 235 255
221 235 255
221 235 255
221 235 255
221 235 255
221 235 255
221 235 255
221 235 255
221 235 255
221 235 255
221 235 255
221 235 255
221 235 255
221 235 255
221 235 255
221 235 255
221 235 255
221 235 255
221 235 255
221 235 255
221 235 255
221 235 255
221 235 255
221 235 255
221 235 255
221 235 255
221 235 255
221 235 255
221 235 255
221 235 255
221 235 255
221 235 255
221 235 255
221 235 255
221 235 255
221 235 255
221 235 255
221 235 255
221 235 255
221 235 255
221 235 255
221 235 255
221 235 255
221 235 255
221 235 255
221 235 255
221 235 255
221 235 255
221 235 255
221 235 255
221 235 255
221 235 255
221 235 255
221 235 255
221 235 255
221 235 255
221 235 255
221 235 255
221 235 255
221 235 255
221 235 255
221 235 255
221 235 255
221 235 255
221 235 255
221 235 255
221 235 255
221 235 255
221 235 255
221 235 255
221 235 255
221 235 255
221 235 255
221 235 255
221 235 255
221 235 255
221 235 255
221 235 255
221 235 255
221 235 255
221 235 255
221 235 255
221 235 255
221 235 255
221 235 255
221 235 255
221 235 255
221 235 255
221 235 255
221 235 255
221 235 255
221 235 255
221 235 255
221 235 255
221 235 255
221 235 255
221 235 255
221 235 255
221 235 255
221 235 255
221 235 255
221 235 255
221 235 255
221 235 255
221 235 255
221 235 255
221 235 255
221 235 255
221 235 255
221 235 255
221 235 255
221 235 255
221 235 255
99 105 120
0 0 42
0 0 42
0 0 40
0 0 42
0 0 42
0 0 42
0 0 42
0 0 42
0 0 42
0 0 42
0 0 42
0 0 42
0 0 42
0 0 42
0 0 42
0 0 42
0 0 42
0 0 42
0 0 42
0 0 42
0 0 42
0 0 42
0 0 42
0 0 42
0 0 42
0 0 42
0 0 42
0 0 42
0 0 42
0 0 42
0 0 42
0 0 42
0 0 42
0 0 42
0 0 42
0 0 42
0 0 42
0 0 42
0 0 42
0 0 42
0 0 42
0 0 42
0 0 42
0 0 42
0 0 42
0 0 42
0 0 42
0 0 42
0 0 42
0 0 42
0 0 42
0 0 42
0 0 42
0 0 42
0 0 42
0 0 42
0 0 42
0 0 42
0 0 42
0 0 42
0 0 42
0 0 42
0 0 42
0 0 42
0 0 42
0 0 42
0 0 42
0 0 42
0 0 42
0 0 42
0 0 42
0 0 42
0 0 42
0 0 42
0 0 42
0 0 42
0 0 42
0 0 42
0 0 42
0 0 42
0 0 42
0 0 42
0 0 42
0 0 42
0 0 42
0 0 42
0 0 42
0 0 42
0 0 42
0 0 42
0 0 42
0 0 42
0 0 42
0 0 42
0 0 42
0 0 42
0 0 42
0 0 42
0 0 42
0 0 42
0 0 42
0 0 42
0 0 41
0 0 42
0 0 42
0 0 41
0 0 42
0 0 42
0 0 42
0 0 42
0 0 42
0 0 42
0 0 42
0 0 42
0 0 42
0 0 42
0 0 42
0 0 42
0 0 42
0 0 42
0 0 42
0 0 42
0 0 42
0 0 42
0 0 42
0 0 42
0 0 41
0 0 40
0 0 44
8 0 45
7 7 37
18 26 35
81 105 105
72 104 73
61 87 53
40 55 11
62 74 32
60 71 32
82 96 56
47 62 26
52 71 25
46 66 18
36 56 7
35 56 0
45 67 14
35 55 0
32 53 0
32 53 0
32 53 0
34 54 0
29 48 0
26 45 0
32 50 4
35 54 7
33 51 5
34 55 8
26 48 0
30 50 0
29 49 0
23 41 0
23 41 0
27 46 0
33 52 0
33 53 0
27 51 0
32 56 0
37 59 0
42 59 2
48 58 11
67 78 34
47 61 21
42 60 15
33 53 0
26 45 0
33 51 9
27 45 3
29 48 8
30 48 0
31 50 0
27 45 2
30 51 0
31 55 0
27 48 3
32 47 12
74 85 62
44 48 38
7 5 29
0 0 41
0 0 49
0 0 40
0 0 38
0 0 41
0 0 42
0 0 42
0 0 42
0 0 42
0 0 42
0 0 42
0 0 42
0 0 42
0 0 42
0 0 42
0 0 42
0 0 42
0 0 42
0 0 42
0 0 42
0 0 42
0 0 42
0 0 42
0 0 42
0 0 42
0 0 42
0 0 42
106 113 128
221 235 255
221 235 255
221 235 255
221 235 255
221 235 255
221 235 255
221 235 255
221 235 255
221 235 255
221 235 255
221 235 255
221 235 255
221 235 255
221 235 255
221 235 255
221 235 255
221 235 255
221 235 255
221 235 255
221 235 255
221 235 255
221 235 255
221 235 255
221 235 255
221 235 255
221 235 255
221 235 255
221 235 255
221 235 255
221 235 255
221 235 255
221 235 255
221 235 255
221 235 255
221 235 255
221 235 255
221 235 255
221 235 255
221 235 255
221 235 255
221 235 255
221 235 255
221 235 255
221 235 255
221 235 255
221 235 255
221 235 255
221 235 255
221 235 255
221 235 255
221 235 255
221 235 255
221 235 255
221 235 255
221 235 255
221 235 255
221 235 255
221 235 255
221 235 255
221 235 255
221 235 255
221 235 255
221 235 255
221 235 255
221 235 255
221 235 255
221 235 255
221 235 255
221 235 255
221 235 255
221 235 255
221 235 255
221 235 255
221 235 255
221 235 255
221 235 255
221 235 255
221 235 255
221 235 255
221 235 255
221 235 255
221 235 255
221 235 255
221 235 255
221 235 255
221 235 255
221 235 255
221 235 255
221 235 255
221 235 255
221 235 255
221 235 255
221 235 255
221 235 255
221 235 255
221 235 255
221 235 255
221 235 255
221 235 255
221 235 255
221 235 255
221 235 255
221 235 255
221 235 255
221 235 255
221 235 255
221 235 255
221 235 255
221 235 255
221 235 255
221 235 255
221 235 255
221 235 255
221 235 255
221 235 255
221 235 255
221 235 255
221 235 255
221 235 255
221 235 255
221 235 255
221 235 255
221 235 255
221 235 255
221 235 255
221 235 255
221 235 255
221 235 255
221 235 255
221 235 255
221 235 255
221 235 255
221 235 255
221 235 255
221 235 255
221 235 255
221 235 255
221 235 255
221 235 255
221 235 255
221 235 255
221 235 255
221 235 255
221 235 255
221 235 255
221 235 255
221 235 255
221 235 255
221 235 255
221 235 255
221 235 255
221 235 255
221 235 255
221 235 255
221 235 255
221 235 255
221 235 255
221 235 255
221 235 255
221 235 255
221 235 255
221 235 255
221 235 255
221 235 255
221 235 255
221 235 255
221 235 255
221 235 255
221 235 255
221 235 255
221 235 255
221 235 255
221 235 255
221 235 255
221 235 255
221 235 255
221 235 255
221 235 255
221 235 255
221 235 255
221 235 255
221 235 255
221 235 255
221 235 255
96 102 117
0 0 42
0 0 42
18 18 50
0 0 41
0 0 42
0 0 42
0 0 42
0 0 42
0 0 42
0 0 42
0 0 42
0 0 42
0 0 42
0 0 42
0 0 42
0 0 42
0 0 42
0 0 42
0 0 42
0 0 42
0 0 42
0 0 42
0 0 42
0 0 42
0 0 42
0 0 42
0 0 42
0 0 42
0 0 42
0 0 42
0 0 42
0 0 42
0 0 42
0 0 42
0 0 42
0 0 42
0 0 42
0 0 42
0 0 42
0 0 42
0 0 42
0 0 42
0 0 42
0 0 42
0 0 42
0 0 42
0 0 42
0 0 42
0 0 42
0 0 42
0 0 42
0 0 42
0 0 42
0 0 42
0 0 42
0 0 42
0 0 42
0 0 42
0 0 42
0 0 42
0 0 42
0 0 42
0 0 42
0 0 42
0 0 42
0 0 42
0 0 42
0 0 42
0 0 42
0 0 42
0 0 42
0 0 42
0 0 42
0 0 42
0 0 42
0 0 42
0 0 42
0 0 42
0 0 42
0 0 42
0 0 42
0 0 42
0 0 42
0 0 42
0 0 42
0 0 42
0 0 42
0 0 42
0 0 42
0 0 42
0 0 42
0 0 42
0 0 42
0 0 42
0 0 42
0 0 42
0 0 42
0 0 42
0 0 42
0 0 42
0 0 42
0 0 42
0 0 42
0 0 40
0 0 41
0 0 42
0 0 39
0 0 42
0 0 42
0 0 42
0 0 42
0 0 42
0 0 42
0 0 42
0 0 42
0 0 42
0 0 42
0 0 42
0 0 42
0 0 42
0 0 42
0 0 42
0 0 42
0 0 42
0 0 42
0 0 42
0 0 40
4 4 38
2 2 45
3 0 42
3 4 29
38 52 49
68 96 68
61 93 43
50 73 24
61 76 30
63 74 32
49 61 20
50 64 25
52 69 27
54 73 26
44 63 17
37 58 3
31 52 0
39 60 10
37 57 0
35 58 5
28 50 0
34 56 3
37 57 8
28 48 0
26 46 0
30 50 0
34 53 0
34 55 6
34 57 10
27 50 5
23 44 3
27 47 0
26 45 4
35 54 16
35 54 14
29 48 3
31 52 2
26 53 0
29 55 0
32 56 0
33 54 0
36 53 0
39 55 5
34 52 5
36 54 12
34 52 0
26 44 0
29 47 0
34 52 10
48 67 27
28 47 0
31 49 0
28 45 3
31 51 0
31 55 0
28 47 7
30 44 11
61 71 36
100 108 74
48 50 41
0 0 33
0 0 44
0 0 47
0 0 35
0 0 41
0 0 42
0 0 42
0 0 42
0 0 42
0 0 42
0 0 42
0 0 42
0 0 42
0 0 42
0 0 42
0 0 42
0 0 42
0 0 42
0 0 42
0 0 42
0 0 42
0 0 42
0 0 42
0 0 42
0 0 42
0 0 42
0 0 42
88 94 109
221 235 255
221 235 255
221 235 255
221 235 255
221 235 255
221 235 255
221 235 255
221 235 255
221 235 255
221 235 255
221 235 255
221 235 255
221 235 255
221 235 255
221 235 255
221 235 255
221 235 255
221 235 255
221 235 255
221 235 255
221 235 255
221 235 255
221 235 255
221 235 255
221 235 255
221 235 255
221 235 255
221 235 255
221 235 255
221 235 255
221 235 255
221 235 255
221 235 255
221 235 255
221 235 255
221 235 255
221 235 255
221 235 255
221 235 255
221 235 255
221 235 255
221 235 255
221 235 255
221 235 255
221 235 255
221 235 255
221 235 255
221 235 255
221 235 255
221 235 255
221 235 255
221 235 255
221 235 255
221 235 255
221 235 255
221 235 255
221 235 255
221 235 255
221 235 255
221 235 255
221 235 255
221 235 255
221 235 255
221 235 255
221 235 255
221 235 255
221 235 255
221 235 255
221 235 255
221 235 255
221 235 255
221 235 255
221 235 255
221 235 255
221 235 255
221 235 255
221 235 255
221 235 255
221 235 255
221 235 255
221 235 255
221 235 255
221 235 255
221 235 255
221 235 255
221 235 255
221 235 255
221 235 255
221 235 255
221 235 255
221 235 255
221 235 255
221 235 255
221 235 255
221 235 255
221 235 255
221 235 255
221 235 255
221 235 255
221 235 255
221 235 255
221 235 255
221 235 255
221 235 255
221 235 255
221 235 255
221 235 255
221 235 255
221 235 255
221 235 255
221 235 255
221 235 255
221 235 255
221 235 255
221 235 255
221 235 255
221 235 255
221 235 255
221 235 255
221 235 255
221 235 255
221 235 255
221 235 255
221 235 255
221 235 255
221 235 255
221 235 255
221 235 255
221 235 255
221 235 255
221 235 255
221 235 255
221 235 255
221 235 255
221 235 255
221 235 255
221 235 255
221 235 255
221 235 255
221 235 255
221 235 255
221 235 255
221 235 255
221 235 255
221 235 255
221 235 255
221 235 255
221 235 255
221 235 255
221 235 255
221 235 255
221 235 255
221 235 255
221 235 255
221 235 255
221 235 255
221 235 255
221 235 255
221 235 255
221 235 255
221 235 255
221 235 255
221 235 255
221 235 255
221 235 255
221 235 255
221 235 255
221 235 255
221 235 255
221 235 255
221 235 255
221 235 255
221 235 255
221 235 255
221 235 255
221 235 255
221 235 255
221 235 255
221 235 255
221 235 255
221 235 255
221 235 255
221 235 255
221 235 255
85 91 106
0 0 42
0 0 42
9 9 44
0 0 42
0 0 42
0 0 42
0 0 42
0 0 42
0 0 42
0 0 42
0 0 42
0 0 42
0 0 42
0 0 42
0 0 42
0 0 42
0 0 42
0 0 42
0 0 42
0 0 42
0 0 42
0 0 42
0 0 42
0 0 42
0 0 42
0 0 42
0 0 42
0 0 42
0 0 42
0 0 42
0 0 42
0 0 42
0 0 42
0 0 42
0 0 42
0 0 42
0 0 42
0 0 42
0 0 42
0 0 42
0 0 42
0 0 42
0 0 42
0 0 42
0 0 42
0 0 42
0 0 42
0 0 42
0 0 42
0 0 42
0 0 42
0 0 42
0 0 42
0 0 42
0 0 42
0 0 42
0 0 42
0 0 42
0 0 42
0 0 42
0 0 42
0 0 42
0 0 42
0 0 42
0 0 42
0 0 42
0 0 42
0 0 42
0 0 42
0 0 42
0 0 42
0 0 42
0 0 42
0 0 42
0 0 42
0 0 42
0 0 42
0 0 42
0 0 42
0 0 42
0 0 42
0 0 42
0 0 42
0 0 42
0 0 42
0 0 42
0 0 42
0 0 42
0 0 42
0 0 42
0 0 42
0 0 42
0 0 42
0 0 42
0 0 42
0 0 42
0 0 42
0 0 42
0 0 42
0 0 42
0 0 42
0 0 42
0 0 43
0 0 42
0 0 42
0 0 39
0 0 40
0 0 42
0 0 42
0 0 42
0 0 42
0 0 42
0 0 42
0 0 42
0 0 42
0 0 42
0 0 42
0 0 42
0 0 42
0 0 42
0 0 42
0 0 42
0 0 42
0 0 42
0 0 42
0 0 42
0 0 42
6 7 43
3 3 40
0 0 31
0 0 18
65 85 70
76 103 68
62 89 34
53 73 23
78 92 50
47 58 20
52 67 27
50 66 24
51 70 25
41 60 13
40 62 9
32 54 0
31 52 0
36 55 0
35 54 0
39 61 7
33 55 0
32 53 0
31 52 0
30 50 0
25 48 0
28 50 0
31 53 0
33 56 11
29 50 9
34 55 13
21 40 6
28 49 0
29 49 11
29 48 13
27 46 2
34 54 12
29 51 5
26 50 0
29 53 0
28 51 0
29 52 0
26 48 0
25 46 0
26 47 0
28 47 0
32 51 0
31 50 0
30 49 0
31 49 7
42 61 19
30 49 0
30 49 0
30 46 10
27 49 0
29 51 0
28 47 10
30 45 10
38 48 0
82 87 39
100 98 72
0 0 21
0 0 36
0 0 51
0 0 35
0 0 40
0 0 42
0 0 42
0 0 42
0 0 42
0 0 42
0 0 42
0 0 42
0 0 42
0 0 42
0 0 42
0 0 42
0 0 42
0 0 42
0 0 42
0 0 42
0 0 42
0 0 42
0 0 42
0 0 42
0 0 42
0 0 42
0 0 42
76 81 97
221 235 255
221 235 255
221 235 255
221 235 255
221 235 255
221 235 255
221 235 255
221 235 255
221 235 255
221 235 255
221 235 255
221 235 255
221 235 255
221 235 255
221 235 255
221 235 255
221 235 255
221 235 255
221 235 255
221 235 255
221 235 255
221 235 255
221 235 255
221 235 255
221 235 255
221 235 255
221 235 255
221 235 255
221 235 255
221 235 255
221 235 255
221 235 255
221 235 255
221 235 255
221 235 255
221 235 255
221 235 255
221 235 255
221 235 255
221 235 255
221 235 255
221 235 255
221 235 255
221 235 255
221 235 255
221 235 255
221 235 255
221 235 255
221 235 255
221 235 255
221 235 255
221 235 255
221 235 255
221 235 255
221 235 255
221 235 255
221 235 255
221 235 255
221 235 255
221 235 255
221 235 255
221 235 255
221 235 255
221 235 255
221 235 255
221 235 255
221 235 255
221 235 255
221 235 255
221 235 255
221 235 255
221 235 255
221 235 255
221 235 255
221 235 255
221 235 255
221 235 255
221 235 255
221 235 255
221 235 255
221 235 255
221 235 255
221 235 255
221 235 255
221 235 255
221 235 255
221 235 255
221 235 255
221 235 255
221 235 255
221 235 255
221 235 255
221 235 255
221 235 255
221 235 255
221 235 255
221 235 255
221 235 255
221 235 255
221 235 255
221 235 255
221 235 255
221 235 255
221 235 255
221 235 255
221 235 255
221 235 255
221 235 255
221 235 255
221 235 255
221 235 255
221 235 255
221 235 255
221 235 255
221 235 255
221 235 255
221 235 255
221 235 255
221 235 255
221 235 255
221 235 255
221 235 255
221 235 255
221 235 255
221 235 255
221 235 255
221 235 255
221 235 255
221 235 255
221 235 255
221 235 255
221 235 255
221 235 255
221 235 255
221 235 255
221 235 255
221 235 255
221 235 255
221 235 255
221 235 255
221 235 255
221 235 255
221 235 255
221 235 255
221 235 255
221 235 255
221 235 255
221 235 255
221 235 255
221 235 255
221 235 255
221 235 255
221 235 255
221 235 255
221 235 255
221 235 255
221 235 255
221 235 255
221 235 255
221 235 255
221 235 255
221 235 255
221 235 255
221 235 255
221 235 255
221 235 255
221 235 255
221 235 255
221 235 255
221 235 255
221 235 255
221 235 255
221 235 255
221 235 255
221 235 255
221 235 255
221 235 255
221 235 255
221 235 255
221 235 255
221 235 255
221 235 255
221 235 255
221 235 255
91 97 112
0 0 42
0 0 42
4 4 42
0 0 42
0 0 42
0 0 42
0 0 42
0 0 42
0 0 42
0 0 42
0 0 42
0 0 42
0 0 42
0 0 42
0 0 42
0 0 42
0 0 42
0 0 42
0 0 42
0 0 42
0 0 42
0 0 42
0 0 42
0 0 42
0 0 42
0 0 42
0 0 42
0 0 42
0 0 42
0 0 42
0 0 42
0 0 42
0 0 42
0 0 42
0 0 42
0 0 42
0 0 42
0 0 42
0 0 42
0 0 42
0 0 42
0 0 42
0 0 42
0 0 42
0 0 42
0 0 42
0 0 42
0 0 42
0 0 42
0 0 42
0 0 42
0 0 42
0 0 42
0 0 42
0 0 42
0 0 42
0 0 42
0 0 42
0 0 42
0 0 42
0 0 42
0 0 42
0 0 42
0 0 42
0 0 42
0 0 42
0 0 42
0 0 42
0 0 42
0 0 42
0 0 42
0 0 42
0 0 42
0 0 42
0 0 42
0 0 42
0 0 42
0 0 42
0 0 42
0 0 42
0 0 42
0 0 42
0 0 42
0 0 42
0 0 42
0 0 42
0 0 42
0 0 42
0 0 42
0 0 42
0 0 42
0 0 42
0 0 42
0 0 42
0 0 42
0 0 42
0 0 42
0 0 42
0 0 42
0 0 42
0 0 42
0 0 42
0 0 42
0 0 40
0 0 42
0 0 43
0 0 42
0 0 42
0 0 42
0 0 42
0 0 42
0 0 42
0 0 42
0 0 42
0 0 42
0 0 42
0 0 42
0 0 42
0 0 42
0 0 42
0 0 42
0 0 42
0 0 42
0 0 42
0 0 42
0 0 42
0 0 40
6 0 38
53 61 77
90 110 112
44 69 43
77 103 73
60 83 42
55 72 24
82 97 56
77 89 54
37 50 6
36 51 15
48 65 24
44 61 17
44 63 18
36 57 6
28 49 0
32 51 0
35 54 0
35 52 0
36 56 0
33 53 0
27 48 0
25 45 0
25 45 0
28 50 0
27 50 0
23 46 0
23 44 3
27 49 2
19 39 1
26 46 11
28 48 16
23 44 0
18 36 0
25 43 0
25 43 2
26 45 0
24 42 0
25 44 0
29 48 0
28 49 0
26 50 0
29 53 0
25 46 0
23 41 0
29 47 0
28 47 0
26 45 0
25 44 0
32 51 3
28 48 0
26 45 0
27 45 4
29 49 0
23 44 0
28 48 6
38 53 13
41 50 1
81 84 29
118 108 65
50 44 32
0 0 36
0 0 49
0 0 38
0 0 40
0 0 42
0 0 42
0 0 42
0 0 42
0 0 42
0 0 42
0 0 42
0 0 42
0 0 42
0 0 42
0 0 42
0 0 42
0 0 42
0 0 42
0 0 42
0 0 42
0 0 42
0 0 42
0 0 42
0 0 42
0 0 42
0 0 42
101 108 123
221 235 255
221 235 255
221 235 255
221 235 255
221 235 255
221 235 255
221 235 255
221 235 255
221 235 255
221 235 255
221 235 255
221 235 255
221 235 255
221 235 255
221 235 255
221 235 255
221 235 255
221 235 255
221 235 255
221 235 255
221 235 255
221 235 255
221 235 255
221 235 255
221 235 255
221 235 255
221 235 255
221 235 255
221 235 255
221 235 255
221 235 255
221 235 255
221 235 255
221 235 255
221 235 255
221 235 255
221 235 255
221 235 255
221 235 255
221 235 255
221 235 255
221 235 255
221 235 255
221 235 255
221 235 255
221 235 255
221 235 255
221 235 255
221 235 255
221 235 255
221 235 255
221 235 255
221 235 255
221 235 255
221 235 255
221 235 255
221 235 255
221 235 255
221 235 255
221 235 255
221 235 255
221 235 255
221 235 255
221 235 255
221 235 255
221 235 255
221 235 255
221 235 255
221 235 255
221 235 255
221 235 255
221 235 255
221 235 255
221 235 255
221 235 255
221 235 255
221 235 255
221 235 255
221 235 255
221 235 255
221 235 255
221 235 255
221 235 255
221 235 255
221 235 255
221 235 255
221 235 255
221 235 255
221 235 255
221 235 255
221 235 255
221 235 255
221 235 255
221 235 255
221 235 255
221 235 255
221 235 255
221 235 255
221 235 255
221 235 255
221 235 255
221 235 255
221 235 255
221 235 255
221 235 255
221 235 255
221 235 255
221 235 255
221 235 255
221 235 255
221 235 255
221 235 255
221 235 255
221 235 255
221 235 255
221 235 255
221 235 255
221 235 255
221 235 255
221 235 255
221 235 255
221 235 255
221 235 255
221 235 255
221 235 255
221 235 255
221 235 255
221 235 255
221 235 255
221 235 255
221 235 255
221 235 255
221 235 255
221 235 255
221 235 255
221 235 255
221 235 255
221 235 255
221 235 255
221 235 255
221 235 255
221 235 255
221 235 255
221 235 255
221 235 255
221 235 255
221 235 255
221 235 255
221 235 255
221 235 255
221 235 255
221 235 255
221 235 255
221 235 255
221 235 255
221 235 255
221 235 255
221 235 255
221 235 255
221 235 255
221 235 255
221 235 255
221 235 255
221 235 255
221 235 255
221 235 255
221 235 255
221 235 255
221 235 255
221 235 255
221 235 255
221 235 255
221 235 255
221 235 255
221 235 255
221 235 255
221 235 255
221 235 255
221 235 255
221 235 255
221 235 255
221 235 255
221 235 255
221 235 255
79 85 100
0 0 42
0 0 42
0 0 42
0 0 42
0 0 42
0 0 42
0 0 42
0 0 42
0 0 42
0 0 42
0 0 42
0 0 42
0 0 42
0 0 42
0 0 42
0 0 42
0 0 42
0 0 42
0 0 42
0 0 42
0 0 42
0 0 42
0 0 42
0 0 42
0 0 42
0 0 42
0 0 42
0 0 42
0 0 42
0 0 42
0 0 42
0 0 42
0 0 42
0 0 42
0 0 42
0 0 42
0 0 42
0 0 42
0 0 42
0 0 42
0 0 42
0 0 42
0 0 42
0 0 42
0 0 42
0 0 42
0 0 42
0 0 42
0 0 42
0 0 42
0 0 42
0 0 42
0 0 42
0 0 42
0 0 42
0 0 42
0 0 42
0 0 42
0 0 42
0 0 42
0 0 42
0 0 42
0 0 42
0 0 42
0 0 42
0 0 42
0 0 42
0 0 42
0 0 42
0 0 42
0 0 42
0 0 42
0 0 42
0 0 42
0 0 42
0 0 42
0 0 42
0 0 42
0 0 42
0 0 42
0 0 42
0 0 42
0 0 42
0 0 42
0 0 42
0 0 42
0 0 42
0 0 42
0 0 42
0 0 42
0 0 42
0 0 42
0 0 42
0 0 42
0 0 42
0 0 42
0 0 42
0 0 42
0 0 42
0 0 42
0 0 42
0 0 42
0 0 42
2 2 41
4 4 41
0 0 42
0 0 41
0 0 42
0 0 42
0 0 42
0 0 42
0 0 42
0 0 42
0 0 42
0 0 42
0 0 42
0 0 42
0 0 42
0 0 42
0 0 42
0 0 42
0 0 42
0 0 42
0 0 42
0 0 42
0 0 42
0 0 41
5 0 39
68 79 88
140 172 165
98 135 88
60 89 47
40 59 13
65 78 30
98 109 82
52 63 29
41 56 13
27 45 0
33 49 15
38 56 10
31 51 8
34 55 3
32 51 0
26 44 0
31 48 0
28 43 0
27 45 0
28 46 0
30 49 4
32 51 11
21 41 2
21 42 0
18 40 0
17 40 0
19 42 0
20 42 0
20 41 0
20 40 7
21 42 7
23 44 7
19 37 0
23 40 3
20 37 0
23 41 0
22 36 0
28 42 0
31 46 0
25 42 0
23 45 0
24 47 0
27 46 0
29 47 0
27 46 0
24 43 0
26 45 0
22 41 0
28 47 0
25 43 0
30 48 0
26 44 0
26 45 0
19 40 0
22 42 0
42 57 8
50 58 7
85 85 39
117 102 52
77 71 45
0 0 38
0 0 46
0 0 43
0 0 41
0 0 42
0 0 42
0 0 42
0 0 42
0 0 42
0 0 42
0 0 42
0 0 42
0 0 42
0 0 42
0 0 42
0 0 42
0 0 42
0 0 42
0 0 42
0 0 42
0 0 42
0 0 42
0 0 42
0 0 42
0 0 42
0 0 42
82 88 103
221 235 255
221 235 255
221 235 255
221 235 255
221 235 255
221 235 255
221 235 255
221 235 255
221 235 255
221 235 255
221 235 255
221 235 255
221 235 255
221 235 255
221 235 255
221 235 255
221 235 255
221 235 255
221 235 255
221 235 255
221 235 255
221 235 255
221 235 255
221 235 255
221 235 255
221 235 255
221 235 255
221 235 255
221 235 255
221 235 255
221 235 255
221 235 255
221 235 255
221 235 255
221 235 255
221 235 255
221 235 255
221 235 255
221 235 255
221 235 255
221 235 255
221 235 255
221 235 255
221 235 255
221 235 255
221 235 255
221 235 255
221 235 255
221 235 255
221 235 255
221 235 255
221 235 255
221 235 255
221 235 255
221 235 255
221 235 255
221 235 255
221 235 255
221 235 255
221 235 255
221 235 255
221 235 255
221 235 255
221 235 255
221 235 255
221 235 255
221 235 255
221 235 255
221 235 255
221 235 255
221 235 255
221 235 255
221 235 255
221 235 255
221 235 255
221 235 255
221 235 255
221 235 255
221 235 255
221 235 255
221 235 255
221 235 255
221 235 255
221 235 255
221 235 255
221 235 255
221 235 255
221 235 255
221 235 255
221 235 255
221 235 255
221 235 255
221 236 255
221 236 255
221 236 255
221 236 255
221 236 255
221 236 255
221 236 255
221 236 255
221 236 255
221 236 255
221 236 255
221 236 255
221 236 255
221 236 255
221 236 255
221 236 255
221 236 255
221 236 255
221 236 255
221 236 255
221 236 255
221 236 255
221 236 255
221 236 255
221 236 255
221 236 255
221 236 255
221 236 255
221 236 255
221 236 255
221 236 255
221 236 255
221 236 255
221 236 255
221 236 255
221 236 255
221 236 255
221 236 255
221 236 255
221 236 255
221 236 255
221 236 255
221 236 255
221 236 255
221 236 255
221 236 255
221 236 255
221 236 255
221 236 255
221 236 255
221 236 255
221 236 255
221 236 255
221 236 255
221 236 255
221 236 255
221 236 255
221 236 255
221 236 255
221 236 255
221 236 255
221 236 255
221 236 255
221 236 255
221 236 255
221 236 255
221 236 255
221 236 255
221 236 255
221 236 255
221 236 255
221 236 255
221 236 255
221 236 255
221 236 255
221 236 255
221 236 255
221 236 255
221 236 255
221 236 255
221 236 255
221 236 255
221 236 255
221 236 255
221 236 255
221 236 255
221 236 255
221 236 255
221 236 255
221 236 255
221 236 255
221 236 255
58 62 79
0 0 42
0 0 42
0 0 41
0 0 42
0 0 42
0 0 42
0 0 42
0 0 42
0 0 42
0 0 42
0 0 42
0 0 42
0 0 42
0 0 42
0 0 42
0 0 42
0 0 42
0 0 42
0 0 42
0 0 42
0 0 42
0 0 42
0 0 42
0 0 42
0 0 42
0 0 42
0 0 42
0 0 42
0 0 42
0 0 42
0 0 42
0 0 42
0 0 42
0 0 42
0 0 42
0 0 42
0 0 42
0 0 42
0 0 42
0 0 42
0 0 42
0 0 42
0 0 42
0 0 42
0 0 42
0 0 42
0 0 42
0 0 42
0 0 42
0 0 42
0 0 42
0 0 42
0 0 42
0 0 42
0 0 42
0 0 42
0 0 42
0 0 42
0 0 42
0 0 42
0 0 42
0 0 42
0 0 42
0 0 42
0 0 42
0 0 42
0 0 42
0 0 42
0 0 42
0 0 42
0 0 42
0 0 42
0 0 42
0 0 42
0 0 42
0 0 42
0 0 42
0 0 42
0 0 42
0 0 42
0 0 42
0 0 42
0 0 42
0 0 42
0 0 42
0 0 42
0 0 42
0 0 42
0 0 42
0 0 42
0 0 42
0 0 42
0 0 42
0 0 42
0 0 42
0 0 42
0 0 42
0 0 42
0 0 41
0 0 41
0 0 39
0 0 37
0 0 34
8 9 41
14 15 39
11 14 35
0 0 33
0 0 39
0 0 41
0 0 42
0 0 42
0 0 41
0 0 42
0 0 42
0 0 42
0 0 42
0 0 42
0 0 42
0 0 42
0 0 42
0 0 42
0 0 42
0 0 41
0 0 41
0 0 41
0 0 42
0 0 44
0 0 38
53 67 58
74 100 80
136 172 143
36 59 22
59 73 32
61 69 33
49 56 27
40 58 16
40 62 8
30 49 0
30 48 0
39 59 11
33 53 4
28 47 0
24 42 0
27 45 0
30 47 0
27 44 0
26 44 0
25 45 0
23 41 0
23 43 0
18 39 0
16 37 0
14 38 0
20 45 0
24 49 10
20 44 6
22 46 0
17 40 0
14 36 0
18 37 0
22 43 0
22 41 6
22 40 3
24 44 0
24 41 0
28 43 0
26 43 0
24 43 0
24 46 0
23 45 0
27 47 0
19 38 0
24 43 0
24 44 0
25 44 0
21 42 0
23 45 0
24 44 0
27 48 7
29 49 0
23 43 0
23 43 0
29 48 0
39 57 0
50 64 13
55 62 18
88 82 23
86 89 54
14 16 32
0 0 44
0 0 48
0 0 39
5 0 46
5 0 45
1 0 39
0 0 37
0 0 38
0 0 40
0 0 42
0 0 42
0 0 39
0 0 40
0 0 42
0 0 42
0 0 42
0 0 42
0 0 42
0 0 42
0 0 42
0 0 42
0 0 42
0 0 42
0 0 42
0 0 42
94 100 115
221 236 255
221 236 255
221 236 255
221 236 255
221 236 255
221 236 255
221 236 255
221 236 255
221 236 255
221 236 255
221 236 255
221 236 255
221 236 255
221 236 255
221 236 255
221 236 255
221 236 255
221 236 255
221 236 255
221 236 255
221 236 255
221 236 255
221 236 255
221 236 255
221 236 255
221 236 255
221 236 255
221 236 255
221 236 255
221 236 255
221 236 255
221 236 255
221 236 255
221 236 255
221 236 255
221 236 255
221 236 255
221 236 255
221 236 255
221 236 255
221 236 255
221 236 255
221 236 255
221 236 255
221 236 255
221 236 255
221 236 255
221 236 255
221 236 255
221 236 255
221 236 255
221 236 255
221 236 255
221 236 255
221 236 255
221 236 255
221 236 255
221 236 255
221 236 255
221 236 255
221 236 255
221 236 255
221 236 255
221 236 255
221 236 255
221 236 255
221 236 255
221 236 255
221 236 255
221 236 255
221 236 255
221 236 255
221 236 255
221 236 255
221 236 255
221 236 255
221 236 255
221 236 255
221 236 255
221 236 255
221 236 255
221 236 255
221 236 255
221 236 255
221 236 255
221 236 255
221 236 255
221 236 255
221 236 255
221 236 255
221 236 255
221 236 255
221 236 255
221 236 255
221 236 255
221 236 255
221 236 255
221 236 255
221 236 255
221 236 255
221 236 255
221 236 255
221 236 255
221 236 255
221 236 255
221 236 255
221 236 255
221 236 255
221 236 255
221 236 255
221 236 255
221 236 255
221 236 255
221 236 255
221 236 255
221 236 255
221 236 255
221 236 255
221 236 255
221 236 255
221 236 255
221 236 255
221 236 255
221 236 255
221 236 255
221 236 255
221 236 255
221 236 255
221 236 255
221 236 255
221 236 255
221 236 255
221 236 255
221 236 255
221 236 255
221 236 255
221 236 255
221 236 255
221 236 255
221 236 255
221 236 255
221 236 255
221 236 255
221 236 255
221 236 255
221 236 255
221 236 255
221 236 255
221 236 255
221 236 255
221 236 255
221 236 255
221 236 255
221 236 255
221 236 255
221 236 255
221 236 255
221 236 255
221 236 255
221 236 255
221 236 255
221 236 255
221 236 255
221 236 255
221 236 255
221 236 255
221 236 255
221 236 255
221 236 255
221 236 255
221 236 255
221 236 255
221 236 255
221 236 255
221 236 255
221 236 255
221 236 255
221 236 255
221 236 255
221 236 255
221 236 255
221 236 255
221 236 255
221 236 255
94 100 115
0 0 42
0 0 42
0 0 42
0 0 42
0 0 42
0 0 42
0 0 42
0 0 42
0 0 42
0 0 42
0 0 42
0 0 42
0 0 42
0 0 42
0 0 42
0 0 42
0 0 42
0 0 42
0 0 42
0 0 42
0 0 42
0 0 42
0 0 42
0 0 42
0 0 42
0 0 42
0 0 42
0 0 42
0 0 42
0 0 42
0 0 42
0 0 42
0 0 42
0 0 42
0 0 42
0 0 42
0 0 42
0 0 42
0 0 42
0 0 42
0 0 42
0 0 42
0 0 42
0 0 42
0 0 42
0 0 42
0 0 42
0 0 42
0 0 42
0 0 42
0 0 42
0 0 42
0 0 42
0 0 42
0 0 42
0 0 42
0 0 42
0 0 42
0 0 42
0 0 42
0 0 42
0 0 42
0 0 42
0 0 42
0 0 42
0 0 42
0 0 42
0 0 42
0 0 42
0 0 42
0 0 42
0 0 42
0 0 42
0 0 42
0 0 42
0 0 42
0 0 42
0 0 42
0 0 42
0 0 42
0 0 42
0 0 42
0 0 42
0 0 42
0 0 42
0 0 42
0 0 42
0 0 42
0 0 42
0 0 42
0 0 42
0 0 42
0 0 42
0 0 42
0 0 42
0 0 42
0 0 42
0 0 42
0 0 40
0 0 39
0 0 38
0 0 36
0 0 31
5 11 33
30 34 53
20 23 39
24 26 45
4 4 34
8 6 44
0 0 39
0 0 41
0 0 40
0 0 42
0 0 42
0 0 42
0 0 42
0 0 42
0 0 42
0 0 42
0 0 42
0 0 42
0 0 42
0 0 41
0 0 41
0 0 41
0 0 42
0 0 39
8 8 32
96 113 91
59 82 66
147 175 172
38 54 26
59 71 27
54 60 28
46 57 24
31 56 4
33 60 1
35 55 5
32 50 0
33 52 5
33 51 2
38 57 12
32 51 5
34 52 0
26 44 0
27 44 0
20 39 0
22 41 0
20 39 0
22 42 0
22 44 0
21 45 0
20 44 0
20 45 0
22 46 5
17 43 0
20 44 0
20 44 5
17 38 0
18 41 0
18 41 0
20 41 0
16 36 0
24 45 0
27 48 0
28 50 0
26 47 0
26 48 0
25 46 3
24 46 4
23 43 0
21 41 0
19 42 0
21 44 0
20 42 0
20 41 0
20 41 0
27 47 0
28 49 6
30 51 5
25 46 0
31 52 5
37 58 7
39 59 0
34 52 8
32 49 3
51 60 7
50 60 23
34 48 21
27 40 31
9 15 29
0 0 35
3 5 45
2 0 43
0 0 39
0 0 41
0 0 41
0 0 42
0 0 40
0 0 41
0 0 43
0 0 42
0 0 42
0 0 42
0 0 42
0 0 42
0 0 42
0 0 42
0 0 42
0 0 42
0 0 42
0 0 42
0 0 42
0 0 42
85 91 106
221 236 255
221 236 255
221 236 255
221 236 255
221 236 255
221 236 255
221 236 255
221 236 255
221 236 255
221 236 255
221 236 255
221 236 255
221 236 255
221 236 255
221 236 255
221 236 255
221 236 255
221 236 255
221 236 255
221 236 255
221 236 255
221 236 255
221 236 255
221 236 255
221 236 255
221 236 255
221 236 255
221 236 255
221 236 255
221 236 255
221 236 255
221 236 255
221 236 255
221 236 255
221 236 255
221 236 255
221 236 255
221 236 255
221 236 255
221 236 255
221 236 255
221 236 255
221 236 255
221 236 255
221 236 255
221 236 255
221 236 255
221 236 255
221 236 255
221 236 255
221 236 255
221 236 255
221 236 255
221 236 255
221 236 255
221 236 255
221 236 255
221 236 255
221 236 255
221 236 255
221 236 255
221 236 255
221 236 255
221 236 255
221 236 255
221 236 255
221 236 255
221 236 255
221 236 255
221 236 255
221 236 255
221 236 255
221 236 255
221 236 255
221 236 255
221 236 255
221 236 255
221 236 255
221 236 255
221 236 255
221 236 255
221 236 255
221 236 255
221 236 255
221 236 255
221 236 255
221 236 255
221 236 255
221 236 255
221 236 255
221 236 255
221 236 255
221 236 255
221 236 255
221 236 255
221 236 255
221 236 255
221 236 255
221 236 255
221 236 255
221 236 255
221 236 255
221 236 255
221 236 255
221 236 255
221 236 255
221 236 255
221 236 255
221 236 255
221 236 255
221 236 255
221 236 255
221 236 255
221 236 255
221 236 255
221 236 255
221 236 255
221 236 255
221 236 255
221 236 255
221 236 255
221 236 255
221 236 255
221 236 255
221 236 255
221 236 255
221 236 255
221 236 255
221 236 255
221 236 255
221 236 255
221 236 255
221 236 255
221 236 255
221 236 255
221 236 255
221 236 255
221 236 255
221 236 255
221 236 255
221 236 255
221 236 255
221 236 255
221 236 255
221 236 255
221 236 255
221 236 255
221 236 255
221 236 255
221 236 255
221 236 255
221 236 255
221 236 255
221 236 255
221 236 255
221 236 255
221 236 255
221 236 255
221 236 255
221 236 255
221 236 255
221 236 255
221 236 255
221 236 255
221 236 255
221 236 255
221 236 255
221 236 255
221 236 255
221 236 255
221 236 255
221 236 255
221 236 255
221 236 255
221 236 255
221 236 255
221 236 255
221 236 255
221 236 255
221 236 255
221 236 255
221 236 255
221 236 255
221 236 255
99 105 120
0 0 42
0 0 42
0 0 42
0 0 42
0 0 42
0 0 42
0 0 42
0 0 42
0 0 42
0 0 42
0 0 42
0 0 42
0 0 42
0 0 42
0 0 42
0 0 42
0 0 42
0 0 42
0 0 42
0 0 42
0 0 42
0 0 42
0 0 42
0 0 42
0 0 42
0 0 42
0 0 42
0 0 42
0 0 42
0 0 42
0 0 42
0 0 42
0 0 42
0 0 42
0 0 42
0 0 42
0 0 42
0 0 42
0 0 42
0 0 42
0 0 42
0 0 42
0 0 42
0 0 42
0 0 42
0 0 42
0 0 42
0 0 42
0 0 42
0 0 42
0 0 42
0 0 42
0 0 42
0 0 42
0 0 42
0 0 42
0 0 42
0 0 42
0 0 42
0 0 42
0 0 42
0 0 42
0 0 42
0 0 42
0 0 42
0 0 42
0 0 42
0 0 42
0 0 42
0 0 42
0 0 42
0 0 42
0 0 42
0 0 42
0 0 42
0 0 42
0 0 42
0 0 42
0 0 42
0 0 42
0 0 42
0 0 42
0 0 42
0 0 42
0 0 42
0 0 42
0 0 42
0 0 42
0 0 42
0 0 42
0 0 42
0 0 42
0 0 42
0 0 42
0 0 42
0 0 42
0 0 42
0 0 42
0 0 42
0 0 40
0 0 39
0 0 38
0 0 33
18 20 39
45 50 76
22 25 40
26 28 44
8 9 41
14 14 54
0 0 41
0 0 43
0 0 41
0 0 42
0 0 42
0 0 42
0 0 42
0 0 42
0 0 42
0 0 42
0 0 42
0 0 42
0 0 42
0 0 40
0 0 41
0 0 42
0 0 42
13 13 36
56 61 60
62 81 41
59 79 63
139 162 160
58 73 43
75 87 42
38 43 14
32 45 7
28 53 0
28 52 0
35 55 8
34 53 0
29 46 0
32 51 5
37 56 10
38 56 12
29 46 0
30 48 0
31 47 1
22 41 0
27 48 10
23 43 0
20 41 0
21 43 0
23 46 0
23 45 0
20 43 0
16 39 0
12 35 0
19 41 0
21 43 7
17 38 0
16 39 0
22 45 0
25 47 0
28 49 11
21 41 5
22 43 1
25 46 0
25 46 3
26 47 0
25 46 3
25 45 4
24 44 0
18 38 0
19 41 0
23 45 0
20 40 0
26 46 0
25 45 0
24 43 4
28 47 7
27 46 0
29 49 0
30 50 6
34 56 0
36 57 0
31 51 0
31 49 0
47 59 16
52 68 19
42 65 10
42 66 20
52 71 48
24 34 33
6 11 28
0 2 37
0 0 48
0 0 50
0 0 45
0 0 41
0 0 34
0 0 38
0 0 48
0 0 47
0 0 42
0 0 42
0 0 42
0 0 42
0 0 42
0 0 42
0 0 42
0 0 42
0 0 42
0 0 42
0 0 42
0 0 42
88 94 109
221 236 255
221 236 255
221 236 255
221 236 255
221 236 255
221 236 255
221 236 255
221 236 255
221 236 255
221 236 255
221 236 255
221 236 255
221 236 255
221 236 255
221 236 255
221 236 255
221 236 255
221 236 255
221 236 255
221 236 255
221 236 255
221 236 255
221 236 255
221 236 255
221 236 255
221 236 255
221 236 255
221 236 255
221 236 255
221 236 255
221 236 255
221 236 255
221 236 255
221 236 255
221 236 255
221 236 255
221 236 255
221 236 255
221 236 255
221 236 255
221 236 255
221 236 255
221 236 255
221 236 255
221 236 255
221 236 255
221 236 255
221 236 255
221 236 255
221 236 255
221 236 255
221 236 255
221 236 255
221 236 255
221 236 255
221 236 255
221 236 255
221 236 255
221 236 255
221 236 255
221 236 255
221 236 255
221 236 255
221 236 255
221 236 255
221 236 255
221 236 255
221 236 255
221 236 255
221 236 255
221 236 255
221 236 255
221 236 255
221 236 255
221 236 255
221 236 255
221 236 255
221 236 255
221 236 255
221 236 255
221 236 255
221 236 255
221 236 255
221 236 255
221 236 255
221 236 255
221 236 255
221 236 255
221 236 255
221 236 255
221 236 255
221 236 255
221 236 255
221 236 255
221 236 255
221 236 255
221 236 255
221 236 255
221 236 255
221 236 255
221 236 255
221 236 255
221 236 255
221 236 255
221 236 255
221 236 255
221 236 255
221 236 255
221 236 255
221 236 255
221 236 255
221 236 255
221 236 255
221 236 255
221 236 255
221 236 255
221 236 255
221 236 255
221 236 255
221 236 255
221 236 255
221 236 255
221 236 255
221 236 255
221 236 255
221 236 255
221 236 255
221 236 255
221 236 255
221 236 255
221 236 255
221 236 255
221 236 255
221 236 255
221 236 255
221 236 255
221 236 255
221 236 255
221 236 255
221 236 255
221 236 255
221 236 255
221 236 255
221 236 255
221 236 255
221 236 255
221 236 255
221 236 255
221 236 255
221 236 255
221 236 255
221 236 255
221 236 255
221 236 255
221 236 255
221 236 255
221 236 255
221 236 255
221 236 255
221 236 255
221 236 255
221 236 255
221 236 255
221 236 255
221 236 255
221 236 255
221 236 255
221 236 255
221 236 255
221 236 255
221 236 255
221 236 255
221 236 255
221 236 255
221 236 255
221 236 255
221 236 255
221 236 255
221 236 255
221 236 255
221 236 255
221 236 255
221 236 255
221 236 255
101 108 123
0 0 42
0 0 42
0 0 42
0 0 42
0 0 42
0 0 42
0 0 42
0 0 42
0 0 42
0 0 42
0 0 42
0 0 42
0 0 42
0 0 42
0 0 42
0 0 42
0 0 42
0 0 42
0 0 42
0 0 42
0 0 42
0 0 42
0 0 42
0 0 42
0 0 42
0 0 42
0 0 42
0 0 42
0 0 42
0 0 42
0 0 42
0 0 42
0 0 42
0 0 42
0 0 42
0 0 42
0 0 42
0 0 42
0 0 42
0 0 42
0 0 42
0 0 42
0 0 42
0 0 42
0 0 42
0 0 42
0 0 42
0 0 42
0 0 42
0 0 42
0 0 42
0 0 42
0 0 42
0 0 42
0 0 42
0 0 42
0 0 42
0 0 42
0 0 42
0 0 42
0 0 42
0 0 42
0 0 42
0 0 42
0 0 42
0 0 42
0 0 42
0 0 42
0 0 42
0 0 42
0 0 42
0 0 42
0 0 42
0 0 42
0 0 42
0 0 42
0 0 42
0 0 42
0 0 42
0 0 42
0 0 42
0 0 42
0 0 42
0 0 42
0 0 42
0 0 42
0 0 42
0 0 42
0 0 42
0 0 42
0 0 42
0 0 42
0 0 42
0 0 42
0 0 42
0 0 42
0 0 42
0 0 42
0 0 42
0 0 42
0 0 41
0 0 39
0 0 41
0 0 36
8 9 30
11 11 36
12 13 40
0 0 42
0 0 41
0 0 39
0 0 43
0 0 43
0 0 42
0 0 42
0 0 42
0 0 42
0 0 42
0 0 42
0 0 42
0 0 42
0 0 42
0 0 42
0 0 41
0 0 41
0 0 41
0 0 42
11 13 31
60 69 50
47 64 18
111 131 113
163 183 185
52 64 35
58 69 30
49 56 16
35 49 9
33 55 10
27 52 0
30 51 0
31 52 0
29 50 0
32 53 0
33 52 0
26 46 0
26 44 0
33 52 4
33 52 8
26 46 0
28 48 0
28 50 0
26 47 0
26 48 6
22 45 0
23 47 0
25 48 0
16 36 0
10 36 0
16 40 0
16 39 0
18 39 0
24 46 0
16 38 0
17 39 0
23 43 0
28 48 10
23 43 4
15 36 0
23 45 8
30 51 8
18 38 0
11 31 0
21 40 0
21 42 0
23 42 0
22 44 0
19 39 0
26 44 0
30 50 7
30 49 0
32 50 5
36 54 11
27 44 0
35 56 8
38 60 6
31 52 0
29 51 0
29 49 0
37 55 0
43 64 7
41 66 5
39 67 0
34 58 10
42 64 30
40 58 43
0 6 31
0 0 50
0 0 43
0 0 33
0 0 37
0 0 41
0 0 36
0 0 44
0 0 47
0 0 42
0 0 42
0 0 42
0 0 42
0 0 42
0 0 42
0 0 42
0 0 42
0 0 42
0 0 42
0 0 42
0 0 42
115 122 137
221 236 255
221 236 255
221 236 255
221 236 255
221 236 255
221 236 255
221 236 255
221 236 255
221 236 255
221 236 255
221 236 255
221 236 255
221 236 255
221 236 255
221 236 255
221 236 255
221 236 255
221 236 255
221 236 255
221 236 255
221 236 255
221 236 255
221 236 255
221 236 255
221 236 255
221 236 255
221 236 255
221 236 255
221 236 255
221 236 255
221 236 255
221 236 255
221 236 255
221 236 255
221 236 255
221 236 255
221 236 255
221 236 255
221 236 255
221 236 255
221 236 255
221 236 255
221 236 255
221 236 255
221 236 255
221 236 255
221 236 255
221 236 255
221 236 255
221 236 255
221 236 255
221 236 255
221 236 255
221 236 255
221 236 255
221 236 255
221 236 255
221 236 255
221 236 255
221 236 255
221 236 255
221 236 255
221 236 255
221 236 255
221 236 255
221 236 255
221 236 255
221 236 255
221 236 255
221 236 255
221 236 255
221 236 255
221 236 255
221 236 255
221 236 255
221 236 255
221 236 255
221 236 255
221 236 255
221 236 255
221 236 255
221 236 255
221 236 255
221 236 255
221 236 255
221 236 255
221 236 255
221 236 255
221 236 255
221 236 255
221 236 255
221 236 255
221 236 255
221 236 255
221 236 255
221 236 255
221 236 255
221 236 255
221 236 255
221 236 255
221 236 255
221 236 255
221 236 255
221 236 255
221 236 255
221 236 255
221 236 255
221 236 255
221 236 255
221 236 255
221 236 255
221 236 255
221 236 255
221 236 255
221 236 255
221 236 255
221 236 255
221 236 255
221 236 255
221 236 255
221 236 255
221 236 255
221 236 255
221 236 255
221 236 255
221 236 255
221 236 255
221 236 255
221 236 255
221 236 255
221 236 255
221 236 255
221 236 255
221 236 255
221 236 255
221 236 255
221 236 255
221 236 255
221 236 255
221 236 255
221 236 255
221 236 255
221 236 255
221 236 255
221 236 255
221 236 255
221 236 255
221 236 255
221 236 255
221 236 255
221 236 255
221 236 255
221 236 255
221 236 255
221 236 255
221 236 255
221 236 255
221 236 255
221 236 255
221 236 255
221 236 255
221 236 255
221 236 255
221 236 255
221 236 255
221 236 255
221 236 255
221 236 255
221 236 255
221 236 255
221 236 255
221 236 255
221 236 255
221 236 255
221 236 255
221 236 255
221 236 255
221 236 255
221 236 255
221 236 255
221 236 255
221 236 255
221 236 255
221 236 255
94 100 115
0 0 42
0 0 42
0 0 42
0 0 42
0 0 42
0 0 42
0 0 42
0 0 42
0 0 42
0 0 42
0 0 42
0 0 42
0 0 42
0 0 42
0 0 42
0 0 42
0 0 42
0 0 42
0 0 42
0 0 42
0 0 42
0 0 42
0 0 42
0 0 42
0 0 42
0 0 42
0 0 42
0 0 42
0 0 42
0 0 42
0 0 42
0 0 42
0 0 42
0 0 42
0 0 42
0 0 42
0 0 42
0 0 42
0 0 42
0 0 42
0 0 42
0 0 42
0 0 42
0 0 42
0 0 42
0 0 42
0 0 42
0 0 42
0 0 42
0 0 42
0 0 42
0 0 42
0 0 42
0 0 42
0 0 42
0 0 42
0 0 42
0 0 42
0 0 42
0 0 42
0 0 42
0 0 42
0 0 42
0 0 42
0 0 42
0 0 42
0 0 42
0 0 42
0 0 42
0 0 42
0 0 42
0 0 42
0 0 42
0 0 42
0 0 42
0 0 42
0 0 42
0 0 42
0 0 42
0 0 42
0 0 42
0 0 42
0 0 42
0 0 42
0 0 42
0 0 42
0 0 42
0 0 42
0 0 42
0 0 42
0 0 42
0 0 42
0 0 42
0 0 42
0 0 42
0 0 42
0 0 42
0 0 42
0 0 42
0 0 42
0 0 42
0 0 41
0 0 40
0 0 41
0 0 40
0 0 39
0 0 36
0 0 43
0 0 40
0 0 41
0 0 41
0 0 40
0 0 42
0 0 42
0 0 42
0 0 42
0 0 42
0 0 42
0 0 42
0 0 42
0 0 42
0 0 42
0 0 42
0 0 42
0 0 40
0 0 42
16 17 32
73 83 69
53 68 34
104 122 107
164 182 178
53 64 42
61 71 35
34 42 0
28 43 2
30 51 8
23 47 0
30 51 0
30 49 0
27 48 0
30 50 0
28 47 0
22 41 0
26 46 0
33 53 4
32 51 0
24 45 0
21 43 0
27 50 0
27 49 0
34 57 13
19 43 0
20 42 0
26 48 0
23 46 0
13 38 0
18 42 0
19 40 0
24 46 5
19 41 0
19 43 0
17 39 0
22 43 0
19 40 5
22 44 3
22 45 0
17 38 0
24 45 4
26 47 0
18 37 0
22 41 0
21 40 0
25 45 0
26 44 0
27 46 0
27 45 0
41 60 17
34 52 5
39 57 8
40 60 14
40 59 12
37 56 8
33 55 8
22 45 0
28 50 0
29 52 0
30 49 4
36 58 4
39 66 0
39 69 0
38 67 8
34 59 7
41 63 36
4 8 27
0 0 49
0 0 32
0 0 37
0 0 53
0 0 52
0 0 40
0 0 34
0 0 41
0 0 43
0 0 42
0 0 42
0 0 42
0 0 42
0 0 42
0 0 42
0 0 42
0 0 42
0 0 42
0 0 42
0 0 42
113 120 135
221 236 255
221 236 255
221 236 255
221 236 255
221 236 255
221 236 255
221 236 255
221 236 255
221 236 255
221 236 255
221 236 255
221 236 255
221 236 255
221 236 255
221 236 255
221 236 255
221 236 255
221 236 255
221 236 255
221 236 255
221 236 255
221 236 255
221 236 255
221 236 255
221 236 255
221 236 255
221 236 255
221 236 255
221 236 255
221 236 255
221 236 255
221 236 255
221 236 255
221 236 255
221 236 255
221 236 255
221 236 255
221 236 255
221 236 255
221 236 255
221 236 255
221 236 255
221 236 255
221 236 255
221 236 255
221 236 255
221 236 255
221 236 255
221 236 255
221 236 255
221 236 255
221 236 255
221 236 255
221 236 255
221 236 255
221 236 255
221 236 255
221 236 255
221 236 255
221 236 255
221 236 255
221 236 255
221 236 255
221 236 255
221 236 255
221 236 255
221 236 255
221 236 255
221 236 255
221 236 255
221 236 255
221 236 255
221 236 255
221 236 255
221 236 255
221 236 255
221 236 255
221 236 255
221 236 255
221 236 255
221 236 255
221 236 255
221 236 255
221 236 255
221 236 255
221 236 255
221 236 255
221 236 255
221 236 255
221 236 255
221 236 255
221 236 255
221 236 255
221 236 255
221 236 255
221 236 255
221 236 255
221 236 255
221 236 255
221 236 255
221 236 255
221 236 255
221 236 255
221 236 255
221 236 255
221 236 255
221 236 255
221 236 255
221 236 255
221 236 255
221 236 255
221 236 255
221 236 255
221 236 255
221 236 255
221 236 255
221 236 255
221 236 255
221 236 255
221 236 255
221 236 255
221 236 255
221 236 255
221 236 255
221 236 255
221 236 255
221 236 255
221 236 255
221 236 255
221 236 255
221 236 255
221 236 255
221 236 255
221 236 255
221 236 255
221 236 255
221 236 255
221 236 255
221 236 255
221 236 255
221 236 255
221 236 255
221 236 255
221 236 255
221 236 255
221 236 255
221 236 255
221 236 255
221 236 255
221 236 255
221 236 255
221 236 255
221 236 255
221 236 255
221 236 255
221 236 255
221 236 255
221 236 255
221 236 255
221 236 255
221 236 255
221 236 255
221 236 255
221 236 255
221 236 255
221 236 255
221 236 255
221 236 255
221 236 255
221 236 255
221 236 255
221 236 255
221 236 255
221 236 255
221 236 255
221 236 255
221 236 255
221 236 255
221 236 255
221 236 255
221 236 255
221 236 255
221 236 255
221 236 255
119 127 142
0 0 42
0 0 42
0 0 42
0 0 42
0 0 42
0 0 42
0 0 42
0 0 42
0 0 42
0 0 42
0 0 42
0 0 42
0 0 42
0 0 42
0 0 42
0 0 42
0 0 42
0 0 42
0 0 42
0 0 42
0 0 42
0 0 42
0 0 42
0 0 42
0 0 42
0 0 42
0 0 42
0 0 42
0 0 42
0 0 42
0 0 42
0 0 42
0 0 42
0 0 42
0 0 42
0 0 42
0 0 42
0 0 42
0 0 42
0 0 42
0 0 42
0 0 42
0 0 42
0 0 42
0 0 42
0 0 42
0 0 42
0 0 42
0 0 42
0 0 42
0 0 42
0 0 42
0 0 42
0 0 42
0 0 42
0 0 42
0 0 42
0 0 42
0 0 42
0 0 42
0 0 42
0 0 42
0 0 42
0 0 42
0 0 42
0 0 42
0 0 42
0 0 42
0 0 42
0 0 42
0 0 42
0 0 42
0 0 42
0 0 42
0 0 42
0 0 42
0 0 42
0 0 42
0 0 42
0 0 42
0 0 42
0 0 42
0 0 42
0 0 42
0 0 42
0 0 42
0 0 42
0 0 42
0 0 42
0 0 42
0 0 42
0 0 42
0 0 42
0 0 42
0 0 42
0 0 42
0 0 42
0 0 41
0 0 42
0 0 42
0 0 42
0 0 43
0 0 43
0 0 43
0 0 40
0 0 40
0 0 41
0 0 40
0 0 42
0 0 42
0 0 42
0 0 42
0 0 42
0 0 42
0 0 42
0 0 42
0 0 42
0 0 42
0 0 42
0 0 42
0 0 42
0 0 42
0 0 42
0 0 41
0 0 38
5 5 43
34 36 53
99 105 119
59 69 55
111 125 119
178 193 187
65 76 51
55 65 30
37 47 8
31 47 0
27 48 0
26 49 0
27 49 0
32 53 2
31 53 7
30 51 0
28 49 0
32 53 0
27 48 0
33 53 8
32 52 8
21 41 0
20 41 0
27 48 0
27 49 0
29 51 7
24 46 0
16 38 0
21 43 0
19 39 0
14 38 0
18 43 5
24 46 4
28 51 11
27 49 7
19 43 0
23 43 0
21 41 0
18 39 5
18 41 3
21 44 0
22 44 0
22 43 0
26 47 0
26 47 0
26 45 0
22 41 0
25 44 0
33 51 8
31 51 3
33 52 3
34 52 10
30 48 6
43 63 17
33 52 5
34 53 0
35 55 0
28 49 0
28 51 0
28 52 0
31 54 0
31 54 0
36 60 11
35 61 8
33 60 1
38 65 13
40 65 12
42 63 24
44 61 26
70 83 76
19 24 40
7 13 44
12 20 42
7 10 39
0 0 44
0 0 36
0 0 40
0 0 43
0 0 42
0 0 42
0 0 42
0 0 42
0 0 42
0 0 42
0 0 42
0 0 42
0 0 42
0 0 42
0 0 42
121 129 144
221 236 255
221 236 255
221 236 255
221 236 255
221 236 255
221 236 255
221 236 255
221 236 255
221 236 255
221 236 255
221 236 255
221 236 255
221 236 255
221 236 255
221 236 255
221 236 255
221 236 255
221 236 255
221 236 255
221 236 255
221 236 255
221 236 255
221 236 255
221 236 255
221 236 255
221 236 255
221 236 255
221 236 255
221 236 255
221 236 255
221 236 255
221 236 255
221 236 255
221 236 255
221 236 255
221 236 255
221 236 255
221 236 255
221 236 255
221 236 255
221 236 255
221 236 255
221 236 255
221 236 255
221 236 255
221 236 255
221 236 255
221 236 255
221 236 255
221 236 255
221 236 255
221 236 255
221 236 255
221 236 255
221 236 255
221 236 255
221 236 255
221 236 255
221 236 255
221 236 255
221 236 255
221 236 255
221 236 255
221 236 255
221 236 255
221 236 255
221 236 255
221 236 255
221 236 255
221 236 255
221 236 255
221 236 255
221 236 255
221 236 255
221 236 255
221 236 255
221 236 255
221 236 255
221 236 255
221 236 255
221 236 255
221 236 255
221 236 255
221 236 255
221 236 255
221 236 255
221 236 255
221 236 255
221 236 255
221 236 255
221 236 255
221 236 255
222 236 255
222 236 255
222 236 255
222 236 255
222 236 255
222 236 255
222 236 255
222 236 255
222 236 255
222 236 255
222 236 255
222 236 255
222 236 255
222 236 255
222 236 255
222 236 255
222 236 255
222 236 255
222 236 255
222 236 255
222 236 255
222 236 255
222 236 255
222 236 255
222 236 255
222 236 255
222 236 255
222 236 255
222 236 255
222 236 255
222 236 255
222 236 255
222 236 255
222 236 255
222 236 255
222 236 255
222 236 255
222 236 255
222 236 255
222 236 255
222 236 255
222 236 255
222 236 255
222 236 255
222 236 255
222 236 255
222 236 255
222 236 255
222 236 255
222 236 255
222 236 255
222 236 255
222 236 255
222 236 255
222 236 255
222 236 255
222 236 255
222 236 255
222 236 255
222 236 255
222 236 255
222 236 255
222 236 255
222 236 255
222 236 255
222 236 255
222 236 255
222 236 255
222 236 255
222 236 255
222 236 255
222 236 255
222 236 255
222 236 255
222 236 255
222 236 255
222 236 255
222 236 255
222 236 255
222 236 255
222 236 255
222 236 255
222 236 255
222 236 255
222 236 255
222 236 255
222 236 255
222 236 255
222 236 255
222 236 255
222 236 255
222 236 255
123 131 146
0 0 42
0 0 42
0 0 42
0 0 42
0 0 42
0 0 42
0 0 42
0 0 42
0 0 42
0 0 42
0 0 42
0 0 42
0 0 42
0 0 42
0 0 42
0 0 42
0 0 42
0 0 42
0 0 42
0 0 42
0 0 42
0 0 42
0 0 42
0 0 42
0 0 42
0 0 42
0 0 42
0 0 42
0 0 42
0 0 42
0 0 42
0 0 42
0 0 42
0 0 42
0 0 42
0 0 42
0 0 42
0 0 42
0 0 42
0 0 42
0 0 42
0 0 42
0 0 42
0 0 42
0 0 42
0 0 42
0 0 42
0 0 42
0 0 42
0 0 42
0 0 42
0 0 42
0 0 42
0 0 42
0 0 42
0 0 42
0 0 42
0 0 42
0 0 42
0 0 42
0 0 42
0 0 42
0 0 42
0 0 42
0 0 42
0 0 42
0 0 42
0 0 42
0 0 42
0 0 42
0 0 42
0 0 42
0 0 42
0 0 42
0 0 42
0 0 42
0 0 42
0 0 42
0 0 42
0 0 42
0 0 42
0 0 42
0 0 42
0 0 42
0 0 42
0 0 42
0 0 42
0 0 42
0 0 42
0 0 42
0 0 42
0 0 42
0 0 42
0 0 42
0 0 42
0 0 42
0 0 42
0 0 39
0 0 41
0 0 42
0 0 43
0 0 45
0 0 45
0 0 45
0 0 43
0 0 42
0 0 42
0 0 42
0 0 42
0 0 42
0 0 42
0 0 42
0 0 42
0 0 42
0 0 42
0 0 42
0 0 42
0 0 42
0 0 42
0 0 42
0 0 42
0 0 42
0 0 40
0 0 42
0 0 40
2 2 36
2 2 35
43 45 59
52 61 56
148 163 154
82 91 78
56 69 29
42 53 18
41 54 20
23 40 5
29 49 0
30 52 0
28 51 0
30 53 0
26 48 5
21 43 0
25 46 0
31 53 0
27 48 0
28 51 1
25 48 3
20 40 0
22 46 0
24 46 0
25 50 0
23 45 0
22 45 0
26 47 8
26 48 5
22 43 0
24 47 8
23 48 6
25 49 6
27 50 9
27 51 8
26 49 0
22 44 0
18 38 0
13 34 0
17 38 0
21 43 0
23 45 6
19 40 4
24 44 4
27 46 4
24 43 0
19 39 0
25 46 4
28 48 3
31 50 0
31 51 9
32 50 0
28 48 7
36 55 7
28 47 0
25 42 0
38 61 10
32 54 8
29 52 0
27 51 0
29 53 0
34 59 0
31 57 5
36 61 12
31 55 6
24 48 5
49 73 21
50 68 25
46 63 11
73 89 67
44 62 41
44 66 47
53 77 51
42 57 48
0 3 39
0 0 45
0 0 44
0 0 43
0 0 42
0 0 42
0 0 42
0 0 42
0 0 42
0 0 42
0 0 42
0 0 42
0 0 42
0 0 42
0 0 42
127 135 151
222 236 255
222 236 255
222 236 255
222 236 255
222 236 255
222 236 255
222 236 255
222 236 255
222 236 255
222 236 255
222 236 255
222 236 255
222 236 255
222 236 255
222 236 255
222 236 255
222 236 255
222 236 255
222 236 255
222 236 255
222 236 255
222 236 255
222 236 255
222 236 255
222 236 255
222 236 255
222 236 255
222 236 255
222 236 255
222 236 255
222 236 255
222 236 255
222 236 255
222 236 255
222 236 255
222 236 255
222 236 255
222 236 255
222 236 255
222 236 255
222 236 255
222 236 255
222 236 255
222 236 255
222 236 255
222 236 255
222 236 255
222 236 255
222 236 255
222 236 255
222 236 255
222 236 255
222 236 255
222 236 255
222 236 255
222 236 255
222 236 255
222 236 255
222 236 255
222 236 255
222 236 255
222 236 255
222 236 255
222 236 255
222 236 255
222 236 255
222 236 255
222 236 255
222 236 255
222 236 255
222 236 255
222 236 255
222 236 255
222 236 255
222 236 255
222 236 255
222 236 255
222 236 255
222 236 255
222 236 255
222 236 255
222 236 255
222 236 255
222 236 255
222 236 255
222 236 255
222 236 255
222 236 255
222 236 255
222 236 255
222 236 255
222 236 255
222 236 255
222 236 255
222 236 255
222 236 255
222 236 255
222 236 255
222 236 255
222 236 255
222 236 255
222 236 255
222 236 255
222 236 255
222 236 255
222 236 255
222 236 255
222 236 255
222 236 255
222 236 255
222 236 255
222 236 255
222 236 255
222 236 255
222 236 255
222 236 255
222 236 255
222 236 255
222 236 255
222 236 255
222 236 255
222 236 255
222 236 255
222 236 255
222 236 255
222 236 255
222 236 255
222 236 255
222 236 255
222 236 255
222 236 255
222 236 255
222 236 255
222 236 255
222 236 255
222 236 255
222 236 255
222 236 255
222 236 255
222 236 255
222 236 255
222 236 255
222 236 255
222 236 255
222 236 255
222 236 255
222 236 255
222 236 255
222 236 255
222 236 255
222 236 255
222 236 255
222 236 255
222 236 255
222 236 255
222 236 255
222 236 255
222 236 255
222 236 255
222 236 255
222 236 255
222 236 255
222 236 255
222 236 255
222 236 255
222 236 255
222 236 255
222 236 255
222 236 255
222 236 255
222 236 255
222 236 255
222 236 255
222 236 255
222 236 255
222 236 255
222 236 255
222 236 255
222 236 255
222 236 255
222 236 255
222 236 255
222 236 255
222 236 255
129 137 153
0 0 42
0 0 42
0 0 42
0 0 42
0 0 42
0 0 42
0 0 42
0 0 42
0 0 42
0 0 42
0 0 42
0 0 42
0 0 42
0 0 42
0 0 42
0 0 42
0 0 42
0 0 42
0 0 42
0 0 42
0 0 42
0 0 42
0 0 42
0 0 42
0 0 42
0 0 42
0 0 42
0 0 42
0 0 42
0 0 42
0 0 42
0 0 42
0 0 42
0 0 42
0 0 42
0 0 42
0 0 42
0 0 42
0 0 42
0 0 42
0 0 42
0 0 42
0 0 42
0 0 42
0 0 42
0 0 42
0 0 42
0 0 42
0 0 42
0 0 42
0 0 42
0 0 42
0 0 42
0 0 42
0 0 42
0 0 42
0 0 42
0 0 42
0 0 42
0 0 42
0 0 42
0 0 42
0 0 42
0 0 42
0 0 42
0 0 42
0 0 42
0 0 42
0 0 42
0 0 42
0 0 42
0 0 42
0 0 42
0 0 42
0 0 42
0 0 42
0 0 42
0 0 42
0 0 42
0 0 42
0 0 42
0 0 42
0 0 42
0 0 42
0 0 42
0 0 42
0 0 42
0 0 42
0 0 42
0 0 42
0 0 42
0 0 42
0 0 42
0 0 42
0 0 42
0 0 42
0 0 42
0 0 39
0 0 41
0 0 42
0 0 43
0 0 45
0 0 45
0 0 45
0 0 43
0 0 42
0 0 42
0 0 42
0 0 42
0 0 42
0 0 42
0 0 42
0 0 42
0 0 42
0 0 42
0 0 42
0 0 42
0 0 44
0 0 43
0 0 42
0 0 42
0 0 42
0 0 42
0 0 42
0 0 39
0 0 41
0 0 35
0 0 26
41 47 46
164 180 168
38 47 14
58 71 29
38 51 15
36 52 10
27 43 8
25 46 0
25 49 0
28 50 0
29 52 0
23 45 0
22 44 0
22 43 0
25 47 0
24 45 0
28 49 0
23 44 0
22 44 0
22 45 0
25 48 0
21 45 0
24 47 0
21 42 0
33 54 13
34 55 13
27 48 8
18 41 0
17 42 0
20 45 0
20 45 0
26 50 6
23 47 0
23 44 0
23 44 0
14 35 0
16 39 0
22 44 0
22 43 3
21 42 3
31 50 14
35 54 14
28 47 4
28 48 4
27 50 4
23 45 2
25 46 0
25 45 0
28 48 0
27 45 2
28 48 3
27 48 0
33 56 8
46 70 22
34 58 7
35 57 10
26 49 0
34 57 11
33 58 0
26 51 0
35 57 7
37 59 7
39 60 10
40 61 12
37 55 9
34 50 0
42 61 4
38 60 0
39 64 0
44 68 9
57 78 42
31 43 40
0 0 48
0 0 45
0 0 41
0 0 42
0 0 42
0 0 42
0 0 42
0 0 42
0 0 42
0 0 42
0 0 42
0 0 42
0 0 42
0 0 42
147 156 172
222 236 255
222 236 255
222 236 255
222 236 255
222 236 255
222 236 255
222 236 255
222 236 255
222 236 255
222 236 255
222 236 255
222 236 255
222 236 255
222 236 255
222 236 255
222 236 255
222 236 255
222 236 255
222 236 255
222 236 255
222 236 255
222 236 255
222 236 255
222 236 255
222 236 255
222 236 255
222 236 255
222 236 255
222 236 255
222 236 255
222 236 255
222 236 255
222 236 255
222 236 255
222 236 255
222 236 255
222 236 255
222 236 255
222 236 255
222 236 255
222 236 255
222 236 255
222 236 255
222 236 255
222 236 255
222 236 255
222 236 255
222 236 255
222 236 255
222 236 255
222 236 255
222 236 255
222 236 255
222 236 255
222 236 255
222 236 255
222 236 255
222 236 255
222 236 255
222 236 255
222 236 255
222 236 255
222 236 255
222 236 255
222 236 255
222 236 255
222 236 255
222 236 255
222 236 255
222 236 255
222 236 255
222 236 255
222 236 255
222 236 255
222 236 255
222 236 255
222 236 255
222 236 255
222 236 255
222 236 255
222 236 255
222 236 255
222 236 255
222 236 255
222 236 255
222 236 255
222 236 255
222 236 255
222 236 255
222 236 255
222 236 255
222 236 255
222 236 255
222 236 255
222 236 255
222 236 255
222 236 255
222 236 255
222 236 255
222 236 255
222 236 255
222 236 255
222 236 255
222 236 255
222 236 255
222 236 255
222 236 255
222 236 255
222 236 255
222 236 255
222 236 255
222 236 255
222 236 255
222 236 255
222 236 255
222 236 255
222 236 255
222 236 255
222 236 255
222 236 255
222 236 255
222 236 255
222 236 255
222 236 255
222 236 255
222 236 255
222 236 255
222 236 255
222 236 255
222 236 255
222 236 255
222 236 255
222 236 255
222 236 255
222 236 255
222 236 255
222 236 255
222 236 255
222 236 255
222 236 255
222 236 255
222 236 255
222 236 255
222 236 255
222 236 255
222 236 255
222 236 255
222 236 255
222 236 255
222 236 255
222 236 255
222 236 255
222 236 255
222 236 255
222 236 255
222 236 255
222 236 255
222 236 255
222 236 255
222 236 255
222 236 255
222 236 255
222 236 255
222 236 255
222 236 255
222 236 255
222 236 255
222 236 255
222 236 255
222 236 255
222 236 255
222 236 255
222 236 255
222 236 255
222 236 255
222 236 255
222 236 255
222 236 255
222 236 255
222 236 255
222 236 255
222 236 255
222 236 255
222 236 255
149 158 174
0 0 42
0 0 42
0 0 42
0 0 42
0 0 42
0 0 42
0 0 42
0 0 42
0 0 42
0 0 42
0 0 42
0 0 42
0 0 42
0 0 42
0 0 42
0 0 42
0 0 42
0 0 42
0 0 42
0 0 42
0 0 42
0 0 42
0 0 42
0 0 42
0 0 42
0 0 42
0 0 42
0 0 42
0 0 42
0 0 42
0 0 42
0 0 42
0 0 42
0 0 42
0 0 42
0 0 42
0 0 42
0 0 42
0 0 42
0 0 42
0 0 42
0 0 42
0 0 42
0 0 42
0 0 42
0 0 42
0 0 42
0 0 42
0 0 42
0 0 42
0 0 42
0 0 42
0 0 42
0 0 42
0 0 42
0 0 42
0 0 42
0 0 42
0 0 42
0 0 42
0 0 42
0 0 42
0 0 42
0 0 42
0 0 42
0 0 42
0 0 42
0 0 42
0 0 42
0 0 42
0 0 42
0 0 42
0 0 42
0 0 42
0 0 42
0 0 42
0 0 42
0 0 42
0 0 42
0 0 42
0 0 42
0 0 42
0 0 42
0 0 42
0 0 42
0 0 42
0 0 42
0 0 42
0 0 42
0 0 42
0 0 42
0 0 42
0 0 42
0 0 42
0 0 42
0 0 42
0 0 42
0 0 39
0 0 39
0 0 41
0 0 42
0 0 42
0 0 42
0 0 42
0 0 42
0 0 42
0 0 42
0 0 42
0 0 42
0 0 42
0 0 42
0 0 42
0 0 42
0 0 42
0 0 42
0 0 42
0 0 42
0 0 45
0 0 45
0 0 43
0 0 42
0 0 42
0 0 42
0 0 38
0 0 40
0 0 38
7 11 32
42 53 41
97 111 95
105 118 100
49 60 19
40 53 12
35 49 12
33 51 11
26 46 5
24 46 0
20 43 0
24 47 0
24 48 0
24 46 0
19 42 0
15 37 0
17 39 0
23 46 0
24 46 0
21 43 0
21 45 0
19 44 0
22 47 0
18 41 0
20 43 0
24 45 0
25 46 0
26 46 0
21 40 0
18 42 0
21 46 0
24 48 0
21 44 0
21 44 0
22 46 0
27 49 0
27 47 0
24 45 7
23 46 10
24 47 5
25 46 7
23 44 0
21 41 0
25 43 0
31 48 13
24 43 5
24 45 0
19 40 0
26 48 0
22 44 1
25 45 0
28 48 0
31 52 0
32 57 9
27 51 3
28 52 6
29 52 0
37 59 9
33 55 10
34 56 10
39 63 11
27 50 0
36 56 3
29 47 4
38 57 10
46 67 12
33 56 4
33 51 1
37 55 6
40 58 0
42 60 8
52 71 21
52 75 15
50 74 50
10 19 42
0 0 43
0 0 40
0 0 42
0 0 42
0 0 42
0 0 42
0 0 42
0 0 42
0 0 42
0 0 42
0 0 42
0 0 42
0 0 42
140 149 165
222 236 255
222 236 255
222 236 255
222 236 255
222 236 255
222 236 255
222 236 255
222 236 255
222 236 255
222 236 255
222 236 255
222 236 255
222 236 255
222 236 255
222 236 255
222 236 255
222 236 255
222 236 255
222 236 255
222 236 255
222 236 255
222 236 255
222 236 255
222 236 255
222 236 255
222 236 255
222 236 255
222 236 255
222 236 255
222 236 255
222 236 255
222 236 255
222 236 255
222 236 255
222 236 255
222 236 255
222 236 255
222 236 255
222 236 255
222 236 255
222 236 255
222 236 255
222 236 255
222 236 255
222 236 255
222 236 255
222 236 255
222 236 255
222 236 255
222 236 255
222 236 255
222 236 255
222 236 255
222 236 255
222 236 255
222 236 255
222 236 255
222 236 255
222 236 255
222 236 255
222 236 255
222 236 255
222 236 255
222 236 255
222 236 255
222 236 255
222 236 255
222 236 255
222 236 255
222 236 255
222 236 255
222 236 255
222 236 255
222 236 255
222 236 255
222 236 255
222 236 255
222 236 255
222 236 255
222 236 255
222 236 255
222 236 255
222 236 255
222 236 255
222 236 255
222 236 255
222 236 255
222 236 255
222 236 255
222 236 255
222 236 255
222 236 255
222 236 255
222 236 255
222 236 255
222 236 255
222 236 255
222 236 255
222 236 255
222 236 255
222 236 255
222 236 255
222 236 255
222 236 255
222 236 255
222 236 255
222 236 255
222 236 255
222 236 255
222 236 255
222 236 255
222 236 255
222 236 255
222 236 255
222 236 255
222 236 255
222 236 255
222 236 255
222 236 255
222 236 255
222 236 255
222 236 255
222 236 255
222 236 255
222 236 255
222 236 255
222 236 255
222 236 255
222 236 255
222 236 255
222 236 255
222 236 255
222 236 255
222 236 255
222 236 255
222 236 255
222 236 255
222 236 255
222 236 255
222 236 255
222 236 255
222 236 255
222 236 255
222 236 255
222 236 255
222 236 255
222 236 255
222 236 255
222 236 255
222 236 255
222 236 255
222 236 255
222 236 255
222 236 255
222 236 255
222 236 255
222 236 255
222 236 255
222 236 255
222 236 255
222 236 255
222 236 255
222 236 255
222 236 255
222 236 255
222 236 255
222 236 255
222 236 255
222 236 255
222 236 255
222 236 255
222 236 255
222 236 255
222 236 255
222 236 255
222 236 255
222 236 255
222 236 255
222 236 255
222 236 255
222 236 255
222 236 255
222 236 255
222 236 255
153 163 179
0 0 42
0 0 42
0 0 42
0 0 42
0 0 42
0 0 42
0 0 42
0 0 42
0 0 42
0 0 42
0 0 42
0 0 42
0 0 42
0 0 42
0 0 42
0 0 42
0 0 42
0 0 42
0 0 42
0 0 42
0 0 42
0 0 42
0 0 42
0 0 42
0 0 42
0 0 42
0 0 42
0 0 42
0 0 42
0 0 42
0 0 42
0 0 42
0 0 42
0 0 42
0 0 42
0 0 42
0 0 42
0 0 42
0 0 42
0 0 42
0 0 42
0 0 42
0 0 42
0 0 42
0 0 42
0 0 42
0 0 42
0 0 42
0 0 42
0 0 42
0 0 42
0 0 42
0 0 42
0 0 42
0 0 42
0 0 42
0 0 42
0 0 42
0 0 42
0 0 42
0 0 42
0 0 42
0 0 42
0 0 42
0 0 42
0 0 42
0 0 42
0 0 42
0 0 42
0 0 42
0 0 42
0 0 42
0 0 42
0 0 42
0 0 42
0 0 42
0 0 42
0 0 42
0 0 42
0 0 42
0 0 42
0 0 42
0 0 42
0 0 42
0 0 42
0 0 42
0 0 42
0 0 42
0 0 42
0 0 42
0 0 42
0 0 42
0 0 42
0 0 42
0 0 42
0 0 42
0 0 42
0 0 39
0 0 39
0 0 39
0 0 41
0 0 42
0 0 42
0 0 42
0 0 42
0 0 40
0 0 40
0 0 42
0 0 42
0 0 42
0 0 42
0 0 42
0 0 42
0 0 42
0 0 42
0 0 42
0 0 42
0 0 45
0 0 45
0 0 43
0 0 42
0 0 42
0 0 41
0 0 41
0 0 37
0 0 36
53 61 65
69 86 57
42 56 13
44 54 13
52 65 19
34 49 7
32 49 6
38 61 10
33 55 13
19 42 2
27 49 9
22 45 0
24 48 0
23 45 0
20 42 0
18 40 0
16 39 0
27 49 13
20 42 0
19 40 0
17 42 0
21 46 0
22 44 0
24 47 1
28 51 5
25 47 0
17 37 0
22 41 0
19 38 0
21 44 0
20 46 0
25 49 0
26 48 0
24 48 0
14 37 0
21 42 0
19 39 0
21 43 1
22 46 9
20 44 2
21 43 3
20 42 0
22 42 0
23 41 9
19 35 3
19 39 0
22 46 0
22 44 0
24 47 0
34 57 14
27 49 5
29 52 0
27 50 0
20 46 0
26 52 0
27 52 0
28 51 0
29 50 0
40 60 16
29 46 13
41 63 18
33 54 2
43 63 13
41 58 13
46 65 17
47 68 17
37 63 7
32 52 8
33 49 4
44 59 9
49 62 14
53 66 23
50 72 4
49 73 32
39 51 53
0 0 28
0 0 37
0 0 45
0 0 41
0 0 39
0 0 42
0 0 42
0 0 42
0 0 42
0 0 42
0 0 42
0 0 42
0 0 42
164 175 191
222 236 255
222 236 255
222 236 255
222 236 255
222 236 255
222 236 255
222 236 255
222 236 255
222 236 255
222 236 255
222 236 255
222 236 255
222 236 255
222 236 255
222 236 255
222 236 255
222 236 255
222 236 255
222 236 255
222 236 255
222 236 255
222 236 255
222 236 255
222 236 255
222 236 255
222 236 255
222 236 255
222 236 255
222 236 255
222 236 255
222 236 255
222 236 255
222 236 255
222 236 255
222 236 255
222 236 255
222 236 255
222 236 255
222 236 255
222 236 255
222 236 255
222 236 255
222 236 255
222 236 255
222 236 255
222 236 255
222 236 255
222 236 255
222 236 255
222 236 255
222 236 255
222 236 255
222 236 255
222 236 255
222 236 255
222 236 255
222 236 255
222 236 255
222 236 255
222 236 255
222 236 255
222 236 255
222 236 255
222 236 255
222 236 255
222 236 255
222 236 255
222 236 255
222 236 255
222 236 255
222 236 255
222 236 255
222 236 255
222 236 255
222 236 255
222 236 255
222 236 255
222 236 255
222 236 255
222 236 255
222 236 255
222 236 255
222 236 255
222 236 255
222 236 255
222 236 255
222 236 255
222 236 255
222 236 255
222 236 255
222 236 255
222 236 255
222 236 255
222 236 255
222 236 255
222 236 255
222 236 255
222 236 255
222 236 255
222 236 255
222 236 255
222 236 255
222 236 255
222 236 255
222 236 255
222 236 255
222 236 255
222 236 255
222 236 255
222 236 255
222 236 255
222 236 255
222 236 255
222 236 255
222 236 255
222 236 255
222 236 255
222 236 255
222 236 255
222 236 255
222 236 255
222 236 255
222 236 255
222 236 255
222 236 255
222 236 255
222 236 255
222 236 255
222 236 255
222 236 255
222 236 255
222 236 255
222 236 255
222 236 255
222 236 255
222 236 255
222 236 255
222 236 255
222 236 255
222 236 255
222 236 255
222 236 255
222 236 255
222 236 255
222 236 255
222 236 255
222 236 255
222 236 255
222 236 255
222 236 255
222 236 255
222 236 255
222 236 255
222 236 255
222 236 255
222 236 255
222 236 255
222 236 255
222 236 255
222 236 255
222 236 255
222 236 255
222 236 255
222 236 255
222 236 255
222 236 255
222 236 255
222 236 255
222 236 255
222 236 255
222 236 255
222 236 255
222 236 255
222 236 255
222 236 255
222 236 255
222 236 255
222 236 255
222 236 255
222 236 255
222 236 255
222 236 255
222 236 255
222 236 255
172 183 200
0 0 42
0 0 42
0 0 42
0 0 42
0 0 42
0 0 42
0 0 42
0 0 42
0 0 42
0 0 42
0 0 42
0 0 42
0 0 42
0 0 42
0 0 42
0 0 42
0 0 42
0 0 42
0 0 42
0 0 42
0 0 42
0 0 42
0 0 42
0 0 42
0 0 42
0 0 42
0 0 42
0 0 42
0 0 42
0 0 42
0 0 42
0 0 42
0 0 42
0 0 42
0 0 42
0 0 42
0 0 42
0 0 42
0 0 42
0 0 42
0 0 42
0 0 42
0 0 42
0 0 42
0 0 42
0 0 42
0 0 42
0 0 42
0 0 42
0 0 42
0 0 42
0 0 42
0 0 42
0 0 42
0 0 42
0 0 42
0 0 42
0 0 42
0 0 42
0 0 42
0 0 42
0 0 42
0 0 42
0 0 42
0 0 42
0 0 42
0 0 42
0 0 42
0 0 42
0 0 42
0 0 42
0 0 42
0 0 42
0 0 42
0 0 42
0 0 42
0 0 42
0 0 42
0 0 42
0 0 42
0 0 42
0 0 42
0 0 42
0 0 42
0 0 42
0 0 42
0 0 42
0 0 42
0 0 42
0 0 42
0 0 42
0 0 42
0 0 42
0 0 42
0 0 42
0 0 42
0 0 42
0 0 40
0 0 40
0 0 40
0 0 41
0 0 42
0 0 42
0 0 42
0 0 41
0 0 40
0 0 40
0 0 42
0 0 42
0 0 42
0 0 42
0 0 42
0 0 42
0 0 42
0 0 42
0 0 42
0 0 42
0 0 42
0 0 42
0 0 42
0 0 42
0 0 42
0 0 42
0 0 37
0 0 38
0 5 28
125 134 140
75 84 29
64 72 16
48 58 15
41 53 15
29 46 0
31 50 0
34 54 0
30 49 11
19 41 0
23 47 0
24 48 0
25 49 0
23 47 0
23 47 0
20 46 3
25 49 7
22 45 10
20 43 0
16 40 0
14 38 0
17 42 0
16 40 0
18 41 3
23 45 7
17 38 0
18 40 0
23 44 0
20 43 0
22 45 0
24 48 0
21 44 0
22 44 0
20 44 0
17 41 0
21 44 0
18 40 0
20 43 0
16 42 0
16 43 0
18 43 0
16 39 0
18 41 0
24 44 7
16 36 3
23 44 0
22 44 0
25 48 0
24 48 0
29 53 8
25 47 3
26 50 0
24 49 0
22 45 0
26 50 0
26 50 0
26 50 0
28 50 0
28 50 2
27 49 0
39 62 13
42 63 13
50 71 21
40 60 14
36 55 9
38 59 5
36 58 0
42 61 12
40 57 8
48 64 16
43 58 12
54 66 21
56 68 14
60 71 23
74 88 67
31 39 36
22 27 39
0 0 48
0 0 42
0 0 40
0 0 42
0 0 42
0 0 42
0 0 42
0 0 42
0 0 42
0 0 42
0 0 42
169 179 196
222 236 255
222 236 255
222 236 255
222 236 255
222 236 255
222 236 255
222 236 255
222 236 255
222 236 255
222 236 255
222 236 255
222 236 255
222 236 255
222 236 255
222 236 255
222 236 255
222 236 255
222 236 255
222 236 255
222 236 255
222 236 255
222 236 255
222 236 255
222 236 255
222 236 255
222 236 255
222 236 255
222 236 255
222 236 255
222 236 255
222 236 255
222 236 255
222 236 255
222 236 255
222 236 255
222 236 255
222 236 255
222 236 255
222 236 255
222 236 255
222 236 255
222 236 255
222 236 255
222 236 255
222 236 255
222 236 255
222 236 255
222 236 255
222 236 255
222 236 255
222 236 255
222 236 255
222 236 255
222 236 255
222 236 255
222 236 255
222 236 255
222 236 255
222 236 255
222 236 255
222 236 255
222 236 255
222 236 255
222 236 255
222 236 255
222 236 255
222 236 255
222 236 255
222 236 255
222 236 255
222 236 255
222 236 255
222 236 255
222 236 255
222 236 255
222 236 255
222 236 255
222 236 255
222 236 255
222 236 255
222 236 255
222 236 255
222 236 255
222 236 255
222 236 255
222 236 255
222 236 255
222 236 255
222 236 255
222 236 255
222 236 255
222 236 255
222 236 255
222 236 255
222 236 255
222 236 255
222 236 255
222 236 255
222 236 255
222 236 255
222 236 255
222 236 255
222 236 255
222 236 255
222 236 255
222 236 255
222 236 255
222 236 255
222 236 255
222 236 255
222 236 255
222 236 255
222 236 255
222 236 255
222 236 255
222 236 255
222 236 255
222 236 255
222 236 255
222 236 255
222 236 255
222 236 255
222 236 255
222 236 255
222 236 255
222 236 255
222 236 255
222 236 255
222 236 255
222 236 255
222 236 255
222 236 255
222 236 255
222 236 255
222 236 255
222 236 255
222 236 255
222 236 255
222 236 255
222 236 255
222 236 255
222 236 255
222 236 255
222 236 255
222 236 255
222 236 255
222 236 255
222 236 255
222 236 255
222 236 255
222 236 255
222 236 255
222 236 255
222 236 255
222 236 255
222 236 255
222 236 255
222 236 255
222 236 255
222 236 255
222 236 255
222 236 255
222 236 255
222 236 255
222 236 255
222 236 255
222 236 255
222 236 255
222 236 255
222 236 255
222 236 255
222 236 255
222 236 255
222 236 255
222 236 255
222 236 255
222 236 255
222 236 255
222 236 255
222 236 255
222 236 255
222 236 255
222 236 255
222 236 255
189 201 219
0 0 42
0 0 42
0 0 42
0 0 42
0 0 42
0 0 42
0 0 42
0 0 42
0 0 42
0 0 42
0 0 42
0 0 42
0 0 42
0 0 42
0 0 42
0 0 42
0 0 42
0 0 42
0 0 42
0 0 42
0 0 42
0 0 42
0 0 42
0 0 42
0 0 42
0 0 42
0 0 42
0 0 42
0 0 42
0 0 42
0 0 42
0 0 42
0 0 42
0 0 42
0 0 42
0 0 42
0 0 42
0 0 42
0 0 42
0 0 42
0 0 42
0 0 42
0 0 42
0 0 42
0 0 42
0 0 42
0 0 42
0 0 42
0 0 42
0 0 42
0 0 42
0 0 42
0 0 42
0 0 42
0 0 42
0 0 42
0 0 42
0 0 42
0 0 42
0 0 42
0 0 42
0 0 42
0 0 42
0 0 42
0 0 42
0 0 42
0 0 42
0 0 42
0 0 42
0 0 42
0 0 42
0 0 42
0 0 42
0 0 42
0 0 42
0 0 42
0 0 42
0 0 42
0 0 42
0 0 42
0 0 42
0 0 42
0 0 42
0 0 42
0 0 42
0 0 42
0 0 42
0 0 42
0 0 42
0 0 42
0 0 42
0 0 42
0 0 42
0 0 42
0 0 42
0 0 42
0 0 42
0 0 42
0 0 42
0 0 42
0 0 42
0 0 42
0 0 42
0 0 42
0 0 42
0 0 42
0 0 42
0 0 42
0 0 42
0 0 42
0 0 42
0 0 42
0 0 42
0 0 42
0 0 42
0 0 42
0 0 42
0 0 39
0 0 41
0 0 42
0 0 42
0 0 42
0 0 40
5 5 39
7 8 38
0 3 29
97 101 93
138 141 88
80 82 30
56 63 28
32 45 4
40 58 19
28 46 7
38 56 16
23 41 8
17 37 0
19 44 0
23 48 0
23 49 0
17 44 0
18 44 0
22 49 1
24 50 1
15 41 0
18 42 0
17 42 0
13 39 0
15 41 0
14 40 0
13 39 0
16 40 0
15 40 0
19 43 0
19 44 0
19 42 0
24 46 0
23 46 0
19 44 0
24 47 0
24 45 0
19 42 0
19 41 0
19 40 0
19 43 0
17 44 0
19 45 0
21 45 0
21 45 0
20 43 0
21 42 0
17 39 0
23 48 0
23 48 0
22 45 0
22 44 0
20 43 0
23 46 0
27 50 0
27 52 0
24 48 0
24 48 0
25 48 0
27 49 0
28 51 0
30 53 4
36 59 6
41 65 10
45 66 12
47 67 16
40 57 14
38 55 7
40 59 11
40 58 10
36 53 3
45 60 11
50 65 18
50 63 17
58 71 27
59 71 20
79 89 34
74 82 41
89 98 74
56 65 62
0 0 41
0 0 41
0 0 42
0 0 42
0 0 42
0 0 42
0 0 42
0 0 42
0 0 42
0 0 42
0 0 42
181 193 210
222 236 255
222 236 255
222 236 255
222 236 255
222 236 255
222 236 255
222 236 255
222 236 255
222 236 255
222 236 255
222 236 255
222 236 255
222 236 255
222 236 255
222 236 255
222 236 255
222 236 255
222 236 255
222 236 255
222 236 255
222 236 255
222 236 255
222 236 255
222 236 255
222 236 255
222 236 255
222 236 255
222 236 255
222 236 255
222 236 255
222 236 255
222 236 255
222 236 255
222 236 255
222 236 255
222 236 255
222 236 255
222 236 255
222 236 255
222 236 255
222 236 255
222 236 255
222 236 255
222 236 255
222 236 255
222 236 255
222 236 255
222 236 255
222 236 255
222 236 255
222 236 255
222 236 255
222 236 255
222 236 255
222 236 255
222 236 255
222 236 255
222 236 255
222 236 255
222 236 255
222 236 255
222 236 255
222 236 255
222 236 255
222 236 255
222 236 255
222 236 255
222 236 255
222 236 255
222 236 255
222 236 255
222 236 255
222 236 255
222 236 255
222 236 255
222 236 255
222 236 255
222 236 255
222 236 255
222 236 255
222 236 255
222 236 255
222 236 255
222 236 255
222 236 255
222 236 255
222 236 255
222 236 255
222 236 255
222 236 255
222 236 255
222 236 255
222 236 255
222 236 255
222 236 255
222 236 255
222 236 255
222 236 255
222 236 255
222 236 255
222 236 255
222 236 255
222 236 255
222 236 255
222 236 255
222 236 255
222 236 255
222 236 255
222 236 255
222 236 255
222 236 255
222 236 255
222 236 255
222 236 255
222 236 255
222 236 255
222 236 255
222 236 255
222 236 255
222 236 255
222 236 255
222 236 255
222 236 255
222 236 255
222 236 255
222 236 255
222 236 255
222 236 255
222 236 255
222 236 255
222 236 255
222 236 255
222 236 255
222 236 255
222 236 255
222 236 255
222 236 255
222 236 255
222 236 255
222 236 255
222 236 255
222 236 255
222 236 255
222 236 255
222 236 255
222 236 255
222 236 255
222 236 255
222 236 255
222 236 255
222 236 255
222 236 255
222 236 255
222 236 255
222 236 255
222 236 255
222 236 255
222 236 255
222 236 255
222 236 255
222 236 255
222 236 255
222 236 255
222 236 255
222 236 255
222 236 255
222 236 255
222 236 255
222 236 255
222 236 255
222 236 255
222 236 255
222 236 255
222 236 255
222 236 255
222 236 255
222 236 255
222 236 255
222 236 255
222 236 255
222 236 255
222 236 255
222 236 255
222 236 255
195 207 225
0 0 42
0 0 42
0 0 42
0 0 42
0 0 42
0 0 42
0 0 42
0 0 42
0 0 42
0 0 42
0 0 42
0 0 42
0 0 42
0 0 42
0 0 42
0 0 42
0 0 42
0 0 42
0 0 42
0 0 42
0 0 42
0 0 42
0 0 42
0 0 42
0 0 42
0 0 42
0 0 42
0 0 42
0 0 42
0 0 42
0 0 42
0 0 42
0 0 42
0 0 42
0 0 42
0 0 42
0 0 42
0 0 42
0 0 42
0 0 42
0 0 42
0 0 42
0 0 42
0 0 42
0 0 42
0 0 42
0 0 42
0 0 42
0 0 42
0 0 42
0 0 42
0 0 42
0 0 42
0 0 42
0 0 42
0 0 42
0 0 42
0 0 42
0 0 42
0 0 42
0 0 42
0 0 42
0 0 42
0 0 42
0 0 42
0 0 42
0 0 42
0 0 42
0 0 42
0 0 42
0 0 42
0 0 42
0 0 42
0 0 42
0 0 42
0 0 42
0 0 42
0 0 42
0 0 42
0 0 42
0 0 42
0 0 42
0 0 42
0 0 42
0 0 42
0 0 42
0 0 42
0 0 42
0 0 42
0 0 42
0 0 42
0 0 42
0 0 42
0 0 42
0 0 42
0 0 42
0 0 42
0 0 42
0 0 42
0 0 42
0 0 42
0 0 42
0 0 42
0 0 42
0 0 42
0 0 42
0 0 42
0 0 42
0 0 42
0 0 42
0 0 42
0 0 42
0 0 42
0 0 42
0 0 42
0 0 42
0 0 42
0 0 39
0 0 41
0 0 42
0 0 42
0 0 42
0 0 41
0 0 39
0 2 34
0 9 33
59 60 54
168 172 135
92 97 54
47 55 10
41 53 9
51 66 26
44 59 22
31 47 7
27 46 8
22 44 0
18 42 2
21 47 0
20 46 0
18 44 0
25 50 3
24 50 0
20 45 0
20 45 0
19 43 0
17 41 0
15 41 0
14 38 0
13 38 0
13 38 0
14 38 0
14 38 0
15 41 0
20 45 0
24 47 0
23 46 0
17 41 0
18 40 0
22 45 0
20 44 0
20 43 0
23 44 0
22 44 0
20 44 0
17 44 0
20 46 0
25 50 0
23 47 0
19 42 0
19 39 0
18 41 0
23 45 0
22 45 0
18 41 0
19 42 0
19 41 0
25 48 0
24 48 0
23 47 0
24 49 0
23 47 0
22 45 0
27 49 0
27 50 0
33 55 8
39 62 8
41 65 0
44 64 4
48 64 12
46 61 10
42 56 10
39 54 5
42 59 7
39 54 0
43 55 7
53 65 22
55 65 23
67 77 35
56 65 19
75 81 36
94 94 56
93 87 59
55 66 40
0 0 36
0 0 41
0 0 43
0 0 42
0 0 42
0 0 42
0 0 42
0 0 42
0 0 42
0 0 42
0 0 42
200 212 231
222 236 255
222 236 255
222 236 255
222 236 255
222 236 255
222 236 255
222 236 255
222 236 255
222 236 255
222 236 255
222 236 255
222 236 255
222 236 255
222 236 255
222 236 255
222 236 255
222 236 255
222 236 255
222 236 255
222 236 255
222 236 255
222 236 255
222 236 255
222 236 255
222 236 255
222 236 255
222 236 255
222 236 255
222 236 255
222 236 255
222 236 255
222 236 255
222 236 255
222 236 255
222 236 255
222 236 255
222 236 255
222 236 255
222 236 255
222 236 255
222 236 255
222 236 255
222 236 255
222 236 255
222 236 255
222 236 255
222 236 255
222 236 255
222 236 255
222 236 255
222 236 255
222 236 255
222 236 255
222 236 255
222 236 255
222 236 255
222 236 255
222 236 255
222 236 255
222 236 255
222 236 255
222 236 255
222 236 255
222 236 255
222 236 255
222 236 255
222 236 255
222 236 255
222 236 255
222 236 255
222 236 255
222 236 255
222 236 255
222 236 255
222 236 255
222 236 255
222 236 255
222 236 255
222 236 255
222 236 255
222 236 255
222 236 255
222 236 255
222 236 255
222 236 255
222 236 255
222 236 255
222 236 255
222 236 255
222 236 255
222 236 255
222 236 255
222 236 255
222 236 255
222 236 255
222 236 255
222 236 255
222 236 255
222 236 255
222 236 255
222 236 255
222 236 255
222 236 255
222 236 255
222 236 255
222 236 255
222 236 255
222 236 255
222 236 255
222 236 255
222 236 255
222 236 255
222 236 255
222 236 255
222 236 255
222 236 255
222 236 255
222 236 255
222 236 255
222 236 255
222 236 255
222 236 255
222 236 255
222 236 255
222 236 255
222 236 255
222 236 255
222 236 255
222 236 255
222 236 255
222 236 255
222 236 255
222 236 255
222 236 255
222 236 255
222 236 255
222 236 255
222 236 255
222 236 255
222 236 255
222 236 255
222 236 255
222 236 255
222 236 255
222 236 255
222 236 255
222 236 255
222 236 255
222 236 255
222 236 255
222 236 255
222 236 255
222 236 255
222 236 255
222 236 255
222 236 255
222 236 255
222 236 255
222 236 255
222 236 255
222 236 255
222 236 255
222 236 255
222 236 255
222 236 255
222 236 255
222 236 255
222 236 255
222 236 255
222 236 255
222 236 255
222 236 255
222 236 255
222 236 255
222 236 255
222 236 255
222 236 255
222 236 255
222 236 255
222 236 255
222 236 255
222 236 255
222 236 255
222 236 255
215 229 248
0 0 42
0 0 42
0 0 42
0 0 42
0 0 42
0 0 42
0 0 42
0 0 42
0 0 42
0 0 42
0 0 42
0 0 42
0 0 42
0 0 42
0 0 42
0 0 42
0 0 42
0 0 42
0 0 42
0 0 42
0 0 42
0 0 42
0 0 42
0 0 42
0 0 42
0 0 42
0 0 42
0 0 42
0 0 42
0 0 42
0 0 42
0 0 42
0 0 42
0 0 42
0 0 42
0 0 42
0 0 42
0 0 42
0 0 42
0 0 42
0 0 42
0 0 42
0 0 42
0 0 42
0 0 42
0 0 42
0 0 42
0 0 42
0 0 42
0 0 42
0 0 42
0 0 42
0 0 42
0 0 42
0 0 42
0 0 42
0 0 42
0 0 42
0 0 42
0 0 42
0 0 42
0 0 42
0 0 42
0 0 42
0 0 42
0 0 42
0 0 42
0 0 42
0 0 42
0 0 42
0 0 42
0 0 42
0 0 42
0 0 42
0 0 42
0 0 42
0 0 42
0 0 42
0 0 42
0 0 42
0 0 42
0 0 42
0 0 42
0 0 42
0 0 42
0 0 42
0 0 42
0 0 42
0 0 42
0 0 42
0 0 42
0 0 42
0 0 42
0 0 42
0 0 42
0 0 42
0 0 42
0 0 42
0 0 42
0 0 42
0 0 42
0 0 42
0 0 42
0 0 42
0 0 42
0 0 42
0 0 42
0 0 42
0 0 42
0 0 42
0 0 42
0 0 42
0 0 42
0 0 42
0 0 42
0 0 42
0 0 42
0 0 39
0 0 39
0 0 42
0 0 42
0 0 42
0 0 43
0 0 39
0 0 41
0 0 33
82 86 97
188 195 193
125 135 105
59 69 29
50 61 16
55 64 27
68 80 42
41 54 7
32 50 9
32 53 17
20 44 7
28 51 0
23 47 0
28 51 7
31 54 11
23 47 0
18 41 0
22 43 0
21 43 0
20 41 0
19 41 0
17 40 0
17 40 0
14 37 0
17 39 0
13 37 0
14 36 0
23 45 0
27 49 0
20 45 0
13 39 0
16 41 0
19 44 0
16 42 0
17 42 0
19 43 0
17 41 0
18 44 0
16 43 0
23 48 0
24 48 0
21 44 0
19 41 0
20 40 0
20 43 0
22 45 0
20 42 0
16 40 0
18 41 0
21 43 0
26 49 0
24 45 0
23 46 0
22 48 0
25 50 0
29 53 4
34 57 6
25 46 1
26 47 0
48 70 20
50 72 17
46 64 7
48 63 10
52 63 15
50 61 16
54 65 19
37 49 0
39 52 0
43 54 10
50 58 16
60 65 26
67 71 31
66 72 31
77 80 42
94 88 59
82 74 41
54 68 30
0 0 36
0 0 44
0 0 43
0 0 42
0 0 42
0 0 42
0 0 42
0 0 42
0 0 42
0 0 42
0 0 42
212 225 244
222 236 255
222 236 255
222 236 255
222 236 255
222 236 255
222 236 255
222 236 255
222 236 255
222 236 255
222 236 255
222 236 255
222 236 255
222 236 255
222 236 255
222 236 255
222 236 255
222 236 255
222 236 255
222 236 255
222 236 255
222 236 255
222 236 255
222 236 255
222 236 255
222 236 255
222 236 255
222 236 255
222 236 255
222 236 255
222 236 255
222 236 255
222 236 255
222 236 255
222 236 255
222 236 255
222 236 255
222 236 255
222 236 255
222 236 255
222 236 255
222 236 255
222 236 255
222 236 255
222 236 255
222 236 255
222 236 255
222 236 255
222 236 255
222 236 255
222 236 255
222 236 255
222 236 255
222 236 255
222 236 255
222 236 255
222 236 255
222 236 255
222 236 255
222 236 255
222 236 255
222 236 255
222 236 255
222 236 255
222 236 255
222 236 255
222 236 255
222 236 255
222 236 255
222 236 255
222 236 255
222 236 255
222 236 255
222 236 255
222 236 255
222 236 255
222 236 255
222 236 255
222 236 255
222 236 255
222 236 255
222 236 255
222 236 255
222 236 255
222 236 255
222 236 255
222 236 255
222 236 255
222 236 255
222 236 255
222 236 255
222 236 255
222 236 255
222 236 255
222 236 255
222 236 255
222 236 255
222 236 255
222 236 255
222 236 255
222 236 255
222 236 255
222 236 255
222 236 255
222 236 255
222 236 255
222 236 255
222 236 255
222 236 255
222 236 255
222 236 255
222 236 255
222 236 255
222 236 255
222 236 255
222 236 255
222 236 255
222 236 255
222 236 255
222 236 255
222 236 255
222 236 255
222 236 255
222 236 255
222 236 255
222 236 255
222 236 255
222 236 255
222 236 255
222 236 255
222 236 255
222 236 255
222 236 255
222 236 255
222 236 255
222 236 255
222 236 255
222 236 255
222 236 255
222 236 255
222 236 255
222 236 255
222 236 255
222 236 255
222 236 255
222 236 255
222 236 255
222 236 255
222 236 255
222 236 255
222 236 255
222 236 255
222 236 255
222 236 255
222 236 255
222 236 255
222 236 255
222 236 255
222 236 255
222 236 255
222 236 255
222 236 255
222 236 255
222 236 255
222 236 255
222 236 255
222 236 255
222 236 255
222 236 255
222 236 255
222 236 255
222 236 255
222 236 255
222 236 255
222 236 255
222 236 255
222 236 255
222 236 255
222 236 255
222 236 255
222 236 255
222 236 255
222 236 255
222 236 255
222 236 255
222 236 255
66 70 86
0 0 42
0 0 42
0 0 42
0 0 42
0 0 42
0 0 42
0 0 42
0 0 42
0 0 42
0 0 42
0 0 42
0 0 42
0 0 42
0 0 42
0 0 41
0 0 41
0 0 42
0 0 42
0 0 42
0 0 42
0 0 42
0 0 42
0 0 42
0 0 42
0 0 42
0 0 42
0 0 42
0 0 42
0 0 42
0 0 42
0 0 42
0 0 42
0 0 42
0 0 42
0 0 42
0 0 42
0 0 42
0 0 42
0 0 42
0 0 42
0 0 42
0 0 42
0 0 42
0 0 42
0 0 42
0 0 42
0 0 42
0 0 42
0 0 42
0 0 42
0 0 42
0 0 42
0 0 42
0 0 42
0 0 42
0 0 42
0 0 42
0 0 42
0 0 42
0 0 42
0 0 42
0 0 42
0 0 42
0 0 42
0 0 42
0 0 42
0 0 42
0 0 42
0 0 42
0 0 42
0 0 42
0 0 42
0 0 42
0 0 42
0 0 42
0 0 42
0 0 42
0 0 42
0 0 42
0 0 42
0 0 42
0 0 42
0 0 42
0 0 42
0 0 42
0 0 42
0 0 42
0 0 42
0 0 42
0 0 42
0 0 42
0 0 42
0 0 42
0 0 42
0 0 42
0 0 42
0 0 42
0 0 42
0 0 42
0 0 42
0 0 42
0 0 42
0 0 42
0 0 42
0 0 42
0 0 42
0 0 42
0 0 42
0 0 42
0 0 42
0 0 42
0 0 42
0 0 42
0 0 42
0 0 42
0 0 42
0 0 39
0 0 40
0 0 42
0 0 43
0 0 44
0 0 44
0 0 42
0 0 40
0 0 40
49 52 65
172 180 192
181 192 183
93 102 75
38 46 5
65 69 26
52 56 17
47 55 17
25 38 5
27 48 14
32 56 14
26 49 0
21 44 0
25 49 5
24 47 6
21 44 0
21 44 0
20 42 0
21 42 0
19 41 0
20 42 0
19 42 0
20 41 0
20 42 0
20 41 0
16 40 0
17 41 0
24 48 0
19 42 0
15 41 0
14 39 0
16 42 0
19 44 0
19 44 0
20 45 0
16 42 0
13 38 0
17 41 0
23 47 0
23 47 0
22 46 0
21 43 0
19 41 0
17 38 0
23 44 0
21 44 0
17 40 0
18 39 0
17 41 0
22 44 0
24 48 2
23 45 0
23 47 0
23 49 0
24 50 0
32 57 7
48 73 22
34 56 11
45 67 16
47 70 15
47 68 12
51 69 14
50 61 10
53 62 14
57 65 18
52 61 16
46 57 11
52 63 17
56 67 25
56 61 21
69 70 33
73 72 33
69 73 34
76 80 40
97 94 56
76 77 31
48 63 33
0 0 43
0 0 46
0 0 41
0 0 42
0 0 42
0 0 42
0 0 42
0 0 42
0 0 42
0 0 42
62 66 82
222 236 255
222 236 255
222 236 255
222 236 255
222 236 255
222 236 255
222 236 255
222 236 255
222 236 255
222 236 255
222 236 255
222 236 255
222 236 255
222 236 255
222 236 255
222 236 255
222 236 255
222 236 255
222 236 255
222 236 255
222 236 255
222 236 255
222 236 255
222 236 255
222 236 255
222 236 255
222 236 255
222 236 255
222 236 255
222 236 255
222 236 255
222 236 255
222 236 255
222 236 255
222 236 255
222 236 255
222 236 255
222 236 255
222 236 255
222 236 255
222 236 255
222 236 255
222 236 255
222 236 255
222 236 255
222 236 255
222 236 255
222 236 255
222 236 255
222 236 255
222 236 255
222 236 255
222 236 255
222 236 255
222 236 255
222 236 255
222 236 255
222 236 255
222 236 255
222 236 255
222 236 255
222 236 255
222 236 255
222 236 255
222 236 255
222 236 255
222 236 255
222 236 255
222 236 255
222 236 255
222 236 255
222 236 255
222 236 255
222 236 255
222 236 255
222 236 255
222 236 255
222 236 255
222 236 255
222 236 255
222 236 255
222 236 255
222 236 255
222 236 255
222 236 255
222 236 255
222 236 255
222 236 255
222 236 255
222 236 255
222 236 255
222 236 255
222 236 255
222 236 255
222 236 255
222 236 255
222 236 255
222 236 255
222 236 255
222 236 255
222 236 255
222 236 255
222 236 255
222 236 255
222 236 255
222 236 255
222 236 255
222 236 255
222 236 255
222 236 255
222 236 255
222 236 255
222 236 255
222 236 255
222 236 255
222 236 255
222 236 255
222 236 255
222 236 255
222 236 255
222 236 255
222 236 255
222 236 255
222 236 255
222 236 255
222 236 255
222 236 255
222 236 255
222 236 255
222 236 255
222 236 255
222 236 255
222 236 255
222 236 255
222 236 255
222 236 255
222 236 255
222 236 255
222 236 255
222 236 255
222 236 255
222 236 255
222 236 255
222 236 255
222 236 255
222 236 255
222 236 255
222 236 255
222 236 255
222 236 255
222 236 255
222 236 255
222 236 255
222 236 255
222 236 255
222 236 255
222 236 255
222 236 255
222 236 255
222 236 255
222 236 255
222 236 255
222 236 255
222 236 255
222 236 255
222 236 255
222 236 255
222 236 255
222 236 255
222 236 255
222 236 255
222 236 255
222 236 255
222 236 255
222 236 255
222 236 255
222 236 255
222 236 255
222 236 255
222 236 255
222 236 255
222 236 255
222 236 255
222 236 255
222 236 255
222 236 255
97 103 117
0 0 42
0 0 42
0 0 42
0 0 42
0 0 42
0 0 42
0 0 42
0 0 42
0 0 42
0 0 42
0 0 42
0 0 42
0 0 42
0 0 42
0 0 41
0 0 41
0 0 42
0 0 42
0 0 42
0 0 42
0 0 42
0 0 42
0 0 42
0 0 42
0 0 42
0 0 42
0 0 42
0 0 42
0 0 42
0 0 42
0 0 42
0 0 42
0 0 42
0 0 42
0 0 42
0 0 42
0 0 42
0 0 42
0 0 42
0 0 42
0 0 42
0 0 42
0 0 42
0 0 42
0 0 42
0 0 42
0 0 42
0 0 42
0 0 42
0 0 42
0 0 42
0 0 42
0 0 42
0 0 42
0 0 42
0 0 42
0 0 42
0 0 42
0 0 42
0 0 42
0 0 42
0 0 42
0 0 42
0 0 42
0 0 42
0 0 42
0 0 42
0 0 42
0 0 42
0 0 42
0 0 42
0 0 42
0 0 42
0 0 42
0 0 42
0 0 42
0 0 42
0 0 42
0 0 42
0 0 42
0 0 42
0 0 42
0 0 42
0 0 42
0 0 42
0 0 42
0 0 42
0 0 42
0 0 42
0 0 42
0 0 42
0 0 42
0 0 42
0 0 42
0 0 42
0 0 42
0 0 42
0 0 42
0 0 42
0 0 42
0 0 42
0 0 42
0 0 42
0 0 42
0 0 42
0 0 42
0 0 42
0 0 42
0 0 42
0 0 42
0 0 42
0 0 42
0 0 42
0 0 42
0 0 42
0 0 42
0 0 39
0 0 41
0 0 42
0 0 42
0 0 43
0 0 43
0 0 43
0 0 43
0 0 41
0 0 36
7 7 22
59 63 60
112 123 107
56 62 30
66 68 24
68 69 30
45 48 18
16 29 0
28 50 13
39 65 23
23 46 0
18 42 0
22 45 0
23 48 0
22 45 0
23 45 0
23 45 0
16 39 0
18 40 0
19 42 0
16 40 0
19 41 0
21 42 0
20 42 0
16 40 0
17 41 0
19 43 0
14 35 0
14 39 0
8 35 0
20 46 0
22 47 0
20 45 0
20 45 0
15 42 0
14 38 0
21 44 5
20 44 0
22 46 0
19 42 0
22 43 0
22 43 5
18 40 0
23 45 0
23 45 0
29 51 12
18 39 2
25 48 0
23 45 0
30 53 8
22 46 0
21 46 0
24 50 0
24 49 0
30 55 0
35 58 11
37 58 5
54 77 25
48 70 15
50 68 15
53 67 15
59 69 23
59 65 22
60 65 21
55 62 17
49 59 16
55 66 24
52 60 19
61 63 25
82 80 45
70 64 26
67 67 28
70 76 33
75 80 34
66 76 25
47 63 44
0 0 46
0 0 43
0 0 39
0 0 42
0 0 42
0 0 42
0 0 42
0 0 42
0 0 42
0 0 42
94 100 115
222 236 255
222 236 255
222 236 255
222 236 255
222 236 255
222 236 255
222 236 255
222 236 255
222 236 255
222 236 255
222 236 255
222 236 255
222 236 255
222 236 255
222 236 255
222 236 255
222 236 255
222 236 255
222 236 255
222 236 255
222 236 255
222 236 255
222 236 255
222 236 255
222 236 255
222 236 255
222 236 255
222 236 255
222 236 255
222 236 255
222 236 255
222 236 255
222 236 255
222 236 255
222 236 255
222 236 255
222 236 255
222 236 255
222 236 255
222 236 255
222 236 255
222 236 255
222 236 255
222 236 255
222 236 255
222 236 255
222 236 255
222 236 255
222 236 255
222 236 255
222 236 255
222 236 255
222 236 255
222 236 255
222 236 255
222 236 255
222 236 255
222 236 255
222 236 255
222 236 255
222 236 255
222 236 255
222 236 255
222 236 255
222 236 255
222 236 255
222 236 255
222 236 255
222 236 255
222 236 255
222 236 255
222 236 255
222 236 255
222 236 255
222 236 255
222 236 255
222 236 255
222 236 255
222 236 255
222 236 255
222 236 255
222 236 255
222 236 255
222 236 255
222 236 255
222 236 255
222 236 255
222 236 255
222 236 255
222 236 255
222 236 255
222 236 255
222 236 255
222 236 255
222 236 255
222 236 255
222 236 255
222 236 255
222 236 255
222 236 255
222 236 255
222 236 255
222 236 255
222 236 255
222 236 255
222 236 255
222 236 255
222 236 255
222 236 255
222 236 255
222 236 255
222 236 255
222 236 255
222 236 255
222 236 255
222 236 255
222 236 255
222 236 255
222 236 255
222 236 255
222 236 255
222 236 255
222 236 255
222 236 255
222 236 255
222 236 255
222 236 255
222 236 255
222 236 255
222 236 255
222 236 255
222 236 255
222 236 255
222 236 255
222 236 255
222 236 255
222 236 255
222 236 255
222 236 255
222 236 255
222 236 255
222 236 255
222 236 255
222 236 255
222 236 255
222 236 255
222 236 255
222 236 255
222 236 255
222 236 255
222 236 255
222 236 255
222 236 255
222 236 255
222 236 255
222 236 255
222 236 255
222 236 255
222 236 255
222 236 255
222 236 255
222 236 255
222 236 255
222 236 255
222 236 255
222 236 255
222 236 255
222 236 255
222 236 255
222 236 255
222 236 255
222 236 255
222 236 255
222 236 255
222 236 255
222 236 255
222 236 255
222 236 255
222 236 255
222 236 255
222 236 255
222 236 255
222 236 255
222 236 255
222 236 255
222 236 255
125 133 148
0 0 42
0 0 42
0 0 42
0 0 42
0 0 42
0 0 42
0 0 42
0 0 42
0 0 42
0 0 42
0 0 42
0 0 42
0 0 42
0 0 42
0 0 41
0 0 41
0 0 42
0 0 42
0 0 42
0 0 42
0 0 42
0 0 42
0 0 42
0 0 42
0 0 42
0 0 42
0 0 42
0 0 42
0 0 42
0 0 42
0 0 42
0 0 42
0 0 42
0 0 42
0 0 42
0 0 42
0 0 42
0 0 42
0 0 42
0 0 42
0 0 42
0 0 42
0 0 42
0 0 42
0 0 42
0 0 42
0 0 42
0 0 42
0 0 42
0 0 42
0 0 42
0 0 42
0 0 42
0 0 42
0 0 42
0 0 42
0 0 42
0 0 42
0 0 42
0 0 42
0 0 42
0 0 42
0 0 42
0 0 42
0 0 42
0 0 42
0 0 42
0 0 42
0 0 42
0 0 42
0 0 42
0 0 42
0 0 42
0 0 42
0 0 42
0 0 42
0 0 42
0 0 42
0 0 42
0 0 42
0 0 42
0 0 42
0 0 42
0 0 42
0 0 42
0 0 42
0 0 42
0 0 42
0 0 42
0 0 42
0 0 42
0 0 42
0 0 42
0 0 42
0 0 42
0 0 42
0 0 42
0 0 42
0 0 42
0 0 42
0 0 42
0 0 42
0 0 42
0 0 42
0 0 42
0 0 42
0 0 42
0 0 42
0 0 42
0 0 42
0 0 42
0 0 42
0 0 42
0 0 42
0 0 42
0 0 42
0 0 40
0 0 42
0 0 42
0 0 42
0 0 42
0 0 42
0 0 42
0 0 42
0 0 42
0 0 41
0 0 37
0 0 21
76 81 76
101 107 89
49 48 11
78 76 43
63 62 35
26 35 0
32 51 7
33 56 12
23 45 0
22 44 5
28 51 7
21 42 0
20 42 0
22 43 0
22 45 1
24 44 8
16 36 0
21 41 0
19 40 0
20 42 0
23 44 0
21 42 0
21 43 0
21 43 0
17 39 0
14 36 0
14 39 0
13 37 0
20 44 0
22 46 0
23 47 0
18 40 0
17 43 0
18 41 0
24 45 6
21 42 0
21 43 0
21 43 0
21 42 0
22 43 5
21 42 0
16 40 0
19 42 0
27 48 11
23 46 3
23 45 0
24 46 0
27 50 0
21 45 0
23 47 0
24 53 0
22 48 0
27 51 0
27 50 5
41 62 13
44 65 14
50 70 18
55 72 18
57 70 22
51 58 13
59 61 19
59 62 20
52 57 16
54 64 22
53 63 20
53 60 21
68 70 34
83 77 43
78 70 31
73 71 37
71 73 40
68 74 42
57 72 27
35 52 41
0 0 44
0 0 42
0 0 39
0 0 42
0 0 42
0 0 42
0 0 42
0 0 42
0 0 42
0 0 42
131 139 155
222 236 255
222 236 255
222 236 255
222 236 255
222 236 255
222 236 255
222 236 255
222 236 255
222 236 255
222 236 255
222 236 255
222 236 255
222 236 255
222 236 255
222 236 255
222 236 255
222 236 255
222 236 255
222 236 255
222 236 255
222 236 255
222 236 255
222 236 255
222 236 255
222 236 255
222 236 255
222 236 255
222 236 255
222 236 255
222 236 255
222 236 255
222 236 255
222 236 255
222 236 255
222 236 255
222 236 255
222 236 255
222 236 255
222 236 255
222 236 255
222 236 255
222 236 255
222 236 255
222 236 255
222 236 255
222 236 255
222 236 255
222 236 255
222 236 255
222 236 255
222 236 255
222 236 255
222 236 255
222 236 255
222 236 255
222 236 255
222 236 255
222 236 255
222 236 255
222 236 255
222 236 255
222 236 255
222 236 255
222 236 255
222 236 255
222 236 255
222 236 255
222 236 255
222 236 255
222 236 255
222 236 255
222 236 255
222 236 255
222 236 255
222 236 255
222 236 255
222 236 255
222 236 255
222 236 255
222 236 255
222 236 255
222 236 255
222 236 255
222 236 255
222 236 255
222 236 255
222 236 255
222 236 255
222 236 255
222 236 255
222 236 255
222 236 255
222 236 255
222 236 255
222 236 255
222 236 255
222 236 255
222 236 255
222 236 255
222 236 255
222 236 255
222 236 255
222 236 255
222 236 255
222 236 255
222 236 255
222 236 255
222 236 255
222 236 255
222 236 255
222 236 255
222 236 255
222 236 255
222 236 255
222 236 255
222 236 255
222 236 255
222 236 255
222 236 255
222 236 255
222 236 255
222 236 255
222 236 255
222 236 255
222 236 255
222 236 255
222 236 255
222 236 255
222 236 255
222 236 255
222 236 255
222 236 255
222 236 255
222 236 255
222 236 255
222 236 255
222 236 255
222 236 255
222 236 255
222 236 255
222 236 255
222 236 255
222 236 255
222 236 255
222 236 255
222 236 255
222 236 255
222 236 255
222 236 255
222 236 255
222 236 255
222 236 255
222 236 255
222 236 255
222 236 255
222 236 255
222 236 255
222 236 255
222 236 255
222 236 255
222 236 255
222 236 255
222 236 255
222 236 255
222 236 255
222 236 255
222 236 255
222 236 255
222 236 255
222 236 255
222 236 255
222 236 255
222 236 255
222 236 255
222 236 255
222 236 255
222 236 255
222 236 255
222 236 255
222 236 255
222 236 255
222 236 255
222 236 255
222 236 255
222 236 255
222 236 255
166 177 193
0 0 42
0 0 42
0 0 42
0 0 42
0 0 42
0 0 42
0 0 42
0 0 42
0 0 42
0 0 42
0 0 42
0 0 42
0 0 42
0 0 42
0 0 42
0 0 40
0 0 42
0 0 42
0 0 42
0 0 42
0 0 42
0 0 42
0 0 42
0 0 42
0 0 42
0 0 42
0 0 42
0 0 42
0 0 42
0 0 42
0 0 42
0 0 42
0 0 42
0 0 42
0 0 42
0 0 42
0 0 42
0 0 42
0 0 42
0 0 42
0 0 42
0 0 42
0 0 42
0 0 42
0 0 42
0 0 42
0 0 42
0 0 42
0 0 42
0 0 42
0 0 42
0 0 42
0 0 42
0 0 42
0 0 42
0 0 42
0 0 42
0 0 42
0 0 42
0 0 42
0 0 42
0 0 42
0 0 42
0 0 42
0 0 42
0 0 42
0 0 42
0 0 42
0 0 42
0 0 42
0 0 42
0 0 42
0 0 42
0 0 42
0 0 42
0 0 42
0 0 42
0 0 42
0 0 42
0 0 42
0 0 42
0 0 42
0 0 42
0 0 42
0 0 42
0 0 42
0 0 42
0 0 42
0 0 42
0 0 42
0 0 42
0 0 42
0 0 42
0 0 42
0 0 42
0 0 42
0 0 42
0 0 42
0 0 42
0 0 42
0 0 42
0 0 42
0 0 42
0 0 42
0 0 42
0 0 42
0 0 42
0 0 42
0 0 42
0 0 42
0 0 42
0 0 42
0 0 42
0 0 42
0 0 42
0 0 42
0 0 42
0 0 42
0 0 42
0 0 42
0 0 42
0 0 42
0 0 42
0 0 42
0 0 42
0 0 43
3 3 41
7 8 39
56 59 62
118 123 116
59 57 31
73 70 43
72 72 45
36 39 15
30 43 3
27 46 3
21 42 0
24 45 0
24 46 0
23 44 0
23 45 0
24 45 0
28 49 9
29 49 10
19 39 0
22 41 0
20 41 0
22 42 0
21 41 0
21 43 0
22 42 0
22 42 0
21 40 0
21 41 0
20 41 0
21 43 0
23 44 0
23 46 0
22 44 0
18 41 0
23 43 0
27 47 10
25 43 4
21 41 0
20 41 0
18 40 0
17 39 0
16 37 0
19 41 0
20 43 0
16 39 0
22 45 0
24 48 0
24 47 0
21 44 0
28 52 1
22 45 1
24 49 0
23 50 0
21 48 0
30 53 2
29 50 7
50 72 23
47 68 14
49 67 15
59 74 25
56 67 21
56 62 17
53 58 16
54 58 17
56 61 21
50 58 17
52 63 22
60 67 30
72 71 37
77 71 39
73 65 29
72 65 30
73 72 38
62 67 33
52 71 27
28 42 38
0 0 40
0 0 43
0 0 40
0 0 42
0 0 42
0 0 42
0 0 42
0 0 42
0 0 42
0 0 42
168 178 195
222 236 255
222 236 255
222 236 255
222 236 255
222 236 255
222 236 255
222 236 255
222 236 255
222 236 255
222 236 255
222 236 255
222 236 255
222 236 255
222 236 255
222 236 255
222 236 255
222 236 255
222 236 255
222 236 255
222 236 255
222 236 255
222 236 255
222 236 255
222 236 255
222 236 255
222 236 255
222 236 255
222 236 255
222 236 255
222 236 255
222 236 255
222 236 255
222 236 255
222 236 255
222 236 255
222 236 255
222 236 255
222 236 255
222 236 255
222 236 255
222 236 255
222 236 255
222 236 255
222 236 255
222 236 255
222 236 255
222 236 255
222 236 255
222 236 255
222 236 255
222 236 255
222 236 255
222 236 255
222 236 255
222 236 255
222 236 255
222 236 255
222 236 255
222 236 255
222 236 255
222 236 255
222 236 255
222 236 255
222 236 255
222 236 255
222 236 255
222 236 255
222 236 255
222 236 255
222 236 255
222 236 255
222 236 255
222 236 255
222 236 255
222 236 255
222 236 255
222 236 255
222 236 255
222 236 255
222 236 255
222 236 255
222 236 255
222 236 255
222 236 255
222 236 255
222 236 255
222 236 255
222 236 255
222 236 255
222 236 255
222 236 255
222 236 255
222 236 255
222 236 255
222 236 255
222 236 255
222 236 255
222 236 255
222 236 255
222 236 255
222 236 255
222 236 255
222 236 255
222 236 255
222 236 255
222 236 255
222 236 255
222 236 255
222 236 255
222 236 255
222 236 255
222 236 255
222 236 255
222 236 255
222 236 255
222 236 255
222 236 255
222 236 255
222 236 255
222 236 255
222 236 255
222 236 255
222 236 255
222 236 255
222 236 255
222 236 255
222 236 255
222 236 255
222 236 255
222 236 255
222 236 255
222 236 255
222 236 255
222 236 255
222 236 255
222 236 255
222 236 255
222 236 255
222 236 255
222 236 255
222 236 255
222 236 255
222 236 255
222 236 255
222 236 255
222 236 255
222 236 255
222 236 255
222 236 255
222 236 255
222 236 255
222 236 255
222 236 255
222 236 255
222 236 255
222 236 255
222 236 255
222 236 255
222 236 255
222 236 255
222 236 255
222 236 255
222 236 255
222 236 255
222 236 255
222 236 255
222 236 255
222 236 255
222 236 255
222 236 255
222 236 255
222 236 255
222 236 255
222 236 255
222 236 255
222 236 255
222 236 255
222 236 255
222 236 255
222 236 255
222 236 255
222 236 255
222 236 255
222 236 255
222 236 255
222 236 255
178 189 206
0 0 42
0 0 42
0 0 42
0 0 42
0 0 42
0 0 42
0 0 42
0 0 42
0 0 42
0 0 42
0 0 42
0 0 42
0 0 42
0 0 42
0 0 42
5 5 43
5 5 43
0 0 42
0 0 42
0 0 42
0 0 42
0 0 42
0 0 42
0 0 42
0 0 42
0 0 42
0 0 42
0 0 42
0 0 42
0 0 42
0 0 42
0 0 42
0 0 42
0 0 42
0 0 42
0 0 42
0 0 42
0 0 42
0 0 42
0 0 42
0 0 42
0 0 42
0 0 42
0 0 42
0 0 42
0 0 42
0 0 42
0 0 42
0 0 42
0 0 42
0 0 42
0 0 42
0 0 42
0 0 42
0 0 42
0 0 42
0 0 42
0 0 42
0 0 42
0 0 42
0 0 42
0 0 42
0 0 42
0 0 42
0 0 42
0 0 42
0 0 42
0 0 42
0 0 42
0 0 42
0 0 42
0 0 42
0 0 42
0 0 42
0 0 42
0 0 42
0 0 42
0 0 42
0 0 42
0 0 42
0 0 42
0 0 42
0 0 42
0 0 42
0 0 42
0 0 42
0 0 42
0 0 42
0 0 42
0 0 42
0 0 42
0 0 42
0 0 42
0 0 42
0 0 42
0 0 42
0 0 42
0 0 42
0 0 42
0 0 42
0 0 42
0 0 42
0 0 42
0 0 42
0 0 42
0 0 42
0 0 42
0 0 42
0 0 42
0 0 42
0 0 42
0 0 42
0 0 42
0 0 42
0 0 42
0 0 42
0 0 42
0 0 42
0 0 42
0 0 42
0 0 42
0 0 41
0 0 40
0 0 42
0 0 42
0 0 43
0 0 46
0 0 39
0 0 24
71 72 73
94 94 88
69 66 41
62 61 30
60 62 31
33 41 14
36 53 15
21 41 0
20 43 0
29 52 6
32 55 10
22 44 0
20 43 0
25 47 0
20 41 0
22 42 0
23 43 0
24 45 0
28 50 0
24 44 0
24 45 0
21 42 0
20 41 0
24 42 0
23 44 0
21 41 0
24 43 0
24 45 0
22 43 0
24 46 0
21 42 2
27 46 7
21 41 4
26 43 2
22 41 0
34 55 15
19 40 3
17 38 0
16 39 0
21 43 0
21 44 0
21 43 0
22 44 0
25 46 0
26 49 0
24 48 0
32 55 7
24 47 2
24 49 0
22 49 0
21 47 0
30 54 0
32 54 6
44 65 14
49 70 17
56 71 22
51 63 14
54 63 18
56 61 18
57 62 23
54 60 20
55 63 23
45 54 11
46 55 17
56 61 24
73 70 36
77 69 40
91 84 56
98 91 53
79 79 26
76 88 33
45 67 18
9 18 34
0 0 39
0 0 42
0 0 41
0 0 42
0 0 42
0 0 42
0 0 42
0 0 42
0 0 42
0 0 42
187 199 216
222 236 255
222 236 255
222 236 255
222 236 255
222 236 255
222 236 255
222 236 255
222 236 255
222 236 255
222 236 255
222 236 255
222 236 255
222 236 255
222 236 255
222 236 255
222 236 255
222 236 255
222 236 255
222 236 255
222 236 255
222 236 255
222 236 255
222 236 255
222 236 255
222 236 255
222 236 255
222 236 255
222 236 255
222 236 255
222 236 255
222 236 255
222 236 255
222 236 255
222 236 255
222 236 255
222 236 255
222 236 255
222 236 255
222 236 255
222 236 255
222 236 255
222 236 255
222 236 255
222 236 255
222 236 255
222 236 255
222 236 255
222 236 255
222 236 255
222 236 255
222 236 255
222 236 255
222 236 255
222 236 255
222 236 255
222 236 255
222 236 255
222 236 255
222 236 255
222 236 255
222 236 255
222 236 255
222 236 255
222 236 255
222 236 255
222 236 255
222 236 255
222 236 255
222 236 255
222 236 255
222 236 255
222 236 255
222 236 255
222 236 255
222 236 255
222 236 255
222 236 255
222 236 255
222 236 255
222 236 255
222 236 255
222 236 255
222 236 255
222 236 255
222 236 255
222 236 255
222 236 255
222 236 255
222 236 255
222 236 255
222 236 255
222 236 255
222 236 255
222 236 255
222 236 255
222 236 255
222 236 255
222 236 255
222 236 255
222 236 255
222 236 255
222 236 255
222 236 255
222 236 255
222 236 255
222 236 255
222 236 255
222 236 255
222 236 255
222 236 255
222 236 255
222 236 255
222 236 255
222 236 255
222 236 255
222 236 255
222 236 255
222 236 255
222 236 255
222 236 255
222 236 255
222 236 255
222 236 255
222 236 255
222 236 255
222 236 255
222 236 255
222 236 255
222 236 255
222 236 255
222 236 255
222 236 255
222 236 255
222 236 255
222 236 255
222 236 255
222 236 255
222 236 255
222 236 255
222 236 255
222 236 255
222 236 255
222 236 255
222 236 255
222 236 255
222 236 255
222 236 255
222 236 255
222 236 255
222 236 255
222 236 255
222 236 255
222 236 255
222 236 255
222 236 255
222 236 255
222 236 255
222 236 255
222 236 255
222 236 255
222 236 255
222 236 255
222 236 255
222 236 255
222 236 255
222 236 255
222 236 255
222 236 255
222 236 255
222 236 255
222 236 255
222 236 255
222 236 255
222 236 255
222 236 255
222 236 255
222 236 255
222 236 255
222 236 255
222 236 255
222 236 255
222 236 255
222 236 255
222 236 255
222 236 255
222 236 255
208 221 240
0 0 42
0 0 42
0 0 42
0 0 42
0 0 42
0 0 42
0 0 42
0 0 42
0 0 42
0 0 42
0 0 42
0 0 42
0 0 42
0 0 42
0 0 42
2 2 42
2 2 41
0 0 41
0 0 41
0 0 42
0 0 42
0 0 42
0 0 42
0 0 42
0 0 42
0 0 42
0 0 42
0 0 42
0 0 42
0 0 42
0 0 42
0 0 42
0 0 42
0 0 42
0 0 42
0 0 42
0 0 42
0 0 42
0 0 42
0 0 42
0 0 42
0 0 42
0 0 42
0 0 42
0 0 42
0 0 42
0 0 42
0 0 42
0 0 42
0 0 42
0 0 42
0 0 42
0 0 42
0 0 42
0 0 42
0 0 42
0 0 42
0 0 42
0 0 42
0 0 42
0 0 42
0 0 42
0 0 42
0 0 42
0 0 42
0 0 42
0 0 42
0 0 42
0 0 42
0 0 42
0 0 42
0 0 42
0 0 42
0 0 42
0 0 42
0 0 42
0 0 42
0 0 42
0 0 42
0 0 42
0 0 42
0 0 42
0 0 42
0 0 42
0 0 42
0 0 42
0 0 42
0 0 42
0 0 42
0 0 42
0 0 42
0 0 42
0 0 42
0 0 42
0 0 42
0 0 42
0 0 42
0 0 42
0 0 42
0 0 42
0 0 42
0 0 42
0 0 42
0 0 42
0 0 42
0 0 42
0 0 42
0 0 42
0 0 42
0 0 42
0 0 42
0 0 42
0 0 42
0 0 42
0 0 42
0 0 42
0 0 42
0 0 42
0 0 42
0 0 41
0 0 39
0 0 39
0 0 39
0 0 39
0 0 39
0 0 43
0 0 49
0 0 39
0 0 33
27 26 33
125 125 129
72 70 57
59 59 22
78 80 43
34 38 16
35 50 13
29 51 8
26 47 5
37 60 16
35 58 12
25 47 0
24 44 0
24 45 0
24 44 0
23 43 0
25 45 0
23 43 0
24 44 0
21 42 0
24 44 0
25 44 0
20 40 0
20 41 0
30 48 8
27 46 6
26 44 0
27 48 0
27 45 0
27 46 0
25 43 8
39 57 19
20 38 0
22 40 0
27 47 3
28 47 11
22 41 0
23 42 0
17 39 0
19 41 0
25 47 0
25 49 0
21 43 0
22 45 0
20 44 0
25 47 0
26 49 0
25 48 0
22 47 0
23 49 0
21 46 0
27 50 0
32 53 9
34 51 6
38 54 10
57 71 25
57 69 24
55 62 18
59 63 21
59 61 22
52 58 17
54 67 26
40 50 11
58 64 31
65 65 34
79 75 44
85 76 41
96 85 65
87 82 43
87 98 34
55 77 15
37 55 35
0 4 38
0 0 40
0 0 41
0 0 42
0 0 42
0 0 42
0 0 42
0 0 42
0 0 42
0 0 42
0 0 42
210 223 241
222 236 255
222 236 255
222 236 255
222 236 255
222 236 255
222 236 255
222 236 255
222 236 255
222 236 255
222 236 255
222 236 255
222 236 255
222 236 255
222 236 255
222 236 255
222 236 255
222 236 255
222 236 255
222 236 255
222 236 255
222 236 255
222 236 255
222 236 255
222 236 255
222 236 255
222 236 255
222 236 255
222 236 255
222 236 255
222 236 255
222 236 255
222 236 255
222 236 255
222 236 255
222 236 255
222 236 255
222 236 255
222 236 255
222 236 255
222 236 255
222 236 255
222 236 255
222 236 255
222 236 255
222 236 255
222 236 255
222 236 255
222 236 255
222 236 255
222 236 255
222 236 255
222 236 255
222 236 255
222 236 255
222 236 255
222 236 255
222 236 255
222 236 255
222 236 255
222 236 255
222 236 255
222 236 255
222 236 255
222 236 255
222 236 255
222 236 255
222 236 255
222 236 255
222 236 255
222 236 255
222 236 255
222 236 255
222 236 255
222 236 255
222 236 255
222 236 255
222 236 255
222 236 255
222 236 255
222 236 255
222 236 255
222 236 255
222 236 255
222 236 255
222 236 255
222 236 255
222 236 255
222 236 255
222 236 255
222 236 255
222 236 255
222 236 255
222 236 255
222 236 255
222 236 255
222 236 255
222 236 255
222 236 255
222 236 255
222 236 255
222 236 255
222 236 255
222 236 255
222 236 255
222 236 255
222 236 255
222 236 255
222 236 255
222 236 255
222 236 255
222 236 255
222 236 255
222 236 255
222 236 255
222 236 255
222 236 255
222 236 255
222 236 255
222 236 255
222 236 255
222 236 255
222 236 255
222 236 255
222 236 255
222 236 255
222 236 255
222 236 255
222 236 255
222 236 255
222 236 255
222 236 255
222 236 255
222 236 255
222 236 255
222 236 255
222 236 255
222 236 255
222 236 255
222 236 255
222 236 255
222 236 255
222 236 255
222 236 255
222 236 255
222 236 255
222 236 255
222 236 255
222 236 255
222 236 255
222 236 255
222 236 255
222 236 255
222 236 255
222 236 255
222 236 255
222 236 255
222 236 255
222 236 255
222 236 255
222 236 255
222 236 255
222 236 255
222 236 255
222 236 255
222 236 255
222 236 255
222 236 255
222 236 255
222 236 255
222 236 255
222 236 255
222 236 255
222 236 255
222 236 255
222 236 255
222 236 255
222 236 255
222 236 255
222 236 255
222 236 255
222 236 255
222 236 255
222 236 255
222 236 255
222 236 255
222 236 255
221 235 254
44 47 65
0 0 42
0 0 42
0 0 42
0 0 42
0 0 42
0 0 42
0 0 42
0 0 42
0 0 42
0 0 42
0 0 42
0 0 42
0 0 42
0 0 42
0 0 42
0 0 42
0 0 43
0 0 42
0 0 42
0 0 42
0 0 42
0 0 42
0 0 42
0 0 42
0 0 42
0 0 42
0 0 42
0 0 42
0 0 42
0 0 42
0 0 42
0 0 42
0 0 42
0 0 42
0 0 42
0 0 42
0 0 42
0 0 42
0 0 42
0 0 42
0 0 42
0 0 42
0 0 42
0 0 42
0 0 42
0 0 42
0 0 42
0 0 42
0 0 42
0 0 42
0 0 42
0 0 42
0 0 42
0 0 42
0 0 42
0 0 42
0 0 42
0 0 42
0 0 42
0 0 42
0 0 42
0 0 42
0 0 42
0 0 42
0 0 42
0 0 42
0 0 42
0 0 42
0 0 42
0 0 42
0 0 42
0 0 42
0 0 42
0 0 42
0 0 42
0 0 42
0 0 42
0 0 42
0 0 42
0 0 42
0 0 42
0 0 42
0 0 42
0 0 42
0 0 42
0 0 42
0 0 42
0 0 42
0 0 42
0 0 42
0 0 42
0 0 42
0 0 42
0 0 42
0 0 42
0 0 42
0 0 42
0 0 42
0 0 42
0 0 42
0 0 42
0 0 42
0 0 42
0 0 42
0 0 42
0 0 42
0 0 42
0 0 42
0 0 42
0 0 42
0 0 42
0 0 42
0 0 42
0 0 42
0 0 42
0 0 42
0 0 42
0 0 42
0 0 41
0 0 41
0 0 41
0 0 41
0 0 41
0 0 41
0 0 45
0 0 47
0 0 35
0 0 38
0 0 31
84 84 91
134 136 128
67 66 29
71 71 37
61 61 39
26 38 3
35 56 13
26 50 5
27 52 8
25 47 4
23 42 0
25 42 0
27 47 0
23 46 0
20 43 0
22 44 0
24 45 0
22 41 0
23 42 0
20 41 0
25 45 6
23 46 5
24 46 0
28 49 4
31 49 4
29 49 0
25 47 0
25 46 0
25 47 0
29 50 8
27 46 2
28 46 0
23 45 0
22 44 7
17 39 0
23 43 0
21 40 0
17 37 0
23 44 8
23 44 0
24 44 0
28 53 8
21 48 0
25 49 2
24 44 0
32 52 8
29 51 0
21 46 0
23 49 0
21 45 0
26 47 0
38 57 14
38 52 7
45 58 17
54 65 19
52 63 19
62 67 27
80 80 42
64 63 28
60 66 29
48 63 22
46 54 21
66 67 38
88 84 56
100 93 63
96 90 52
87 81 43
78 79 28
71 88 23
49 75 23
13 21 25
0 0 47
0 0 40
0 0 41
0 0 42
0 0 42
0 0 42
0 0 42
0 0 42
0 0 42
0 0 42
54 57 74
222 236 255
222 236 255
222 236 255
222 236 255
222 236 255
222 236 255
222 236 255
222 236 255
222 236 255
222 236 255
222 236 255
222 236 255
222 236 255
222 236 255
222 236 255
222 236 255
222 236 255
222 236 255
222 236 255
222 236 255
222 236 255
222 236 255
222 236 255
222 236 255
222 236 255
222 236 255
222 236 255
222 236 255
222 236 255
222 236 255
222 236 255
222 236 255
222 236 255
222 236 255
222 236 255
222 236 255
222 236 255
222 236 255
222 236 255
222 236 255
222 236 255
222 236 255
222 236 255
222 236 255
222 236 255
222 236 255
222 236 255
222 236 255
222 236 255
222 236 255
222 236 255
222 236 255
222 236 255
222 236 255
222 236 255
222 236 255
222 236 255
222 236 255
222 236 255
222 236 255
222 236 255
222 236 255
222 236 255
222 236 255
222 236 255
222 236 255
222 236 255
222 236 255
222 236 255
222 236 255
222 236 255
222 236 255
222 236 255
222 236 255
222 236 255
222 236 255
222 236 255
222 236 255
222 236 255
222 236 255
222 236 255
222 236 255
222 236 255
222 236 255
222 236 255
222 236 255
222 236 255
222 236 255
222 236 255
222 236 255
222 236 255
222 236 255
222 236 255
222 236 255
222 236 255
222 236 255
222 236 255
222 236 255
222 236 255
222 236 255
222 236 255
222 236 255
222 236 255
222 236 255
222 236 255
222 236 255
222 236 255
222 236 255
222 236 255
222 236 255
222 236 255
222 236 255
222 236 255
222 236 255
222 236 255
222 236 255
222 236 255
222 236 255
222 236 255
222 236 255
222 236 255
222 236 255
222 236 255
222 236 255
222 236 255
222 236 255
222 236 255
222 236 255
222 236 255
222 236 255
222 236 255
222 236 255
222 236 255
222 236 255
222 236 255
222 236 255
222 236 255
222 236 255
222 236 255
222 236 255
222 236 255
222 236 255
222 236 255
222 236 255
222 236 255
222 236 255
222 236 255
222 236 255
222 236 255
222 236 255
222 236 255
222 236 255
222 236 255
222 236 255
222 236 255
222 236 255
222 236 255
222 236 255
222 236 255
222 236 255
222 236 255
222 236 255
222 236 255
222 236 255
222 236 255
222 236 255
222 236 255
222 236 255
222 236 255
222 236 255
222 236 255
222 236 255
222 236 255
222 236 255
222 236 255
222 236 255
222 236 255
222 236 255
222 236 255
222 236 255
222 236 255
222 236 255
222 236 255
222 236 255
222 236 255
222 236 255
222 236 255
222 236 255
102 108 123
0 0 42
0 0 42
0 0 42
0 0 42
0 0 42
0 0 42
0 0 42
0 0 42
0 0 42
0 0 42
0 0 42
0 0 42
0 0 42
0 0 42
0 0 42
0 0 42
0 0 43
0 0 41
0 0 42
0 0 42
0 0 42
0 0 42
0 0 42
0 0 42
0 0 42
0 0 42
0 0 42
0 0 42
0 0 42
0 0 42
0 0 42
0 0 42
0 0 42
0 0 42
0 0 42
0 0 42
0 0 42
0 0 42
0 0 42
0 0 42
0 0 42
0 0 42
0 0 42
0 0 42
0 0 42
0 0 42
0 0 42
0 0 42
0 0 42
0 0 42
0 0 42
0 0 42
0 0 42
0 0 42
0 0 42
0 0 42
0 0 42
0 0 42
0 0 42
0 0 42
0 0 42
0 0 42
0 0 42
0 0 42
0 0 42
0 0 42
0 0 42
0 0 42
0 0 42
0 0 42
0 0 42
0 0 42
0 0 42
0 0 42
0 0 42
0 0 42
0 0 42
0 0 42
0 0 42
0 0 42
0 0 42
0 0 42
0 0 42
0 0 42
0 0 42
0 0 42
0 0 42
0 0 42
0 0 42
0 0 42
0 0 42
0 0 42
0 0 42
0 0 42
0 0 42
0 0 42
0 0 42
0 0 42
0 0 42
0 0 42
0 0 42
0 0 42
0 0 42
0 0 42
0 0 42
0 0 42
0 0 42
0 0 42
0 0 42
0 0 42
0 0 42
0 0 42
0 0 42
0 0 42
0 0 42
0 0 42
0 0 42
0 0 42
0 0 42
0 0 42
0 0 42
0 0 42
0 0 42
0 0 42
0 0 44
0 0 44
0 0 35
0 0 40
0 0 37
23 24 31
136 138 130
70 70 47
70 67 36
74 70 43
42 47 15
33 48 7
26 48 8
27 53 8
25 48 8
22 40 0
23 40 0
26 45 0
25 49 0
25 49 0
24 46 0
28 49 0
27 47 0
23 43 0
22 42 0
18 40 0
28 50 8
37 61 13
34 55 8
32 52 0
32 54 0
23 48 0
24 48 0
24 47 0
24 44 0
25 44 2
34 55 8
33 55 7
28 50 3
19 40 0
20 40 0
21 40 0
17 38 0
22 45 3
24 46 0
33 55 0
34 61 6
30 58 0
47 71 20
37 57 5
45 65 18
29 51 2
26 52 7
21 45 0
27 49 0
29 49 9
46 64 24
36 50 9
51 62 24
58 68 25
52 62 19
63 66 27
87 86 49
68 68 32
66 71 35
51 60 22
57 60 28
75 70 43
76 65 39
76 66 35
73 72 26
72 74 21
65 76 21
60 82 25
30 51 24
0 0 40
0 0 49
0 0 39
0 0 42
0 0 42
0 0 42
0 0 42
0 0 42
0 0 42
0 0 42
0 0 42
113 120 135
222 236 255
222 236 255
222 236 255
222 236 255
222 236 255
222 236 255
222 236 255
222 236 255
222 236 255
222 236 255
222 236 255
222 236 255
222 236 255
222 236 255
222 236 255
222 236 255
222 236 255
222 236 255
222 236 255
222 236 255
222 236 255
222 236 255
222 236 255
222 236 255
222 236 255
222 236 255
222 236 255
222 236 255
222 236 255
222 236 255
222 236 255
222 236 255
222 236 255
222 236 255
222 236 255
222 236 255
222 236 255
222 236 255
222 236 255
222 236 255
222 236 255
222 236 255
222 236 255
222 236 255
222 236 255
222 236 255
222 236 255
222 236 255
222 236 255
222 236 255
222 236 255
222 236 255
222 236 255
222 236 255
222 236 255
222 236 255
222 236 255
222 236 255
222 236 255
222 236 255
222 236 255
222 236 255
222 236 255
222 236 255
222 236 255
222 236 255
222 236 255
222 236 255
222 236 255
222 236 255
222 236 255
222 236 255
222 236 255
222 236 255
222 236 255
222 236 255
222 236 255
222 236 255
222 236 255
222 236 255
222 236 255
222 236 255
222 236 255
222 236 255
222 236 255
222 236 255
222 236 255
222 236 255
222 236 255
222 236 255
222 236 255
222 236 255
222 236 255
222 236 255
222 236 255
222 236 255
222 236 255
222 236 255
222 236 255
222 236 255
222 236 255
222 236 255
222 236 255
222 236 255
222 236 255
222 236 255
222 236 255
222 236 255
222 236 255
222 236 255
222 236 255
222 236 255
222 236 255
222 236 255
222 236 255
222 236 255
222 236 255
222 236 255
222 236 255
222 236 255
222 236 255
222 236 255
222 236 255
222 236 255
222 236 255
222 236 255
222 236 255
222 236 255
222 236 255
222 236 255
222 236 255
222 236 255
222 236 255
222 236 255
222 236 255
222 236 255
222 236 255
222 236 255
222 236 255
222 236 255
222 236 255
222 236 255
222 236 255
222 236 255
222 236 255
222 236 255
222 236 255
222 236 255
222 236 255
222 236 255
222 236 255
222 236 255
222 236 255
222 236 255
222 236 255
222 236 255
222 236 255
222 236 255
222 236 255
222 236 255
222 236 255
222 236 255
222 236 255
222 236 255
222 236 255
222 236 255
222 236 255
222 236 255
222 236 255
222 236 255
222 236 255
222 236 255
222 236 255
222 236 255
222 236 255
222 236 255
222 236 255
222 236 255
222 236 255
222 236 255
222 236 255
222 236 255
222 236 255
222 236 255
222 236 255
222 236 255
222 236 255
222 236 255
144 153 169
0 0 42
0 0 42
0 0 42
0 0 42
0 0 42
0 0 42
0 0 42
0 0 42
0 0 42
0 0 42
0 0 42
0 0 42
0 0 42
0 0 42
0 0 42
0 0 42
0 0 41
0 0 41
0 0 42
0 0 42
0 0 42
0 0 42
0 0 42
0 0 42
0 0 42
0 0 42
0 0 42
0 0 42
0 0 42
0 0 42
0 0 42
0 0 42
0 0 42
0 0 42
0 0 42
0 0 42
0 0 42
0 0 42
0 0 42
0 0 42
0 0 42
0 0 42
0 0 42
0 0 42
0 0 42
0 0 42
0 0 42
0 0 42
0 0 42
0 0 42
0 0 42
0 0 42
0 0 42
0 0 42
0 0 42
0 0 42
0 0 42
0 0 42
0 0 42
0 0 42
0 0 42
0 0 42
0 0 42
0 0 42
0 0 42
0 0 42
0 0 42
0 0 42
0 0 42
0 0 42
0 0 42
0 0 42
0 0 42
0 0 42
0 0 42
0 0 42
0 0 42
0 0 42
0 0 42
0 0 42
0 0 42
0 0 42
0 0 42
0 0 42
0 0 42
0 0 42
0 0 42
0 0 42
0 0 42
0 0 42
0 0 42
0 0 42
0 0 42
0 0 42
0 0 42
0 0 42
0 0 42
0 0 42
0 0 42
0 0 42
0 0 42
0 0 42
0 0 42
0 0 42
0 0 42
0 0 42
0 0 42
0 0 42
0 0 42
0 0 42
0 0 42
0 0 42
0 0 42
0 0 42
0 0 42
0 0 42
0 0 42
0 0 42
0 0 42
0 0 42
0 0 42
0 0 42
0 0 42
0 0 42
0 0 42
0 0 42
0 0 40
0 0 36
0 0 35
14 13 30
105 107 107
95 94 83
72 67 34
78 71 43
70 72 39
51 57 25
32 46 9
23 43 2
20 42 0
25 44 0
22 40 0
22 41 0
23 45 0
24 48 0
24 46 0
24 47 0
24 45 0
25 45 0
27 48 0
23 46 0
29 52 0
41 65 16
44 67 19
28 49 0
25 48 0
17 42 0
22 47 0
23 47 0
28 51 8
38 59 16
40 62 15
43 65 15
36 57 13
20 41 0
24 45 6
21 40 3
24 45 7
25 47 5
28 51 0
32 56 0
26 54 3
27 54 3
46 69 16
52 74 22
52 74 26
29 53 3
27 51 10
30 53 15
42 64 21
36 54 10
35 49 10
46 61 21
47 57 19
60 67 25
53 61 20
66 68 32
78 75 40
70 68 32
52 55 16
50 53 15
70 67 38
79 70 45
81 69 42
77 68 34
69 72 24
65 73 26
66 81 30
47 67 30
7 13 34
0 0 49
0 0 44
0 0 39
0 0 42
0 0 42
0 0 42
0 0 42
0 0 42
0 0 42
0 0 42
0 0 42
133 142 157
222 236 255
222 236 255
222 236 255
222 236 255
222 236 255
222 236 255
222 236 255
222 236 255
222 236 255
222 236 255
222 236 255
222 236 255
222 236 255
222 236 255
222 236 255
222 236 255
222 236 255
222 236 255
222 236 255
222 236 255
222 236 255
222 236 255
222 236 255
222 236 255
222 236 255
222 236 255
222 236 255
222 236 255
222 236 255
222 236 255
222 236 255
222 236 255
222 236 255
222 236 255
222 236 255
222 236 255
222 236 255
222 236 255
222 236 255
222 236 255
222 236 255
222 236 255
222 236 255
222 236 255
222 236 255
222 236 255
222 236 255
222 236 255
222 236 255
222 236 255
222 236 255
222 236 255
222 236 255
222 236 255
222 236 255
222 236 255
222 236 255
222 236 255
222 236 255
222 236 255
222 236 255
222 236 255
222 236 255
222 236 255
222 236 255
222 236 255
222 236 255
222 236 255
222 236 255
222 236 255
222 236 255
222 236 255
222 236 255
222 236 255
222 236 255
222 236 255
222 236 255
222 236 255
222 236 255
222 236 255
222 236 255
222 236 255
222 236 255
222 236 255
222 236 255
222 236 255
222 236 255
222 236 255
222 236 255
222 236 255
222 236 255
222 236 255
222 236 255
222 236 255
222 236 255
222 236 255
222 236 255
222 236 255
222 236 255
222 236 255
222 236 255
222 236 255
222 236 255
222 236 255
222 236 255
222 236 255
222 236 255
222 236 255
222 236 255
222 236 255
222 236 255
222 236 255
222 236 255
222 236 255
222 236 255
222 236 255
222 236 255
222 236 255
222 236 255
222 236 255
222 236 255
222 236 255
222 236 255
222 236 255
222 236 255
222 236 255
222 236 255
222 236 255
222 236 255
222 236 255
222 236 255
222 236 255
222 236 255
222 236 255
222 236 255
222 236 255
222 236 255
222 236 255
222 236 255
222 236 255
222 236 255
222 236 255
222 236 255
222 236 255
222 236 255
222 236 255
222 236 255
222 236 255
222 236 255
222 236 255
222 236 255
222 236 255
222 236 255
223 236 255
223 236 255
222 236 255
223 236 255
222 236 255
223 236 255
223 236 255
223 236 255
223 236 255
223 236 255
223 236 255
222 236 255
223 236 255
223 236 255
223 236 255
223 236 255
223 236 255
223 236 255
223 236 255
223 236 255
223 236 255
223 236 255
223 236 255
223 236 255
223 236 255
223 236 255
223 236 255
223 236 255
223 236 255
223 236 255
223 236 255
223 236 255
223 236 255
223 236 255
223 236 255
177 187 204
0 0 42
0 0 42
0 0 42
0 0 42
0 0 42
0 0 42
0 0 42
0 0 42
0 0 42
0 0 42
0 0 42
0 0 42
0 0 42
0 0 42
0 0 42
0 0 42
0 0 42
0 0 41
0 0 42
0 0 42
0 0 42
0 0 42
0 0 42
0 0 42
0 0 42
0 0 42
0 0 42
0 0 42
0 0 42
0 0 42
0 0 42
0 0 42
0 0 42
0 0 42
0 0 42
0 0 42
0 0 42
0 0 42
0 0 42
0 0 42
0 0 42
0 0 42
0 0 42
0 0 42
0 0 42
0 0 42
0 0 42
0 0 42
0 0 42
0 0 42
0 0 42
0 0 42
0 0 42
0 0 42
0 0 42
0 0 42
0 0 42
0 0 42
0 0 42
0 0 42
0 0 42
0 0 42
0 0 42
0 0 42
0 0 42
0 0 42
0 0 42
0 0 42
0 0 42
0 0 42
0 0 42
0 0 42
0 0 42
0 0 42
0 0 42
0 0 42
0 0 42
0 0 42
0 0 42
0 0 42
0 0 42
0 0 42
0 0 42
0 0 42
0 0 42
0 0 42
0 0 42
0 0 42
0 0 42
0 0 42
0 0 42
0 0 42
0 0 42
0 0 42
0 0 42
0 0 42
0 0 42
0 0 42
0 0 42
0 0 42
0 0 42
0 0 42
0 0 42
0 0 42
0 0 42
0 0 42
0 0 42
0 0 42
0 0 42
0 0 42
0 0 42
0 0 42
0 0 42
0 0 42
0 0 42
0 0 42
0 0 42
0 0 42
0 0 42
0 0 42
0 0 42
0 0 42
0 0 42
0 0 42
0 0 41
0 0 42
0 0 43
0 0 34
0 0 33
6 0 36
48 48 55
129 128 125
70 64 36
79 70 38
79 72 41
55 53 23
33 40 3
27 43 3
20 41 0
24 45 0
24 45 0
25 43 0
25 45 0
27 50 0
27 49 0
24 47 0
24 46 0
26 48 0
28 49 0
28 50 5
32 55 0
33 57 9
26 48 7
24 47 0
22 45 0
22 46 5
31 57 14
22 46 0
19 43 3
28 50 2
34 55 10
50 72 23
51 72 22
31 51 2
18 39 0
19 40 0
20 43 0
23 47 6
22 45 0
29 54 0
22 49 3
25 50 1
40 61 10
55 75 27
39 61 14
24 49 3
17 41 0
35 57 17
42 60 18
48 64 22
45 58 19
37 49 12
50 57 17
59 65 24
54 61 21
71 72 37
93 90 55
61 58 23
49 51 14
54 56 22
80 75 49
77 68 44
92 83 54
74 69 33
77 79 41
69 78 36
56 72 22
25 35 34
0 0 48
0 0 46
0 0 40
0 0 42
0 0 43
0 0 42
0 0 42
0 0 42
0 0 42
0 0 42
0 0 42
0 0 42
172 183 200
223 236 255
223 236 255
223 236 255
223 236 255
223 236 255
223 236 255
223 236 255
223 236 255
223 236 255
223 236 255
223 236 255
223 236 255
223 236 255
223 236 255
223 236 255
223 236 255
223 236 255
223 236 255
223 236 255
223 236 255
223 236 255
223 236 255
223 236 255
223 236 255
223 236 255
223 236 255
223 236 255
223 236 255
223 236 255
223 236 255
223 236 255
223 236 255
222 236 255
222 236 255
222 236 255
222 236 255
222 236 255
222 236 255
222 236 255
222 236 255
222 236 255
222 236 255
222 236 255
222 236 255
222 236 255
222 236 255
222 236 255
222 236 255
222 236 255
222 236 255
222 236 255
222 236 255
222 236 255
222 236 255
222 236 255
222 236 255
222 236 255
222 236 255
222 236 255
222 236 255
222 236 255
222 236 255
222 236 255
222 236 255
222 236 255
222 236 255
222 236 255
222 236 255
222 236 255
222 236 255
222 236 255
222 236 255
222 236 255
222 236 255
222 236 255
222 236 255
222 236 255
222 236 255
222 236 255
222 236 255
222 236 255
222 236 255
222 236 255
222 236 255
222 236 255
222 236 255
222 236 255
222 236 255
222 236 255
222 236 255
222 236 255
222 236 255
222 236 255
222 236 255
223 236 255
223 236 255
223 236 255
223 236 255
223 236 255
223 236 255
223 236 255
223 236 255
223 236 255
223 236 255
223 236 255
223 236 255
223 236 255
223 236 255
223 236 255
223 236 255
223 236 255
223 236 255
223 236 255
223 236 255
223 236 255
223 236 255
223 236 255
223 236 255
223 236 255
223 236 255
223 236 255
223 236 255
223 236 255
223 236 255
223 236 255
223 236 255
223 236 255
223 236 255
223 236 255
223 236 255
223 236 255
223 236 255
223 236 255
223 236 255
223 236 255
223 236 255
223 236 255
223 236 255
223 236 255
223 236 255
223 236 255
223 236 255
223 236 255
223 236 255
223 236 255
223 236 255
223 236 255
223 236 255
223 236 255
223 236 255
223 236 255
223 236 255
223 236 255
223 236 255
223 236 255
223 236 255
223 236 255
223 236 255
223 236 255
223 236 255
223 236 255
223 236 255
223 236 255
223 236 255
223 236 255
223 236 255
223 236 255
223 236 255
223 236 255
223 236 255
223 236 255
223 236 255
223 236 255
223 236 255
223 236 255
223 236 255
223 236 255
223 236 255
223 236 255
223 236 255
223 236 255
223 236 255
223 236 255
223 236 255
223 236 255
223 236 255
223 236 255
223 236 255
197 209 226
0 0 42
0 0 42
0 0 42
0 0 42
0 0 42
0 0 42
0 0 42
0 0 42
0 0 42
0 0 42
0 0 42
0 0 42
0 0 42
0 0 42
0 0 42
0 0 42
0 0 42
0 0 42
0 0 42
0 0 42
0 0 42
0 0 42
0 0 42
0 0 42
0 0 42
0 0 42
0 0 42
0 0 42
0 0 42
0 0 42
0 0 42
0 0 42
0 0 42
0 0 42
0 0 42
0 0 42
0 0 42
0 0 42
0 0 42
0 0 42
0 0 42
0 0 42
0 0 42
0 0 42
0 0 42
0 0 42
0 0 42
0 0 42
0 0 42
0 0 42
0 0 42
0 0 42
0 0 42
0 0 42
0 0 42
0 0 42
0 0 42
0 0 42
0 0 42
0 0 42
0 0 42
0 0 42
0 0 42
0 0 42
0 0 42
0 0 42
0 0 42
0 0 42
0 0 42
0 0 42
0 0 42
0 0 42
0 0 42
0 0 42
0 0 42
0 0 42
0 0 42
0 0 42
0 0 42
0 0 42
0 0 42
0 0 42
0 0 42
0 0 42
0 0 42
0 0 42
0 0 42
0 0 42
0 0 42
0 0 42
0 0 42
0 0 42
0 0 42
0 0 42
0 0 42
0 0 42
0 0 42
0 0 42
0 0 42
0 0 42
0 0 42
0 0 42
0 0 42
0 0 42
0 0 42
0 0 42
0 0 42
0 0 42
0 0 42
0 0 42
0 0 42
0 0 42
0 0 42
0 0 42
0 0 42
0 0 42
0 0 42
0 0 42
0 0 42
0 0 42
0 0 42
0 0 42
0 0 42
0 0 42
0 0 42
0 0 39
0 0 40
0 0 38
0 0 40
0 0 47
0 0 32
115 112 117
102 98 87
77 66 33
82 69 38
59 52 24
37 41 11
39 51 15
23 43 0
18 42 0
22 45 0
23 44 0
28 46 0
29 50 0
26 46 0
25 44 0
24 47 0
23 45 0
29 51 0
36 58 11
31 50 0
24 45 0
21 43 0
25 49 0
31 55 11
26 48 7
25 48 6
22 44 0
19 42 0
24 46 0
29 49 2
45 65 12
51 73 18
36 56 10
29 48 5
18 38 0
19 41 0
32 54 14
39 62 17
39 63 16
43 68 18
33 55 6
32 50 0
36 52 2
34 53 10
29 52 8
20 41 0
31 51 7
43 60 19
43 56 17
50 60 22
44 55 17
58 63 26
60 66 24
57 65 24
65 66 30
83 78 45
83 80 48
54 58 21
62 64 31
64 59 32
66 58 31
79 76 46
64 64 24
73 75 38
61 73 20
40 52 19
4 5 42
0 0 43
0 0 40
0 0 39
0 0 43
0 0 42
0 0 42
0 0 42
0 0 42
0 0 42
0 0 42
0 0 42
0 0 42
216 229 248
223 236 255
223 236 255
223 236 255
223 236 255
223 236 255
223 236 255
223 236 255
223 236 255
223 236 255
223 236 255
223 236 255
223 236 255
223 236 255
223 236 255
223 236 255
223 236 255
223 236 255
223 236 255
223 236 255
223 236 255
223 236 255
223 236 255
223 236 255
223 236 255
223 236 255
223 236 255
223 236 255
223 236 255
223 236 255
223 236 255
223 236 255
223 236 255
223 236 255
223 236 255
223 236 255
223 236 255
223 236 255
223 236 255
223 236 255
223 236 255
223 236 255
223 236 255
223 236 255
223 236 255
223 236 255
223 236 255
223 236 255
223 236 255
223 236 255
223 236 255
223 236 255
223 236 255
223 236 255
223 236 255
223 236 255
223 236 255
223 236 255
223 236 255
223 236 255
223 236 255
223 236 255
223 236 255
223 236 255
223 236 255
223 236 255
223 236 255
223 236 255
223 236 255
223 236 255
223 236 255
223 236 255
223 236 255
223 236 255
223 236 255
223 236 255
223 236 255
223 236 255
223 236 255
223 236 255
223 236 255
223 236 255
223 236 255
223 236 255
223 236 255
223 236 255
223 236 255
223 236 255
223 236 255
223 236 255
223 236 255
223 236 255
223 236 255
223 236 255
223 236 255
223 236 255
223 236 255
223 236 255
223 236 255
223 236 255
223 236 255
223 236 255
223 236 255
223 236 255
223 236 255
223 236 255
223 236 255
223 236 255
223 236 255
223 236 255
223 236 255
223 236 255
223 236 255
223 236 255
223 236 255
223 236 255
223 236 255
223 236 255
223 236 255
223 236 255
223 236 255
223 236 255
223 236 255
223 236 255
223 236 255
223 236 255
223 236 255
223 236 255
223 236 255
223 236 255
223 236 255
223 236 255
223 236 255
223 236 255
223 236 255
223 236 255
223 236 255
223 236 255
223 236 255
223 236 255
223 236 255
223 236 255
223 236 255
223 236 255
223 236 255
223 236 255
223 236 255
223 236 255
223 236 255
223 236 255
223 236 255
223 236 255
223 236 255
223 236 255
223 236 255
223 236 255
223 236 255
223 236 255
223 236 255
223 236 255
223 236 255
223 236 255
223 236 255
223 236 255
223 236 255
223 236 255
223 236 255
223 236 255
223 236 255
223 236 255
223 236 255
223 236 255
223 236 255
223 236 255
223 236 255
223 236 255
223 236 255
223 236 255
223 236 255
223 236 255
223 236 255
223 236 255
223 236 255
223 236 255
223 236 255
223 236 255
223 236 255
223 236 255
223 236 255
223 236 255
59 62 79
0 0 42
0 0 42
0 0 42
0 0 42
0 0 42
0 0 42
0 0 42
0 0 42
0 0 42
0 0 42
0 0 42
0 0 42
0 0 42
0 0 42
0 0 42
0 0 42
0 0 42
0 0 42
0 0 42
0 0 42
0 0 42
0 0 42
0 0 42
0 0 42
0 0 42
0 0 42
0 0 42
0 0 42
0 0 42
0 0 42
0 0 42
0 0 42
0 0 42
0 0 42
0 0 42
0 0 42
0 0 42
0 0 42
0 0 42
0 0 42
0 0 42
0 0 42
0 0 42
0 0 42
0 0 42
0 0 42
0 0 42
0 0 42
0 0 42
0 0 42
0 0 42
0 0 42
0 0 42
0 0 42
0 0 42
0 0 42
0 0 42
0 0 42
0 0 42
0 0 42
0 0 42
0 0 42
0 0 42
0 0 42
0 0 42
0 0 42
0 0 42
0 0 42
0 0 42
0 0 42
0 0 42
0 0 42
0 0 42
0 0 42
0 0 42
0 0 42
0 0 42
0 0 42
0 0 42
0 0 42
0 0 42
0 0 42
0 0 42
0 0 42
0 0 42
0 0 42
0 0 42
0 0 42
0 0 42
0 0 42
0 0 42
0 0 42
0 0 42
0 0 42
0 0 42
0 0 42
0 0 42
0 0 42
0 0 42
0 0 42
0 0 42
0 0 42
0 0 42
0 0 42
0 0 42
0 0 42
0 0 42
0 0 42
0 0 42
0 0 42
0 0 42
0 0 42
0 0 42
0 0 42
0 0 42
0 0 42
0 0 42
0 0 42
0 0 42
0 0 42
0 0 42
0 0 42
0 0 42
0 0 43
0 0 41
0 0 37
0 0 38
0 0 45
0 0 46
0 0 40
86 84 94
144 140 143
78 71 46
89 78 50
86 79 51
45 47 19
44 54 16
28 48 8
23 47 8
21 43 6
23 45 0
29 46 9
23 42 0
26 45 0
25 45 0
21 42 0
19 43 0
24 47 0
25 44 0
27 45 0
28 46 0
26 48 0
23 46 0
26 48 0
25 45 0
24 44 0
20 41 0
23 44 0
23 45 0
31 52 2
46 67 15
47 69 15
46 67 16
37 57 12
20 40 4
19 39 2
32 54 12
36 56 12
34 56 13
30 53 5
27 45 4
48 62 22
47 60 26
27 45 7
17 40 0
23 44 0
29 47 6
38 50 12
50 60 21
49 58 19
47 55 19
64 68 30
61 68 29
56 64 24
61 62 27
89 86 56
74 73 40
56 61 26
65 67 37
70 65 38
65 60 31
57 57 25
57 59 20
68 74 24
53 68 12
22 29 29
0 0 41
0 0 39
0 0 38
0 0 41
0 0 41
0 0 42
0 0 42
0 0 42
0 0 42
0 0 42
0 0 42
0 0 42
70 74 90
223 236 255
223 236 255
223 236 255
223 236 255
223 236 255
223 236 255
223 236 255
223 236 255
223 236 255
223 236 255
223 236 255
223 236 255
223 236 255
223 236 255
223 236 255
223 236 255
223 236 255
223 236 255
223 236 255
223 236 255
223 236 255
223 236 255
223 236 255
223 236 255
223 236 255
223 236 255
223 236 255
223 236 255
223 236 255
223 236 255
223 236 255
223 236 255
223 236 255
223 236 255
223 236 255
223 236 255
223 236 255
223 236 255
223 236 255
223 236 255
223 236 255
223 236 255
223 236 255
223 236 255
223 236 255
223 236 255
223 236 255
223 236 255
223 236 255
223 236 255
223 236 255
223 236 255
223 236 255
223 236 255
223 236 255
223 236 255
223 236 255
223 236 255
223 236 255
223 236 255
223 236 255
223 236 255
223 236 255
223 236 255
223 236 255
223 236 255
223 236 255
223 236 255
223 236 255
223 236 255
223 236 255
223 236 255
223 236 255
223 236 255
223 236 255
223 236 255
223 236 255
223 236 255
223 236 255
223 236 255
223 236 255
223 236 255
223 236 255
223 236 255
223 236 255
223 236 255
223 236 255
223 236 255
223 236 255
223 236 255
223 236 255
223 236 255
223 236 255
223 236 255
223 236 255
223 236 255
223 236 255
223 236 255
223 236 255
223 236 255
223 236 255
223 236 255
223 236 255
223 236 255
223 236 255
223 236 255
223 236 255
223 236 255
223 236 255
223 236 255
223 236 255
223 236 255
223 236 255
223 236 255
223 236 255
223 236 255
223 236 255
223 236 255
223 236 255
223 236 255
223 236 255
223 236 255
223 236 255
223 236 255
223 236 255
223 236 255
223 236 255
223 236 255
223 236 255
223 236 255
223 236 255
223 236 255
223 236 255
223 236 255
223 236 255
223 236 255
223 236 255
223 236 255
223 236 255
223 236 255
223 236 255
223 236 255
223 236 255
223 236 255
223 236 255
223 236 255
223 236 255
223 236 255
223 236 255
223 236 255
223 236 255
223 236 255
223 236 255
223 236 255
223 236 255
223 236 255
223 236 255
223 236 255
223 236 255
223 236 255
223 236 255
223 236 255
223 236 255
223 236 255
223 236 255
223 236 255
223 236 255
223 236 255
223 236 255
223 236 255
223 236 255
223 236 255
223 236 255
223 236 255
223 236 255
223 236 255
223 236 255
223 236 255
223 236 255
223 236 255
223 236 255
223 236 255
223 236 255
223 236 255
223 236 255
223 236 255
223 236 255
223 236 255
223 236 255
223 236 255
113 120 135
0 0 42
0 0 42
0 0 42
0 0 42
0 0 42
0 0 42
0 0 42
0 0 42
0 0 42
0 0 42
0 0 42
0 0 42
0 0 42
0 0 42
0 0 42
0 0 42
0 0 42
0 0 42
0 0 42
0 0 42
0 0 42
0 0 42
0 0 42
0 0 42
0 0 42
0 0 42
0 0 42
0 0 42
0 0 42
0 0 42
0 0 42
0 0 42
0 0 42
0 0 42
0 0 42
0 0 42
0 0 42
0 0 42
0 0 42
0 0 42
0 0 42
0 0 42
0 0 42
0 0 42
0 0 42
0 0 42
0 0 42
0 0 42
0 0 42
0 0 42
0 0 42
0 0 42
0 0 42
0 0 42
0 0 42
0 0 42
0 0 42
0 0 42
0 0 42
0 0 42
0 0 42
0 0 42
0 0 42
0 0 42
0 0 42
0 0 42
0 0 42
0 0 42
0 0 42
0 0 42
0 0 42
0 0 42
0 0 42
0 0 42
0 0 42
0 0 42
0 0 42
0 0 42
0 0 42
0 0 42
0 0 42
0 0 42
0 0 42
0 0 42
0 0 42
0 0 42
0 0 42
0 0 42
0 0 42
0 0 42
0 0 42
0 0 42
0 0 42
0 0 42
0 0 42
0 0 42
0 0 42
0 0 42
0 0 42
0 0 42
0 0 42
0 0 42
0 0 42
0 0 42
0 0 42
0 0 42
0 0 42
0 0 42
0 0 42
0 0 42
0 0 42
0 0 42
0 0 42
0 0 42
0 0 42
0 0 42
0 0 42
0 0 42
0 0 42
0 0 42
0 0 42
0 0 42
0 0 42
0 0 44
0 0 39
0 0 36
0 0 41
0 0 48
0 0 45
3 0 41
8 0 34
116 113 121
108 105 96
85 76 50
93 88 60
80 79 49
41 45 12
21 38 0
26 46 5
24 46 8
21 43 1
24 42 8
21 37 0
25 42 0
24 44 0
21 44 0
19 41 0
24 46 0
25 44 0
27 44 0
24 41 0
23 42 3
34 52 9
25 42 0
39 56 9
33 50 2
24 41 0
29 47 0
32 50 0
29 48 8
34 56 8
47 69 19
36 55 6
26 44 0
29 48 5
28 47 5
24 43 0
31 49 6
26 44 2
27 45 2
44 57 20
61 71 35
43 54 22
26 43 0
22 42 0
30 49 6
33 48 9
46 54 18
48 56 20
43 52 11
49 59 23
65 70 31
56 65 25
55 63 24
63 65 29
90 89 57
67 67 33
58 62 29
68 66 38
82 74 48
80 76 48
55 56 18
60 65 22
57 69 11
40 52 32
3 3 43
0 0 38
0 0 40
0 0 42
0 0 42
0 0 39
0 0 42
0 0 42
0 0 42
0 0 42
0 0 42
0 0 42
0 0 42
126 133 148
223 236 255
223 236 255
223 236 255
223 236 255
223 236 255
223 236 255
223 236 255
223 236 255
223 236 255
223 236 255
223 236 255
223 236 255
223 236 255
223 236 255
223 236 255
223 236 255
223 236 255
223 236 255
223 236 255
223 236 255
223 236 255
223 236 255
223 236 255
223 236 255
223 236 255
223 236 255
223 236 255
223 236 255
223 236 255
223 236 255
223 236 255
223 236 255
223 236 255
223 236 255
223 236 255
223 236 255
223 236 255
223 236 255
223 236 255
223 236 255
223 236 255
223 236 255
223 236 255
223 236 255
223 236 255
223 236 255
223 236 255
223 236 255
223 236 255
223 236 255
223 236 255
223 236 255
223 236 255
223 236 255
223 236 255
223 236 255
223 236 255
223 236 255
223 236 255
223 236 255
223 236 255
223 236 255
223 236 255
223 236 255
223 236 255
223 236 255
223 236 255
223 236 255
223 236 255
223 236 255
223 236 255
223 236 255
223 236 255
223 236 255
223 236 255
223 236 255
223 236 255
223 236 255
223 236 255
223 236 255
223 236 255
223 236 255
223 236 255
223 236 255
223 236 255
223 236 255
223 236 255
223 236 255
223 236 255
223 236 255
223 236 255
223 236 255
223 236 255
223 236 255
223 236 255
223 236 255
223 236 255
223 236 255
223 236 255
223 236 255
223 236 255
223 236 255
223 236 255
223 236 255
223 236 255
223 236 255
223 236 255
223 236 255
223 236 255
223 236 255
223 236 255
223 236 255
223 236 255
223 236 255
223 236 255
223 236 255
223 236 255
223 236 255
223 236 255
223 236 255
223 236 255
223 236 255
223 236 255
223 236 255
223 236 255
223 236 255
223 236 255
223 236 255
223 236 255
223 236 255
223 236 255
223 236 255
223 236 255
223 236 255
223 236 255
223 236 255
223 236 255
223 236 255
223 236 255
223 236 255
223 236 255
223 236 255
223 236 255
223 236 255
223 236 255
223 236 255
223 236 255
223 236 255
223 236 255
223 236 255
223 236 255
223 236 255
223 236 255
223 236 255
223 236 255
223 236 255
223 236 255
223 236 255
223 236 255
223 236 255
223 236 255
223 236 255
223 236 255
223 236 255
223 236 255
223 236 255
223 236 255
223 236 255
223 236 255
223 236 255
223 236 255
223 236 255
223 236 255
223 236 255
223 236 255
223 236 255
223 236 255
223 236 255
223 236 255
223 236 255
223 236 255
223 236 255
223 236 255
223 236 255
223 236 255
223 236 255
223 236 255
223 236 255
223 236 255
223 236 255
172 183 200
0 0 42
0 0 42
0 0 42
0 0 42
0 0 42
0 0 42
0 0 42
0 0 42
0 0 42
0 0 42
0 0 42
0 0 42
0 0 42
0 0 42
0 0 42
0 0 42
0 0 42
0 0 42
0 0 42
0 0 42
0 0 42
0 0 42
0 0 42
0 0 42
0 0 42
0 0 42
0 0 42
0 0 42
0 0 42
0 0 42
0 0 42
0 0 42
0 0 42
0 0 42
0 0 42
0 0 42
0 0 42
0 0 42
0 0 42
0 0 42
0 0 42
0 0 42
0 0 42
0 0 42
0 0 42
0 0 42
0 0 42
0 0 42
0 0 42
0 0 42
0 0 42
0 0 42
0 0 42
0 0 42
0 0 42
0 0 42
0 0 42
0 0 42
0 0 42
0 0 42
0 0 42
0 0 42
0 0 42
0 0 42
0 0 42
0 0 42
0 0 42
0 0 42
0 0 42
0 0 42
0 0 42
0 0 42
0 0 42
0 0 42
0 0 42
0 0 42
0 0 42
0 0 42
0 0 42
0 0 42
0 0 42
0 0 42
0 0 42
0 0 42
0 0 42
0 0 42
0 0 42
0 0 42
0 0 42
0 0 42
0 0 42
0 0 42
0 0 42
0 0 42
0 0 42
0 0 42
0 0 42
0 0 42
0 0 42
0 0 42
0 0 42
0 0 42
0 0 42
0 0 42
0 0 42
0 0 42
0 0 42
0 0 42
0 0 42
0 0 42
0 0 42
0 0 42
0 0 42
0 0 42
0 0 42
0 0 42
0 0 42
0 0 42
0 0 42
0 0 42
0 0 42
0 0 42
0 0 42
0 0 43
0 0 41
0 0 40
0 0 44
0 0 43
0 0 39
0 0 43
0 0 39
74 76 84
131 134 133
74 69 44
83 75 47
91 85 55
59 57 23
33 38 0
29 43 0
20 36 0
26 41 0
20 33 0
25 40 0
26 43 0
24 43 0
20 40 0
20 42 0
26 48 0
24 42 0
28 44 3
27 42 3
32 49 7
40 56 15
37 51 8
45 59 16
40 54 10
31 45 7
28 44 1
31 47 0
26 45 0
29 51 2
29 51 6
40 61 13
30 49 0
38 56 15
32 49 0
37 54 8
39 56 12
26 44 0
33 48 4
57 68 29
64 72 37
30 40 4
29 46 2
22 42 0
25 43 5
42 54 18
52 60 22
51 57 22
53 62 25
57 66 30
65 70 31
54 66 24
62 71 32
60 62 25
89 89 57
67 68 35
61 61 31
76 69 43
85 74 50
73 67 39
61 64 25
58 66 20
37 51 9
4 9 35
0 0 49
0 0 40
0 0 42
0 0 43
0 0 41
0 0 40
0 0 42
0 0 42
0 0 42
0 0 42
0 0 42
0 0 42
0 0 42
188 199 216
223 236 255
223 236 255
223 236 255
223 236 255
223 236 255
223 236 255
223 236 255
223 236 255
223 236 255
223 236 255
223 236 255
223 236 255
223 236 255
223 236 255
223 236 255
223 236 255
223 236 255
223 236 255
223 236 255
223 236 255
223 236 255
223 236 255
223 236 255
223 236 255
223 236 255
223 236 255
223 236 255
223 236 255
223 236 255
223 236 255
223 236 255
223 236 255
223 236 255
223 236 255
223 236 255
223 236 255
223 236 255
223 236 255
223 236 255
223 236 255
223 236 255
223 236 255
223 236 255
223 236 255
223 236 255
223 236 255
223 236 255
223 236 255
223 236 255
223 236 255
223 236 255
223 236 255
223 236 255
223 236 255
223 236 255
223 236 255
223 236 255
223 236 255
223 236 255
223 236 255
223 236 255
223 236 255
223 236 255
223 236 255
223 236 255
223 236 255
223 236 255
223 236 255
223 236 255
223 236 255
223 236 255
223 236 255
223 236 255
223 236 255
223 236 255
223 236 255
223 236 255
223 236 255
223 236 255
223 236 255
223 236 255
223 236 255
223 236 255
223 236 255
223 236 255
223 236 255
223 236 255
223 236 255
223 236 255
223 236 255
223 236 255
223 236 255
223 236 255
223 236 255
223 236 255
223 236 255
223 236 255
223 236 255
223 236 255
223 236 255
223 236 255
223 236 255
223 236 255
223 236 255
223 236 255
223 236 255
223 236 255
223 236 255
223 236 255
223 236 255
223 236 255
223 236 255
223 236 255
223 236 255
223 236 255
223 236 255
223 236 255
223 236 255
223 236 255
223 236 255
223 236 255
223 236 255
223 236 255
223 236 255
223 236 255
223 236 255
223 236 255
223 236 255
223 236 255
223 236 255
223 236 255
223 236 255
223 236 255
223 236 255
223 236 255
223 236 255
223 236 255
223 236 255
223 236 255
223 236 255
223 236 255
223 236 255
223 236 255
223 236 255
223 236 255
223 236 255
223 236 255
223 236 255
223 236 255
223 236 255
223 236 255
223 236 255
223 236 255
223 236 255
223 236 255
223 236 255
223 236 255
223 236 255
223 236 255
223 236 255
223 236 255
223 236 255
223 236 255
223 236 255
223 236 255
223 236 255
223 236 255
223 236 255
223 236 255
223 236 255
223 236 255
223 236 255
223 236 255
223 236 255
223 236 255
223 236 255
223 236 255
223 236 255
223 236 255
223 236 255
223 236 255
223 236 255
223 236 255
223 236 255
223 236 255
223 236 255
223 236 255
223 236 255
223 236 255
223 236 255
208 220 239
0 0 42
0 0 42
0 0 42
0 0 42
0 0 42
0 0 42
0 0 42
0 0 42
0 0 41
0 0 42
0 0 40
0 0 41
0 0 42
0 0 42
0 0 42
0 0 42
0 0 42
0 0 42
0 0 42
0 0 42
0 0 42
0 0 42
0 0 42
0 0 42
0 0 42
0 0 42
0 0 42
0 0 42
0 0 42
0 0 42
0 0 42
0 0 42
0 0 42
0 0 42
0 0 42
0 0 42
0 0 42
0 0 42
0 0 42
0 0 42
0 0 42
0 0 42
0 0 42
0 0 42
0 0 42
0 0 42
0 0 42
0 0 42
0 0 42
0 0 42
0 0 42
0 0 42
0 0 42
0 0 42
0 0 42
0 0 42
0 0 42
0 0 42
0 0 42
0 0 42
0 0 42
0 0 42
0 0 42
0 0 42
0 0 42
0 0 42
0 0 42
0 0 42
0 0 42
0 0 42
0 0 42
0 0 42
0 0 42
0 0 42
0 0 42
0 0 42
0 0 42
0 0 42
0 0 42
0 0 42
0 0 42
0 0 42
0 0 42
0 0 42
0 0 42
0 0 42
0 0 42
0 0 42
0 0 42
0 0 42
0 0 42
0 0 42
0 0 42
0 0 42
0 0 42
0 0 42
0 0 42
0 0 42
0 0 42
0 0 42
0 0 42
0 0 42
0 0 42
0 0 42
0 0 42
0 0 42
0 0 42
0 0 42
0 0 42
0 0 42
0 0 42
0 0 42
0 0 42
0 0 42
0 0 42
0 0 42
0 0 42
0 0 42
0 0 42
0 0 42
0 0 42
0 0 42
0 0 42
0 0 40
0 0 44
0 0 48
0 0 44
0 0 36
0 0 42
0 0 43
0 0 47
0 0 29
85 86 83
102 101 83
88 78 50
99 87 58
90 79 48
73 70 38
38 43 5
32 42 7
34 43 8
41 48 19
27 38 5
27 44 0
30 50 0
25 48 0
22 45 0
22 45 0
28 46 0
36 51 8
42 56 16
38 53 12
43 57 10
48 60 15
45 56 11
46 57 11
47 59 16
37 50 12
24 39 0
26 47 0
24 47 0
29 53 6
46 68 19
40 58 16
30 45 7
38 52 6
52 67 22
49 65 20
37 52 10
33 46 0
57 66 24
61 67 28
47 57 19
35 50 15
31 48 6
47 62 25
59 69 33
54 62 25
51 57 22
57 66 30
62 70 34
62 69 32
53 61 24
59 66 29
66 67 33
79 80 49
70 69 39
67 64 35
79 70 43
81 70 45
70 58 29
71 63 30
46 59 14
23 40 21
0 0 40
0 0 43
0 0 42
0 0 42
0 0 42
0 0 42
0 0 42
0 0 42
0 0 42
0 0 42
0 0 42
0 0 42
0 0 42
0 0 42
203 215 233
223 236 255
223 236 255
223 236 255
223 236 255
223 236 255
223 236 255
223 236 255
223 236 255
223 236 255
223 236 255
223 236 255
223 236 255
223 236 255
223 236 255
223 236 255
223 236 255
223 236 255
223 236 255
223 236 255
223 236 255
223 236 255
223 236 255
223 236 255
223 236 255
223 236 255
223 236 255
223 236 255
223 236 255
223 236 255
223 236 255
223 236 255
223 236 255
223 236 255
223 236 255
223 236 255
223 236 255
223 236 255
223 236 255
223 236 255
223 236 255
223 236 255
223 236 255
223 236 255
223 236 255
223 236 255
223 236 255
223 236 255
223 236 255
223 236 255
223 236 255
223 236 255
223 236 255
223 236 255
223 236 255
223 236 255
223 236 255
223 236 255
223 236 255
223 236 255
223 236 255
223 236 255
223 236 255
223 236 255
223 236 255
223 236 255
223 236 255
223 236 255
223 236 255
223 236 255
223 236 255
223 236 255
223 236 255
223 236 255
223 236 255
223 236 255
223 236 255
223 236 255
223 236 255
223 236 255
223 236 255
223 236 255
223 236 255
223 236 255
223 236 255
223 236 255
223 236 255
223 236 255
223 236 255
223 236 255
223 236 255
223 236 255
223 236 255
223 236 255
223 236 255
223 236 255
223 236 255
223 236 255
223 236 255
223 236 255
223 236 255
223 236 255
223 236 255
223 236 255
223 236 255
223 236 255
223 236 255
223 236 255
223 236 255
223 236 255
223 236 255
223 236 255
223 236 255
223 236 255
223 236 255
223 236 255
223 236 255
223 236 255
223 236 255
223 236 255
223 236 255
223 236 255
223 236 255
223 236 255
223 236 255
223 236 255
223 236 255
223 236 255
223 236 255
223 236 255
223 236 255
223 236 255
223 236 255
223 236 255
223 236 255
223 236 255
223 236 255
223 236 255
223 236 255
223 236 255
223 236 255
223 236 255
223 236 255
223 236 255
223 236 255
223 236 255
223 236 255
223 236 255
223 236 255
223 236 255
223 236 255
223 236 255
223 236 255
223 236 255
223 236 255
223 236 255
223 236 255
223 236 255
223 236 255
223 236 255
223 236 255
223 236 255
223 236 255
223 236 255
223 236 255
223 236 255
223 236 255
223 236 255
223 236 255
223 236 255
223 236 255
223 236 255
223 236 255
223 236 255
223 236 255
223 236 255
223 236 255
223 236 255
223 236 255
223 236 255
223 236 255
223 236 255
223 236 255
223 236 255
223 236 255
223 236 255
223 236 255
223 236 255
223 236 255
223 236 255
223 236 255
223 236 255
74 78 93
0 0 42
0 0 42
0 0 42
0 0 42
0 0 42
0 0 42
0 0 42
0 0 40
0 0 41
0 0 43
0 0 43
0 0 42
0 0 42
0 0 42
0 0 42
0 0 42
0 0 42
0 0 42
0 0 42
0 0 42
0 0 42
0 0 42
0 0 42
0 0 42
0 0 42
0 0 42
0 0 42
0 0 42
0 0 42
0 0 42
0 0 42
0 0 42
0 0 42
0 0 42
0 0 42
0 0 42
0 0 42
0 0 42
0 0 42
0 0 42
0 0 42
0 0 42
0 0 42
0 0 42
0 0 42
0 0 42
0 0 42
0 0 42
0 0 42
0 0 42
0 0 42
0 0 42
0 0 42
0 0 42
0 0 42
0 0 42
0 0 42
0 0 42
0 0 42
0 0 42
0 0 42
0 0 42
0 0 42
0 0 42
0 0 42
0 0 42
0 0 42
0 0 42
0 0 42
0 0 42
0 0 42
0 0 42
0 0 42
0 0 42
0 0 42
0 0 42
0 0 42
0 0 42
0 0 42
0 0 42
0 0 42
0 0 42
0 0 42
0 0 42
0 0 42
0 0 42
0 0 42
0 0 42
0 0 42
0 0 42
0 0 42
0 0 42
0 0 42
0 0 42
0 0 42
0 0 42
0 0 42
0 0 42
0 0 42
0 0 42
0 0 42
0 0 42
0 0 42
0 0 42
0 0 42
0 0 42
0 0 42
0 0 42
0 0 42
0 0 42
0 0 42
0 0 42
0 0 42
0 0 42
0 0 42
0 0 42
0 0 42
0 0 42
0 0 42
0 0 42
0 0 42
0 0 41
0 0 39
0 0 48
0 0 52
0 0 43
0 0 29
0 0 37
0 0 45
0 0 44
0 0 39
45 46 47
130 128 107
76 66 39
116 98 71
92 77 49
92 84 53
51 48 13
40 41 16
48 50 20
62 66 39
62 70 37
50 60 23
27 42 0
23 40 0
23 41 0
19 39 0
22 41 0
23 41 0
32 50 6
35 50 7
45 59 10
44 55 7
51 62 19
52 63 21
43 57 14
44 60 18
30 48 8
29 48 10
23 46 0
21 46 0
29 53 10
38 59 13
40 54 10
61 69 28
61 66 26
62 67 29
58 63 27
44 50 8
55 62 24
49 56 20
52 63 25
44 55 17
57 64 28
61 71 32
70 80 43
58 63 26
52 56 20
64 71 34
58 67 31
53 59 24
58 61 27
61 62 29
70 70 39
72 72 40
79 77 49
73 69 43
89 82 56
79 68 42
94 81 53
82 72 40
39 58 12
12 28 30
0 0 40
0 0 42
0 0 42
0 0 42
0 0 42
0 0 42
0 0 42
0 0 42
0 0 42
0 0 42
0 0 42
0 0 42
0 0 42
77 82 97
223 236 255
223 236 255
223 236 255
223 236 255
223 236 255
223 236 255
223 236 255
223 236 255
223 236 255
223 236 255
223 236 255
223 236 255
223 236 255
223 236 255
223 236 255
223 236 255
223 236 255
223 236 255
223 236 255
223 236 255
223 236 255
223 236 255
223 236 255
223 236 255
223 236 255
223 236 255
223 236 255
223 236 255
223 236 255
223 236 255
223 236 255
223 236 255
223 236 255
223 236 255
223 236 255
223 236 255
223 236 255
223 236 255
223 236 255
223 236 255
223 236 255
223 236 255
223 236 255
223 236 255
223 236 255
223 236 255
223 236 255
223 236 255
223 236 255
223 236 255
223 236 255
223 236 255
223 236 255
223 236 255
223 236 255
223 236 255
223 236 255
223 236 255
223 236 255
223 236 255
223 236 255
223 236 255
223 236 255
223 236 255
223 236 255
223 236 255
223 236 255
223 236 255
223 236 255
223 236 255
223 236 255
223 236 255
223 236 255
223 236 255
223 236 255
223 236 255
223 236 255
223 236 255
223 236 255
223 236 255
223 236 255
223 236 255
223 236 255
223 236 255
223 236 255
223 236 255
223 236 255
223 236 255
223 236 255
223 236 255
223 236 255
223 236 255
223 236 255
223 236 255
223 236 255
223 236 255
223 236 255
223 236 255
223 236 255
223 236 255
223 236 255
223 236 255
223 236 255
223 236 255
223 236 255
223 236 255
223 236 255
223 236 255
223 236 255
223 236 255
223 236 255
223 236 255
223 236 255
223 236 255
223 236 255
223 236 255
223 236 255
223 236 255
223 236 255
223 236 255
223 236 255
223 236 255
223 236 255
223 236 255
223 236 255
223 236 255
223 236 255
223 236 255
223 236 255
223 236 255
223 236 255
223 236 255
223 236 255
223 236 255
223 236 255
223 236 255
223 236 255
223 236 255
223 236 255
223 236 255
223 236 255
223 236 255
223 236 255
223 236 255
223 236 255
223 236 255
223 236 255
223 236 255
223 236 255
223 236 255
223 236 255
223 236 255
223 236 255
223 236 255
223 236 255
223 236 255
223 236 255
223 236 255
223 236 255
223 236 255
223 236 255
223 236 255
223 236 255
223 236 255
223 236 255
223 236 255
223 236 255
223 236 255
223 236 255
223 236 255
223 236 255
223 236 255
223 236 255
223 236 255
223 236 255
223 236 255
223 236 255
223 236 255
223 236 255
223 236 255
223 236 255
223 236 255
223 236 255
223 236 255
223 236 255
223 236 255
223 236 255
223 236 255
223 236 255
223 236 255
223 236 255
223 236 255
137 146 161
0 0 42
0 0 42
0 0 42
0 0 42
0 0 42
0 0 42
0 0 42
8 8 47
6 6 43
0 0 41
0 0 41
0 0 42
0 0 42
0 0 42
0 0 42
0 0 42
0 0 42
0 0 42
0 0 42
0 0 42
0 0 42
0 0 42
0 0 42
0 0 42
0 0 42
0 0 42
0 0 42
0 0 42
0 0 42
0 0 42
0 0 42
0 0 42
0 0 42
0 0 42
0 0 42
0 0 42
0 0 42
0 0 42
0 0 42
0 0 42
0 0 42
0 0 42
0 0 42
0 0 42
0 0 42
0 0 42
0 0 42
0 0 42
0 0 42
0 0 42
0 0 42
0 0 42
0 0 42
0 0 42
0 0 42
0 0 42
0 0 42
0 0 42
0 0 42
0 0 42
0 0 42
0 0 42
0 0 42
0 0 42
0 0 42
0 0 42
0 0 42
0 0 42
0 0 42
0 0 42
0 0 42
0 0 42
0 0 42
0 0 42
0 0 42
0 0 42
0 0 42
0 0 42
0 0 42
0 0 42
0 0 42
0 0 42
0 0 42
0 0 42
0 0 42
0 0 42
0 0 42
0 0 42
0 0 42
0 0 42
0 0 42
0 0 42
0 0 42
0 0 42
0 0 42
0 0 42
0 0 42
0 0 42
0 0 42
0 0 42
0 0 42
0 0 42
0 0 42
0 0 42
0 0 42
0 0 42
0 0 42
0 0 42
0 0 42
0 0 42
0 0 42
0 0 42
0 0 42
0 0 42
0 0 42
0 0 42
0 0 42
0 0 42
0 0 42
0 0 42
0 0 42
0 0 42
0 0 41
0 0 43
0 0 43
0 0 42
0 0 40
0 0 40
0 0 42
0 0 42
0 0 42
27 27 30
149 149 132
116 110 89
98 85 56
102 88 57
87 72 38
78 67 35
64 58 27
71 67 42
62 58 33
77 73 39
89 90 48
79 80 43
57 60 31
32 39 6
27 41 0
21 41 8
23 47 8
23 46 4
47 65 17
44 57 9
49 59 15
52 62 21
46 58 16
40 56 12
34 53 8
29 49 8
29 46 7
22 43 0
14 42 0
23 48 4
35 55 11
40 51 5
62 66 26
63 63 26
68 73 37
69 72 37
59 63 26
51 57 19
57 63 25
57 64 29
69 74 38
65 70 34
59 67 29
58 66 32
61 64 29
66 69 34
65 73 35
62 69 33
62 67 31
65 67 34
71 70 38
72 71 39
76 75 43
75 71 44
78 72 44
85 79 51
71 63 36
84 75 44
72 72 35
35 59 15
4 12 32
0 0 41
0 0 42
0 0 42
0 0 42
0 0 42
0 0 42
0 0 42
0 0 42
0 0 42
0 0 42
0 0 42
0 0 42
0 0 42
141 149 165
223 236 255
223 236 255
223 236 255
223 236 255
223 236 255
223 236 255
223 236 255
223 236 255
223 236 255
223 236 255
223 236 255
223 236 255
223 236 255
223 236 255
223 236 255
223 236 255
223 236 255
223 236 255
223 236 255
223 236 255
223 236 255
223 236 255
223 236 255
223 236 255
223 236 255
223 236 255
223 236 255
223 236 255
223 236 255
223 236 255
223 236 255
223 236 255
223 236 255
223 236 255
223 236 255
223 236 255
223 236 255
223 236 255
223 236 255
223 236 255
223 236 255
223 236 255
223 236 255
223 236 255
223 236 255
223 236 255
223 236 255
223 236 255
223 236 255
223 236 255
223 236 255
223 236 255
223 236 255
223 236 255
223 236 255
223 236 255
223 236 255
223 236 255
223 236 255
223 236 255
223 236 255
223 236 255
223 236 255
223 236 255
223 236 255
223 236 255
223 236 255
223 236 255
223 236 255
223 236 255
223 236 255
223 236 255
223 236 255
223 236 255
223 236 255
223 236 255
223 236 255
223 236 255
223 236 255
223 236 255
223 236 255
223 236 255
223 236 255
223 236 255
223 236 255
223 236 255
223 236 255
223 236 255
223 236 255
223 236 255
223 236 255
223 236 255
223 236 255
223 236 255
223 236 255
223 236 255
223 236 255
223 236 255
223 236 255
223 236 255
223 236 255
223 236 255
223 236 255
223 236 255
223 236 255
223 236 255
223 236 255
223 236 255
223 236 255
223 236 255
223 236 255
223 236 255
223 236 255
223 236 255
223 236 255
223 236 255
223 236 255
223 236 255
223 236 255
223 236 255
223 236 255
223 236 255
223 236 255
223 236 255
223 236 255
223 236 255
223 236 255
223 236 255
223 236 255
223 236 255
223 236 255
223 236 255
223 236 255
223 236 255
223 236 255
223 236 255
223 236 255
223 237 255
223 236 255
223 237 255
223 236 255
223 236 255
223 237 255
223 237 255
223 237 255
223 237 255
223 237 255
223 237 255
223 237 255
223 237 255
223 237 255
223 237 255
223 237 255
223 237 255
223 237 255
223 237 255
223 237 255
223 237 255
223 237 255
223 237 255
223 237 255
223 237 255
223 237 255
223 237 255
223 237 255
223 237 255
223 237 255
223 237 255
223 237 255
223 237 255
223 237 255
223 237 255
223 237 255
223 237 255
223 237 255
223 237 255
223 237 255
223 237 255
223 237 255
223 237 255
223 237 255
223 237 255
223 237 255
223 237 255
223 237 255
223 237 255
223 237 255
223 237 255
223 237 255
223 237 255
223 237 255
223 237 255
181 192 209
0 0 42
0 0 42
0 0 42
0 0 42
0 0 42
0 0 41
0 0 42
0 1 42
4 9 46
0 0 44
0 0 41
0 0 42
0 0 42
0 0 42
0 0 42
0 0 42
0 0 42
0 0 42
0 0 42
0 0 42
0 0 42
0 0 42
0 0 42
0 0 42
0 0 42
0 0 42
0 0 42
0 0 42
0 0 42
0 0 42
0 0 42
0 0 42
0 0 42
0 0 42
0 0 42
0 0 42
0 0 42
0 0 42
0 0 42
0 0 42
0 0 42
0 0 42
0 0 42
0 0 42
0 0 42
0 0 42
0 0 42
0 0 42
0 0 42
0 0 42
0 0 42
0 0 42
0 0 42
0 0 42
0 0 42
0 0 42
0 0 42
0 0 42
0 0 42
0 0 42
0 0 42
0 0 42
0 0 42
0 0 42
0 0 42
0 0 42
0 0 42
0 0 42
0 0 42
0 0 42
0 0 42
0 0 42
0 0 42
0 0 42
0 0 42
0 0 42
0 0 42
0 0 42
0 0 42
0 0 42
0 0 42
0 0 42
0 0 42
0 0 42
0 0 42
0 0 42
0 0 42
0 0 42
0 0 42
0 0 42
0 0 42
0 0 42
0 0 42
0 0 42
0 0 42
0 0 42
0 0 42
0 0 42
0 0 42
0 0 42
0 0 42
0 0 42
0 0 42
0 0 42
0 0 42
0 0 42
0 0 42
0 0 42
0 0 42
0 0 42
0 0 42
0 0 42
0 0 42
0 0 42
0 0 42
0 0 42
0 0 42
0 0 42
0 0 42
0 0 42
0 0 42
0 0 42
0 0 42
0 0 42
0 0 42
0 0 42
0 0 42
0 0 40
0 0 41
0 0 41
0 0 42
16 17 23
177 180 175
149 145 132
93 84 57
106 95 54
98 84 42
92 79 41
76 64 33
88 79 51
88 79 50
86 76 45
89 81 44
102 95 60
88 85 55
51 54 24
24 33 5
26 42 11
16 38 0
31 52 7
45 63 18
45 61 13
46 58 14
51 62 17
47 59 15
33 46 3
32 50 0
26 44 0
26 44 0
23 44 0
18 41 0
26 48 3
41 57 15
45 56 13
61 69 28
63 71 33
54 63 24
59 69 30
59 67 28
64 70 33
62 65 28
65 67 29
70 72 37
61 65 29
59 67 30
58 65 28
61 62 27
71 74 38
59 65 27
62 68 31
60 64 29
70 69 35
75 72 41
88 85 54
81 77 46
59 54 26
73 69 41
71 67 38
62 58 26
73 70 37
57 65 19
29 52 21
1 3 37
0 0 42
0 0 42
0 0 42
0 0 42
0 0 42
0 0 42
0 0 42
0 0 42
0 0 42
0 0 42
0 0 42
0 0 42
0 0 42
181 192 209
223 237 255
223 237 255
223 237 255
223 237 255
223 237 255
223 237 255
223 237 255
223 237 255
223 237 255
223 237 255
223 237 255
223 237 255
223 237 255
223 237 255
223 237 255
223 237 255
223 237 255
223 237 255
223 237 255
223 237 255
223 237 255
223 237 255
223 237 255
223 237 255
223 237 255
223 237 255
223 237 255
223 237 255
223 237 255
223 237 255
223 237 255
223 237 255
223 237 255
223 237 255
223 237 255
223 237 255
223 237 255
223 237 255
223 237 255
223 237 255
223 237 255
223 237 255
223 237 255
223 237 255
223 237 255
223 237 255
223 237 255
223 237 255
223 237 255
223 236 255
223 236 255
223 236 255
223 236 255
223 237 255
223 236 255
223 236 255
223 236 255
223 236 255
223 236 255
223 236 255
223 236 255
223 236 255
223 236 255
223 236 255
223 236 255
223 236 255
223 236 255
223 236 255
223 236 255
223 236 255
223 236 255
223 236 255
223 236 255
223 236 255
223 236 255
223 236 255
223 236 255
223 236 255
223 236 255
223 236 255
223 236 255
223 236 255
223 236 255
223 236 255
223 236 255
223 236 255
223 236 255
223 236 255
223 236 255
223 236 255
223 236 255
223 236 255
223 236 255
223 236 255
223 236 255
223 236 255
223 237 255
223 237 255
223 237 255
223 237 255
223 237 255
223 237 255
223 237 255
223 237 255
223 237 255
223 237 255
223 237 255
223 237 255
223 237 255
223 237 255
223 237 255
223 237 255
223 237 255
223 237 255
223 237 255
223 237 255
223 237 255
223 237 255
223 237 255
223 237 255
223 237 255
223 237 255
223 237 255
223 237 255
223 237 255
223 237 255
223 237 255
223 237 255
223 237 255
223 237 255
223 237 255
223 237 255
223 237 255
223 237 255
223 237 255
223 237 255
223 237 255
223 237 255
223 237 255
223 237 255
223 237 255
223 237 255
223 237 255
223 237 255
223 237 255
223 237 255
223 237 255
223 237 255
223 237 255
223 237 255
223 237 255
223 237 255
223 237 255
223 237 255
223 237 255
223 237 255
223 237 255
223 237 255
223 237 255
223 237 255
223 237 255
223 237 255
223 237 255
223 237 255
223 237 255
223 237 255
223 237 255
223 237 255
223 237 255
223 237 255
223 237 255
223 237 255
223 237 255
223 237 255
223 237 255
223 237 255
223 237 255
223 237 255
223 237 255
223 237 255
223 237 255
223 237 255
223 237 255
223 237 255
223 237 255
223 237 255
223 237 255
223 237 255
223 237 255
223 237 255
223 237 255
223 237 255
223 237 255
63 67 83
0 0 42
0 0 42
0 0 42
0 0 42
3 3 41
0 0 40
0 0 40
0 0 41
4 7 46
0 0 43
0 0 42
0 0 41
0 0 42
0 0 42
0 0 42
0 0 42
0 0 42
0 0 42
0 0 42
0 0 42
0 0 42
0 0 42
0 0 42
0 0 42
0 0 42
0 0 42
0 0 42
0 0 42
0 0 42
0 0 42
0 0 42
0 0 42
0 0 42
0 0 42
0 0 42
0 0 42
0 0 42
0 0 42
0 0 42
0 0 42
0 0 42
0 0 42
0 0 42
0 0 42
0 0 42
0 0 42
0 0 42
0 0 42
0 0 42
0 0 42
0 0 42
0 0 42
0 0 42
0 0 42
0 0 42
0 0 42
0 0 42
0 0 42
0 0 42
0 0 42
0 0 42
0 0 42
0 0 42
0 0 42
0 0 42
0 0 42
0 0 42
0 0 42
0 0 42
0 0 42
0 0 42
0 0 42
0 0 42
0 0 42
0 0 42
0 0 42
0 0 42
0 0 42
0 0 42
0 0 42
0 0 42
0 0 42
0 0 42
0 0 42
0 0 42
0 0 42
0 0 42
0 0 42
0 0 42
0 0 42
0 0 42
0 0 42
0 0 42
0 0 42
0 0 42
0 0 42
0 0 42
0 0 42
0 0 42
0 0 42
0 0 42
0 0 42
0 0 42
0 0 42
0 0 42
0 0 42
0 0 42
0 0 42
0 0 42
0 0 42
0 0 42
0 0 42
0 0 42
0 0 42
0 0 42
0 0 42
0 0 42
0 0 42
0 0 42
0 0 42
0 0 42
0 0 42
0 0 42
0 0 42
0 0 42
0 0 41
0 0 40
0 0 40
0 0 39
0 0 41
7 0 36
80 78 80
171 172 164
138 137 102
112 103 61
103 90 55
105 91 59
121 109 76
117 106 71
105 91 58
94 76 45
91 75 46
104 92 60
98 88 60
90 87 65
48 50 32
42 55 23
24 40 4
23 41 0
38 56 19
29 47 0
37 53 9
45 60 12
42 56 7
34 48 0
24 40 0
25 43 0
23 45 0
24 44 0
26 43 1
33 49 2
45 59 14
47 59 14
49 59 15
51 65 25
49 62 20
52 63 21
59 68 26
56 61 24
65 68 30
74 75 38
70 71 36
69 73 37
60 67 30
64 70 34
70 72 36
71 73 37
65 73 34
62 66 29
71 71 37
71 68 36
81 77 45
75 69 37
75 70 41
73 68 38
77 75 45
67 67 37
56 59 22
55 59 19
57 72 20
29 50 37
0 0 40
0 0 43
0 0 42
0 0 42
0 0 42
0 0 42
0 0 42
0 0 42
0 0 42
0 0 42
0 0 42
0 0 42
0 0 42
31 33 55
217 231 249
223 237 255
223 237 255
223 237 255
223 237 255
223 237 255
223 237 255
223 237 255
223 237 255
223 237 255
223 237 255
223 237 255
223 237 255
223 237 255
223 237 255
223 237 255
223 237 255
223 237 255
223 237 255
223 237 255
223 237 255
223 237 255
223 237 255
223 237 255
223 237 255
223 237 255
223 237 255
223 237 255
223 237 255
223 237 255
223 237 255
223 237 255
223 237 255
223 237 255
223 237 255
223 237 255
223 237 255
223 237 255
223 237 255
223 237 255
223 237 255
223 237 255
223 237 255
223 237 255
223 237 255
223 237 255
223 237 255
223 237 255
223 237 255
223 237 255
223 237 255
223 237 255
223 237 255
223 237 255
223 237 255
223 237 255
223 237 255
223 237 255
223 237 255
223 237 255
223 237 255
223 237 255
223 237 255
223 237 255
223 237 255
223 237 255
223 237 255
223 237 255
223 237 255
223 237 255
223 237 255
223 237 255
223 237 255
223 237 255
223 237 255
223 237 255
223 237 255
223 237 255
223 237 255
223 237 255
223 237 255
223 237 255
223 237 255
223 237 255
223 237 255
223 237 255
223 237 255
223 237 255
223 237 255
223 237 255
223 237 255
223 237 255
223 237 255
223 237 255
223 237 255
223 237 255
223 237 255
223 237 255
223 237 255
223 237 255
223 237 255
223 237 255
223 237 255
223 237 255
223 237 255
223 237 255
223 237 255
223 237 255
223 237 255
223 237 255
223 237 255
223 237 255
223 237 255
223 237 255
223 237 255
223 237 255
223 237 255
223 237 255
223 237 255
223 237 255
223 237 255
223 237 255
223 237 255
223 237 255
223 237 255
223 237 255
223 237 255
223 237 255
223 237 255
223 237 255
223 237 255
223 237 255
223 237 255
223 237 255
223 237 255
223 237 255
223 237 255
223 237 255
223 237 255
223 237 255
223 237 255
223 237 255
223 237 255
223 237 255
223 237 255
223 237 255
223 237 255
223 237 255
223 237 255
223 237 255
223 237 255
223 237 255
223 237 255
223 237 255
223 237 255
223 237 255
223 237 255
223 237 255
223 237 255
223 237 255
223 237 255
223 237 255
223 237 255
223 237 255
223 237 255
223 237 255
223 237 255
223 237 255
223 237 255
223 237 255
223 237 255
223 237 255
223 237 255
223 237 255
223 237 255
223 237 255
223 237 255
223 237 255
223 237 255
223 237 255
223 237 255
223 237 255
223 237 255
223 237 255
223 237 255
223 237 255
223 237 255
223 237 255
223 237 255
223 237 255
223 237 255
223 237 255
223 237 255
223 237 255
124 132 146
0 0 42
0 0 42
0 0 42
0 0 42
1 2 41
6 6 43
0 0 41
0 0 41
0 0 41
5 5 44
0 0 43
0 0 42
0 0 43
0 0 42
0 0 42
0 0 42
0 0 42
0 0 42
0 0 42
0 0 42
0 0 42
0 0 42
0 0 42
0 0 42
0 0 42
0 0 42
0 0 42
0 0 42
0 0 42
0 0 42
0 0 42
0 0 42
0 0 42
0 0 42
0 0 42
0 0 42
0 0 42
0 0 42
0 0 42
0 0 42
0 0 42
0 0 42
0 0 42
0 0 42
0 0 42
0 0 42
0 0 42
0 0 42
0 0 42
0 0 42
0 0 42
0 0 42
0 0 42
0 0 42
0 0 42
0 0 42
0 0 42
0 0 42
0 0 42
0 0 42
0 0 42
0 0 42
0 0 42
0 0 42
0 0 42
0 0 42
0 0 42
0 0 42
0 0 42
0 0 42
0 0 42
0 0 42
0 0 42
0 0 42
0 0 42
0 0 42
0 0 42
0 0 42
0 0 42
0 0 42
0 0 42
0 0 42
0 0 42
0 0 42
0 0 42
0 0 42
0 0 42
0 0 42
0 0 42
0 0 42
0 0 42
0 0 42
0 0 42
0 0 42
0 0 42
0 0 42
0 0 42
0 0 42
0 0 42
0 0 42
0 0 42
0 0 42
0 0 42
0 0 42
0 0 42
0 0 42
0 0 42
0 0 42
0 0 42
0 0 42
0 0 42
0 0 42
0 0 42
0 0 42
0 0 42
0 0 42
0 0 42
0 0 42
0 0 42
0 0 42
0 0 42
0 0 42
0 0 42
0 0 42
0 0 42
0 0 42
0 0 41
0 0 42
0 0 42
0 0 40
2 0 37
7 0 24
60 60 56
166 164 152
143 137 112
102 91 56
90 75 42
95 80 51
117 101 66
123 107 69
99 80 50
101 82 53
107 93 61
97 86 61
98 92 80
65 64 47
26 35 0
35 47 13
25 45 9
19 40 8
23 43 0
40 60 14
40 59 11
39 57 12
35 53 4
30 48 0
23 43 0
23 44 0
29 44 0
33 46 5
42 55 8
44 56 14
53 68 20
62 78 29
61 77 34
44 56 15
52 63 22
62 72 31
55 61 23
68 74 36
62 67 30
73 73 40
63 65 32
63 69 32
74 78 42
77 77 41
67 70 31
70 76 37
61 63 25
74 74 38
80 76 42
80 73 41
82 76 46
79 74 43
68 66 36
74 74 43
58 60 27
56 62 23
53 60 15
49 71 19
20 38 35
0 0 42
0 0 43
0 0 42
0 0 42
0 0 42
0 0 42
0 0 42
0 0 42
0 0 42
0 0 42
0 0 42
0 0 42
0 0 42
128 136 151
223 237 255
223 237 255
223 237 255
223 237 255
223 237 255
223 237 255
223 237 255
223 237 255
223 237 255
223 237 255
223 237 255
223 237 255
223 237 255
223 237 255
223 237 255
223 237 255
223 237 255
223 237 255
223 237 255
223 237 255
223 237 255
223 237 255
223 237 255
223 237 255
223 237 255
223 237 255
223 237 255
223 237 255
223 237 255
223 237 255
223 237 255
223 237 255
223 237 255
223 237 255
223 237 255
223 237 255
223 237 255
223 237 255
223 237 255
223 237 255
223 237 255
223 237 255
223 237 255
223 237 255
223 237 255
223 237 255
223 237 255
223 237 255
223 237 255
223 237 255
223 237 255
223 237 255
223 237 255
223 237 255
223 237 255
223 237 255
223 237 255
223 237 255
223 237 255
223 237 255
223 237 255
223 237 255
223 237 255
223 237 255
223 237 255
223 237 255
223 237 255
223 237 255
223 237 255
223 237 255
223 237 255
223 237 255
223 237 255
223 237 255
223 237 255
223 237 255
223 237 255
223 237 255
223 237 255
223 237 255
223 237 255
223 237 255
223 237 255
223 237 255
223 237 255
223 237 255
223 237 255
223 237 255
223 237 255
223 237 255
223 237 255
223 237 255
223 237 255
223 237 255
223 237 255
223 237 255
223 237 255
223 237 255
223 237 255
223 237 255
223 237 255
223 237 255
223 237 255
223 237 255
223 237 255
223 237 255
223 237 255
223 237 255
223 237 255
223 237 255
223 237 255
223 237 255
223 237 255
223 237 255
223 237 255
223 237 255
223 237 255
223 237 255
223 237 255
223 237 255
223 237 255
223 237 255
223 237 255
223 237 255
223 237 255
223 237 255
223 237 255
223 237 255
223 237 255
223 237 255
223 237 255
223 237 255
223 237 255
223 237 255
223 237 255
223 237 255
223 237 255
223 237 255
223 237 255
223 237 255
223 237 255
223 237 255
223 237 255
223 237 255
223 237 255
223 237 255
223 237 255
223 237 255
223 237 255
223 237 255
223 237 255
223 237 255
223 237 255
223 237 255
223 237 255
223 237 255
223 237 255
223 237 255
223 237 255
223 237 255
223 237 255
223 237 255
223 237 255
223 237 255
223 237 255
223 237 255
223 237 255
223 237 255
223 237 255
223 237 255
223 237 255
223 237 255
223 237 255
223 237 255
223 237 255
223 237 255
223 237 255
223 237 255
223 237 255
223 237 255
223 237 255
223 237 255
223 237 255
223 237 255
223 237 255
223 237 255
223 237 255
223 237 255
223 237 255
223 237 255
223 237 255
223 237 255
223 237 255
223 237 255
187 198 215
0 0 42
0 0 42
0 0 42
0 0 42
0 0 41
0 0 40
0 0 40
0 0 41
0 0 41
1 2 41
4 5 45
0 0 44
0 0 42
0 0 41
0 0 41
0 0 42
0 0 42
0 0 42
0 0 42
0 0 42
0 0 42
0 0 42
0 0 42
0 0 42
0 0 42
0 0 42
0 0 42
0 0 42
0 0 42
0 0 42
0 0 42
0 0 42
0 0 42
0 0 42
0 0 42
0 0 42
0 0 42
0 0 42
0 0 42
0 0 42
0 0 42
0 0 42
0 0 42
0 0 42
0 0 42
0 0 42
0 0 42
0 0 42
0 0 42
0 0 42
0 0 42
0 0 42
0 0 42
0 0 42
0 0 42
0 0 42
0 0 42
0 0 42
0 0 42
0 0 42
0 0 42
0 0 42
0 0 42
0 0 42
0 0 42
0 0 42
0 0 42
0 0 42
0 0 42
0 0 42
0 0 42
0 0 42
0 0 42
0 0 42
0 0 42
0 0 42
0 0 42
0 0 42
0 0 42
0 0 42
0 0 42
0 0 42
0 0 42
0 0 42
0 0 42
0 0 42
0 0 42
0 0 42
0 0 42
0 0 42
0 0 42
0 0 42
0 0 42
0 0 42
0 0 42
0 0 42
0 0 42
0 0 42
0 0 42
0 0 42
0 0 42
0 0 42
0 0 42
0 0 42
0 0 42
0 0 42
0 0 42
0 0 42
0 0 42
0 0 42
0 0 42
0 0 42
0 0 42
0 0 42
0 0 42
0 0 42
0 0 42
0 0 42
0 0 42
0 0 42
0 0 42
0 0 42
0 0 42
0 0 42
0 0 42
0 0 42
0 0 42
0 0 42
0 0 41
0 0 40
0 0 37
2 0 32
7 6 27
57 54 59
113 108 106
127 117 107
132 121 96
96 80 53
81 63 38
89 71 37
116 98 66
116 101 73
104 90 55
57 45 21
35 30 26
91 90 72
70 72 52
32 39 13
27 45 16
14 34 2
15 37 0
34 57 13
39 61 13
29 50 7
32 54 7
30 51 8
28 49 5
29 47 7
38 54 12
40 52 10
43 54 4
43 58 9
45 63 14
60 79 32
59 71 30
54 65 23
58 68 28
54 64 22
48 56 15
59 69 29
56 64 25
67 68 36
67 70 36
66 71 34
76 77 41
71 70 34
72 75 37
67 71 32
72 75 35
74 73 37
80 76 43
81 75 42
76 71 41
79 76 44
65 64 32
62 63 33
53 58 24
57 66 25
59 69 19
40 64 17
2 12 34
0 0 46
0 0 42
0 0 42
0 0 42
0 0 42
0 0 42
0 0 42
0 0 42
0 0 42
0 0 42
0 0 42
0 0 42
0 0 42
176 186 203
223 237 255
223 237 255
223 237 255
223 237 255
223 237 255
223 237 255
223 237 255
223 237 255
223 237 255
223 237 255
223 237 255
223 237 255
223 237 255
223 237 255
223 237 255
223 237 255
223 237 255
223 237 255
223 237 255
223 237 255
223 237 255
223 237 255
223 237 255
223 237 255
223 237 255
223 237 255
223 237 255
223 237 255
223 237 255
223 237 255
223 237 255
223 237 255
223 237 255
223 237 255
223 237 255
223 237 255
223 237 255
223 237 255
223 237 255
223 237 255
223 237 255
223 237 255
223 237 255
223 237 255
223 237 255
223 237 255
223 237 255
223 237 255
223 237 255
223 237 255
223 237 255
223 237 255
223 237 255
223 237 255
223 237 255
223 237 255
223 237 255
223 237 255
223 237 255
223 237 255
223 237 255
223 237 255
223 237 255
223 237 255
223 237 255
223 237 255
223 237 255
223 237 255
223 237 255
223 237 255
223 237 255
223 237 255
223 237 255
223 237 255
223 237 255
223 237 255
223 237 255
223 237 255
223 237 255
223 237 255
223 237 255
223 237 255
223 237 255
223 237 255
223 237 255
223 237 255
223 237 255
223 237 255
223 237 255
223 237 255
223 237 255
223 237 255
223 237 255
223 237 255
223 237 255
223 237 255
223 237 255
223 237 255
223 237 255
223 237 255
223 237 255
223 237 255
223 237 255
223 237 255
223 237 255
223 237 255
223 237 255
223 237 255
223 237 255
223 237 255
223 237 255
223 237 255
223 237 255
223 237 255
223 237 255
223 237 255
223 237 255
223 237 255
223 237 255
223 237 255
223 237 255
223 237 255
223 237 255
223 237 255
223 237 255
223 237 255
223 237 255
223 237 255
223 237 255
223 237 255
223 237 255
223 237 255
223 237 255
223 237 255
223 237 255
223 237 255
223 237 255
223 237 255
223 237 255
223 237 255
223 237 255
223 237 255
223 237 255
223 237 255
223 237 255
223 237 255
223 237 255
223 237 255
223 237 255
223 237 255
223 237 255
223 237 255
223 237 255
223 237 255
223 237 255
223 237 255
223 237 255
223 237 255
223 237 255
223 237 255
223 237 255
223 237 255
223 237 255
223 237 255
223 237 255
223 237 255
223 237 255
223 237 255
223 237 255
223 237 255
223 237 255
223 237 255
223 237 255
223 237 255
223 237 255
223 237 255
223 237 255
223 237 255
223 237 255
223 237 255
223 237 255
223 237 255
223 237 255
223 237 255
223 237 255
223 237 255
223 237 255
223 237 255
223 237 255
223 237 255
223 237 255
223 237 255
223 237 255
223 237 255
216 229 248
50 53 70
0 0 41
0 0 42
0 0 42
0 0 41
0 0 40
7 8 43
10 10 46
0 0 41
3 4 42
9 9 45
0 0 42
0 0 42
0 0 42
0 0 41
0 0 42
0 0 42
0 0 42
0 0 42
0 0 42
0 0 42
0 0 42
0 0 42
0 0 42
0 0 42
0 0 42
0 0 42
0 0 42
0 0 42
0 0 42
0 0 42
0 0 42
0 0 42
0 0 42
0 0 42
0 0 42
0 0 42
0 0 42
0 0 42
0 0 42
0 0 42
0 0 42
0 0 42
0 0 42
0 0 42
0 0 42
0 0 42
0 0 42
0 0 42
0 0 42
0 0 42
0 0 42
0 0 42
0 0 42
0 0 42
0 0 42
0 0 42
0 0 42
0 0 42
0 0 42
0 0 42
0 0 42
0 0 42
0 0 42
0 0 42
0 0 42
0 0 42
0 0 42
0 0 42
0 0 42
0 0 42
0 0 42
0 0 42
0 0 42
0 0 42
0 0 42
0 0 42
0 0 42
0 0 42
0 0 42
0 0 42
0 0 42
0 0 42
0 0 42
0 0 42
0 0 42
0 0 42
0 0 42
0 0 42
0 0 42
0 0 42
0 0 42
0 0 42
0 0 42
0 0 42
0 0 42
0 0 42
0 0 42
0 0 42
0 0 42
0 0 42
0 0 42
0 0 42
0 0 42
0 0 42
0 0 42
0 0 42
0 0 42
0 0 42
0 0 42
0 0 42
0 0 42
0 0 42
0 0 42
0 0 42
0 0 42
0 0 42
0 0 42
0 0 42
0 0 42
0 0 42
0 0 42
0 0 42
0 0 42
0 0 42
0 0 42
0 0 42
0 0 42
0 0 42
0 0 42
0 0 43
0 0 38
0 0 32
0 0 29
24 22 34
82 76 80
146 138 132
197 187 175
172 163 144
141 132 100
102 89 55
115 102 71
121 109 71
117 103 75
75 65 55
65 60 43
89 86 63
38 36 20
22 32 7
20 35 7
22 39 0
22 44 0
35 58 15
27 50 3
34 59 12
34 55 16
35 52 3
38 54 11
39 53 5
47 60 15
37 51 2
39 54 7
37 55 4
35 51 8
52 62 20
43 53 11
46 56 12
40 51 6
50 61 21
58 69 28
61 68 30
71 71 40
71 75 41
71 74 39
75 75 40
77 75 40
76 78 39
68 74 32
76 78 39
73 72 36
77 73 39
81 76 44
77 72 41
72 71 37
70 70 39
52 55 23
59 67 30
51 62 17
62 75 21
32 55 24
0 3 42
0 0 46
0 0 42
0 0 42
0 0 42
0 0 42
0 0 42
0 0 42
0 0 42
0 0 42
0 0 42
0 0 42
0 0 42
44 47 65
219 232 250
223 237 255
223 237 255
223 237 255
223 237 255
223 237 255
223 237 255
223 237 255
223 237 255
223 237 255
223 237 255
223 237 255
223 237 255
223 237 255
223 237 255
223 237 255
223 237 255
223 237 255
223 237 255
223 237 255
223 237 255
223 237 255
223 237 255
223 237 255
223 237 255
223 237 255
223 237 255
223 237 255
223 237 255
223 237 255
223 237 255
223 237 255
223 237 255
223 237 255
223 237 255
223 237 255
223 237 255
223 237 255
223 237 255
223 237 255
223 237 255
223 237 255
223 237 255
223 237 255
223 237 255
223 237 255
223 237 255
223 237 255
223 237 255
223 237 255
223 237 255
223 237 255
223 237 255
223 237 255
223 237 255
223 237 255
223 237 255
223 237 255
223 237 255
223 237 255
223 237 255
223 237 255
223 237 255
223 237 255
223 237 255
223 237 255
223 237 255
223 237 255
223 237 255
223 237 255
223 237 255
223 237 255
223 237 255
223 237 255
223 237 255
223 237 255
223 237 255
223 237 255
223 237 255
223 237 255
223 237 255
223 237 255
223 237 255
223 237 255
223 237 255
223 237 255
223 237 255
223 237 255
223 237 255
223 237 255
223 237 255
223 237 255
223 237 255
223 237 255
223 237 255
223 237 255
223 237 255
223 237 255
223 237 255
223 237 255
223 237 255
223 237 255
223 237 255
223 237 255
223 237 255
223 237 255
223 237 255
223 237 255
223 237 255
223 237 255
223 237 255
223 237 255
223 237 255
223 237 255
223 237 255
223 237 255
223 237 255
223 237 255
223 237 255
223 237 255
223 237 255
223 237 255
223 237 255
223 237 255
223 237 255
223 237 255
223 237 255
223 237 255
223 237 255
223 237 255
223 237 255
223 237 255
223 237 255
223 237 255
223 237 255
223 237 255
223 237 255
223 237 255
223 237 255
223 237 255
223 237 255
223 237 255
223 237 255
223 237 255
223 237 255
223 237 255
223 237 255
223 237 255
223 237 255
223 237 255
223 237 255
223 237 255
223 237 255
223 237 255
223 237 255
223 237 255
223 237 255
223 237 255
223 237 255
223 237 255
223 237 255
223 237 255
223 237 255
223 237 255
223 237 255
223 237 255
223 237 255
223 237 255
223 237 255
223 237 255
223 237 255
223 237 255
223 237 255
223 237 255
223 237 255
223 237 255
223 237 255
223 237 255
223 237 255
223 237 255
223 237 255
223 237 255
223 237 255
223 237 255
223 237 255
223 237 255
223 237 255
223 237 255
223 237 255
223 237 255
223 237 255
223 237 255
223 237 255
223 237 255
223 237 255
223 237 255
141 150 165
0 0 41
0 0 42
0 0 42
0 0 42
0 0 42
0 0 41
5 5 42
0 0 41
0 0 42
2 2 41
0 0 40
0 0 42
0 0 41
0 0 42
0 0 42
0 0 42
0 0 42
0 0 42
0 0 42
0 0 42
0 0 42
0 0 42
0 0 42
0 0 42
0 0 42
0 0 42
0 0 42
0 0 42
0 0 42
0 0 42
0 0 42
0 0 42
0 0 42
0 0 42
0 0 42
0 0 42
0 0 42
0 0 42
0 0 42
0 0 42
0 0 42
0 0 42
0 0 42
0 0 42
0 0 42
0 0 42
0 0 42
0 0 42
0 0 42
0 0 42
0 0 42
0 0 42
0 0 42
0 0 42
0 0 42
0 0 42
0 0 42
0 0 42
0 0 42
0 0 42
0 0 42
0 0 42
0 0 42
0 0 42
0 0 42
0 0 42
0 0 42
0 0 42
0 0 42
0 0 42
0 0 42
0 0 42
0 0 42
0 0 42
0 0 42
0 0 42
0 0 42
0 0 42
0 0 42
0 0 42
0 0 42
0 0 42
0 0 42
0 0 42
0 0 42
0 0 42
0 0 42
0 0 42
0 0 42
0 0 42
0 0 42
0 0 42
0 0 42
0 0 42
0 0 42
0 0 42
0 0 42
0 0 42
0 0 42
0 0 42
0 0 42
0 0 42
0 0 42
0 0 42
0 0 42
0 0 42
0 0 42
0 0 42
0 0 42
0 0 42
0 0 42
0 0 42
0 0 42
0 0 42
0 0 42
0 0 42
0 0 42
0 0 42
0 0 42
0 0 42
0 0 42
0 0 42
0 0 42
0 0 42
0 0 42
0 0 42
0 0 42
0 0 42
0 0 42
0 0 46
0 0 44
0 0 37
0 0 34
0 0 35
7 0 32
24 19 38
122 114 117
163 159 140
183 179 157
130 121 97
100 88 57
137 123 86
111 93 61
117 100 75
111 96 74
120 108 87
63 52 28
48 46 20
57 61 32
25 34 9
32 47 10
34 53 14
29 50 7
43 64 17
49 69 22
51 64 17
38 51 6
36 49 0
40 54 7
35 51 0
36 52 0
37 52 1
34 48 8
40 52 13
41 53 13
43 55 15
45 55 14
58 65 26
67 74 37
72 73 40
77 76 45
74 76 43
73 74 38
79 78 43
78 77 39
74 78 38
71 78 36
69 73 32
79 79 42
73 69 35
81 76 44
71 67 37
73 73 39
60 62 30
52 56 23
50 56 16
63 74 26
59 74 25
37 58 49
0 0 43
0 0 44
0 0 41
0 0 42
0 0 42
0 0 42
0 0 42
0 0 42
0 0 42
0 0 42
0 0 42
0 0 42
0 0 42
116 123 137
223 237 255
223 237 255
223 237 255
223 237 255
223 237 255
223 237 255
223 237 255
223 237 255
223 237 255
223 237 255
223 237 255
223 237 255
223 237 255
223 237 255
223 237 255
223 237 255
223 237 255
223 237 255
223 237 255
223 237 255
223 237 255
223 237 255
223 237 255
223 237 255
223 237 255
223 237 255
223 237 255
223 237 255
223 237 255
223 237 255
223 237 255
223 237 255
223 237 255
223 237 255
223 237 255
223 237 255
223 237 255
223 237 255
223 237 255
223 237 255
223 237 255
223 237 255
223 237 255
223 237 255
223 237 255
223 237 255
223 237 255
223 237 255
223 237 255
223 237 255
223 237 255
223 237 255
223 237 255
223 237 255
223 237 255
223 237 255
223 237 255
223 237 255
223 237 255
223 237 255
223 237 255
223 237 255
223 237 255
223 237 255
223 237 255
223 237 255
223 237 255
223 237 255
223 237 255
223 237 255
223 237 255
223 237 255
223 237 255
223 237 255
223 237 255
223 237 255
223 237 255
223 237 255
223 237 255
223 237 255
223 237 255
223 237 255
223 237 255
223 237 255
223 237 255
223 237 255
223 237 255
223 237 255
223 237 255
223 237 255
223 237 255
223 237 255
223 237 255
223 237 255
223 237 255
223 237 255
223 237 255
223 237 255
223 237 255
223 237 255
223 237 255
223 237 255
223 237 255
223 237 255
223 237 255
223 237 255
223 237 255
223 237 255
223 237 255
223 237 255
223 237 255
223 237 255
223 237 255
223 237 255
223 237 255
223 237 255
223 237 255
223 237 255
223 237 255
223 237 255
223 237 255
223 237 255
223 237 255
223 237 255
223 237 255
223 237 255
223 237 255
223 237 255
223 237 255
223 237 255
223 237 255
223 237 255
223 237 255
223 237 255
223 237 255
223 237 255
223 237 255
223 237 255
223 237 255
223 237 255
223 237 255
223 237 255
223 237 255
223 237 255
223 237 255
223 237 255
223 237 255
223 237 255
223 237 255
223 237 255
223 237 255
223 237 255
223 237 255
223 237 255
223 237 255
223 237 255
223 237 255
223 237 255
223 237 255
223 237 255
223 237 255
223 237 255
223 237 255
223 237 255
223 237 255
223 237 255
223 237 255
223 237 255
223 237 255
223 237 255
223 237 255
223 237 255
223 237 255
223 237 255
223 237 255
223 237 255
223 237 255
223 237 255
223 237 255
223 237 255
223 237 255
223 237 255
223 237 255
223 237 255
223 237 255
223 237 255
223 237 255
223 237 255
223 237 255
223 237 255
223 237 255
223 237 255
223 237 255
223 237 255
223 237 255
223 237 255
189 201 218
0 0 42
0 0 42
0 0 41
0 0 42
0 0 42
0 0 42
0 0 42
0 0 42
0 0 42
0 0 42
0 0 42
0 0 41
0 0 43
0 0 43
0 0 42
0 0 42
0 0 42
0 0 42
0 0 42
0 0 42
0 0 42
0 0 42
0 0 42
0 0 42
0 0 42
0 0 42
0 0 42
0 0 42
0 0 42
0 0 42
0 0 42
0 0 42
0 0 42
0 0 42
0 0 42
0 0 42
0 0 42
0 0 42
0 0 42
0 0 42
0 0 42
0 0 42
0 0 42
0 0 42
0 0 42
0 0 42
0 0 42
0 0 42
0 0 42
0 0 42
0 0 42
0 0 42
0 0 42
0 0 42
0 0 42
0 0 42
0 0 42
0 0 42
0 0 42
0 0 42
0 0 42
0 0 42
0 0 42
0 0 42
0 0 42
0 0 42
0 0 42
0 0 42
0 0 42
0 0 42
0 0 42
0 0 42
0 0 42
0 0 42
0 0 42
0 0 42
0 0 42
0 0 42
0 0 42
0 0 42
0 0 42
0 0 42
0 0 42
0 0 42
0 0 42
0 0 42
0 0 42
0 0 42
0 0 42
0 0 42
0 0 42
0 0 42
0 0 42
0 0 42
0 0 42
0 0 42
0 0 42
0 0 42
0 0 42
0 0 42
0 0 42
0 0 42
0 0 42
0 0 42
0 0 42
0 0 42
0 0 42
0 0 42
0 0 42
0 0 42
0 0 42
0 0 42
0 0 42
0 0 42
0 0 42
0 0 42
0 0 42
0 0 42
0 0 42
0 0 42
0 0 42
0 0 42
0 0 42
0 0 42
0 0 42
0 0 42
0 0 42
0 0 42
0 0 42
0 0 44
0 0 41
0 0 40
0 0 42
0 0 45
0 0 41
0 0 32
6 0 24
30 27 30
119 113 110
190 181 162
128 115 87
108 90 57
127 104 67
134 110 76
140 115 89
138 113 87
118 99 67
79 67 37
83 76 46
84 85 59
43 49 27
28 41 7
39 56 17
52 70 22
64 80 28
73 85 36
67 80 33
44 60 9
38 57 8
29 46 2
34 51 0
34 49 0
31 49 0
17 36 0
38 55 13
56 69 32
63 73 36
56 60 24
74 75 40
67 65 35
72 72 42
71 73 39
68 68 33
80 79 44
72 70 33
74 77 38
73 76 36
67 70 31
76 76 39
79 75 41
78 74 41
75 71 39
64 66 31
48 53 17
59 62 29
64 66 29
69 81 30
42 57 33
5 10 42
0 0 43
0 0 40
0 0 41
0 0 42
0 0 42
0 0 42
0 0 42
0 0 42
0 0 42
0 0 42
0 0 42
0 0 42
0 0 42
189 201 218
223 237 255
223 237 255
223 237 255
223 237 255
223 237 255
223 237 255
223 237 255
223 237 255
223 237 255
223 237 255
223 237 255
223 237 255
223 237 255
223 237 255
223 237 255
223 237 255
223 237 255
223 237 255
223 237 255
223 237 255
223 237 255
223 237 255
223 237 255
223 237 255
223 237 255
223 237 255
223 237 255
223 237 255
223 237 255
223 237 255
223 237 255
223 237 255
223 237 255
223 237 255
223 237 255
223 237 255
223 237 255
223 237 255
223 237 255
223 237 255
223 237 255
223 237 255
223 237 255
223 237 255
223 237 255
223 237 255
223 237 255
223 237 255
223 237 255
223 237 255
223 237 255
223 237 255
223 237 255
223 237 255
223 237 255
223 237 255
223 237 255
223 237 255
223 237 255
223 237 255
223 237 255
223 237 255
223 237 255
223 237 255
223 237 255
223 237 255
223 237 255
223 237 255
223 237 255
223 237 255
223 237 255
223 237 255
223 237 255
223 237 255
223 237 255
223 237 255
223 237 255
223 237 255
223 237 255
223 237 255
223 237 255
223 237 255
223 237 255
223 237 255
223 237 255
223 237 255
223 237 255
223 237 255
223 237 255
223 237 255
223 237 255
223 237 255
223 237 255
223 237 255
223 237 255
223 237 255
223 237 255
223 237 255
223 237 255
223 237 255
223 237 255
223 237 255
223 237 255
223 237 255
223 237 255
223 237 255
223 237 255
223 237 255
223 237 255
223 237 255
223 237 255
223 237 255
223 237 255
223 237 255
223 237 255
223 237 255
223 237 255
223 237 255
223 237 255
223 237 255
223 237 255
223 237 255
223 237 255
223 237 255
223 237 255
223 237 255
223 237 255
223 237 255
223 237 255
223 237 255
223 237 255
223 237 255
223 237 255
223 237 255
223 237 255
223 237 255
223 237 255
223 237 255
223 237 255
223 237 255
223 237 255
223 237 255
223 237 255
223 237 255
223 237 255
223 237 255
223 237 255
223 237 255
223 237 255
223 237 255
223 237 255
223 237 255
223 237 255
223 237 255
223 237 255
223 237 255
223 237 255
223 237 255
223 237 255
223 237 255
223 237 255
223 237 255
223 237 255
223 237 255
223 237 255
223 237 255
223 237 255
223 237 255
223 237 255
223 237 255
223 237 255
223 237 255
223 237 255
223 237 255
223 237 255
223 237 255
223 237 255
223 237 255
223 237 255
223 237 255
223 237 255
223 237 255
223 237 255
223 237 255
223 237 255
223 237 255
223 237 255
223 237 255
223 237 255
223 237 255
223 237 255
223 237 255
223 237 255
223 237 255
223 237 255
223 237 255
223 237 255
63 67 83
0 0 42
0 0 42
0 0 42
0 0 42
0 0 42
0 0 42
0 0 42
0 0 42
0 0 42
0 0 42
0 0 42
0 0 39
0 0 40
0 0 41
0 0 41
0 0 42
0 0 42
0 0 42
0 0 42
0 0 42
0 0 42
0 0 42
0 0 42
0 0 42
0 0 42
0 0 42
0 0 42
0 0 42
0 0 42
0 0 42
0 0 42
0 0 42
0 0 42
0 0 42
0 0 42
0 0 42
0 0 42
0 0 42
0 0 42
0 0 42
0 0 42
0 0 42
0 0 42
0 0 42
0 0 42
0 0 42
0 0 42
0 0 42
0 0 42
0 0 42
0 0 42
0 0 42
0 0 42
0 0 42
0 0 42
0 0 42
0 0 42
0 0 42
0 0 42
0 0 42
0 0 42
0 0 42
0 0 42
0 0 42
0 0 42
0 0 42
0 0 42
0 0 42
0 0 42
0 0 42
0 0 42
0 0 42
0 0 42
0 0 42
0 0 42
0 0 42
0 0 42
0 0 42
0 0 42
0 0 42
0 0 42
0 0 42
0 0 42
0 0 42
0 0 42
0 0 42
0 0 42
0 0 42
0 0 42
0 0 42
0 0 42
0 0 42
0 0 42
0 0 42
0 0 42
0 0 42
0 0 42
0 0 42
0 0 42
0 0 42
0 0 42
0 0 42
0 0 42
0 0 42
0 0 42
0 0 42
0 0 42
0 0 42
0 0 42
0 0 42
0 0 42
0 0 42
0 0 42
0 0 42
0 0 42
0 0 42
0 0 42
0 0 42
0 0 42
0 0 42
0 0 42
0 0 42
0 0 42
0 0 42
0 0 42
0 0 42
0 0 42
0 0 42
0 0 41
0 0 41
0 0 42
0 0 42
0 0 41
0 0 40
0 0 41
1 0 40
9 0 31
14 8 13
140 130 120
172 157 142
140 118 93
132 106 63
151 123 79
161 130 98
158 129 97
169 144 106
129 110 77
98 85 56
107 103 78
70 72 44
50 56 28
37 47 12
32 46 6
73 84 35
66 75 28
46 59 9
38 58 2
41 60 8
37 55 0
28 44 0
32 49 0
30 52 3
37 56 15
38 51 21
58 69 36
61 67 34
65 70 35
68 73 36
64 65 32
68 68 35
71 72 39
71 71 38
79 75 42
79 73 41
73 68 35
70 69 32
70 73 35
75 74 36
77 72 36
77 74 38
80 76 44
70 72 36
47 54 16
64 66 32
71 71 33
56 71 21
20 29 28
0 0 40
0 0 43
0 0 40
0 0 42
0 0 42
0 0 42
0 0 42
0 0 42
0 0 42
0 0 42
0 0 42
0 0 42
0 0 42
63 67 83
221 234 253
223 237 255
223 237 255
223 237 255
223 237 255
223 237 255
223 237 255
223 237 255
223 237 255
223 237 255
223 237 255
223 237 255
223 237 255
223 237 255
223 237 255
223 237 255
223 237 255
223 237 255
223 237 255
223 237 255
223 237 255
223 237 255
223 237 255
223 237 255
223 237 255
223 237 255
223 237 255
223 237 255
223 237 255
223 237 255
223 237 255
223 237 255
223 237 255
223 237 255
223 237 255
223 237 255
223 237 255
223 237 255
223 237 255
223 237 255
223 237 255
223 237 255
223 237 255
223 237 255
223 237 255
223 237 255
223 237 255
223 237 255
223 237 255
223 237 255
223 237 255
223 237 255
223 237 255
223 237 255
223 237 255
223 237 255
223 237 255
223 237 255
223 237 255
223 237 255
223 237 255
223 237 255
223 237 255
223 237 255
223 237 255
223 237 255
223 237 255
223 237 255
223 237 255
223 237 255
223 237 255
223 237 255
223 237 255
223 237 255
223 237 255
223 237 255
223 237 255
223 237 255
223 237 255
223 237 255
223 237 255
223 237 255
223 237 255
223 237 255
223 237 255
223 237 255
223 237 255
223 237 255
223 237 255
223 237 255
223 237 255
223 237 255
223 237 255
223 237 255
223 237 255
223 237 255
223 237 255
223 237 255
223 237 255
223 237 255
223 237 255
223 237 255
223 237 255
223 237 255
223 237 255
223 237 255
223 237 255
223 237 255
223 237 255
223 237 255
223 237 255
223 237 255
223 237 255
223 237 255
223 237 255
223 237 255
223 237 255
223 237 255
223 237 255
223 237 255
223 237 255
223 237 255
223 237 255
223 237 255
223 237 255
223 237 255
223 237 255
223 237 255
223 237 255
223 237 255
223 237 255
223 237 255
223 237 255
223 237 255
223 237 255
223 237 255
223 237 255
223 237 255
223 237 255
223 237 255
223 237 255
223 237 255
223 237 255
223 237 255
223 237 255
223 237 255
223 237 255
223 237 255
223 237 255
223 237 255
223 237 255
223 237 255
223 237 255
223 237 255
223 237 255
223 237 255
223 237 255
223 237 255
223 237 255
223 237 255
223 237 255
223 237 255
223 237 255
223 237 255
223 237 255
223 237 255
223 237 255
223 237 255
223 237 255
223 237 255
223 237 255
223 237 255
223 237 255
223 237 255
223 237 255
223 237 255
223 237 255
223 237 255
223 237 255
223 237 255
223 237 255
223 237 255
223 237 255
223 237 255
223 237 255
223 237 255
223 237 255
223 237 255
223 237 255
223 237 255
223 237 255
223 237 255
223 237 255
223 237 255
223 237 255
223 237 255
223 237 255
223 237 255
156 166 181
0 0 42
0 0 42
0 0 42
0 0 42
0 0 42
0 0 42
0 0 42
0 0 42
0 0 42
0 0 42
0 0 41
0 0 41
0 0 42
0 0 40
0 0 41
0 0 42
0 0 42
0 0 42
0 0 42
0 0 42
0 0 42
0 0 42
0 0 42
0 0 42
0 0 42
0 0 42
0 0 42
0 0 42
0 0 42
0 0 42
0 0 42
0 0 42
0 0 42
0 0 42
0 0 42
0 0 42
0 0 42
0 0 42
0 0 42
0 0 42
0 0 42
0 0 42
0 0 42
0 0 42
0 0 42
0 0 42
0 0 42
0 0 42
0 0 42
0 0 42
0 0 42
0 0 42
0 0 42
0 0 42
0 0 42
0 0 42
0 0 42
0 0 42
0 0 42
0 0 42
0 0 42
0 0 42
0 0 42
0 0 42
0 0 42
0 0 42
0 0 42
0 0 42
0 0 42
0 0 42
0 0 42
0 0 42
0 0 42
0 0 42
0 0 42
0 0 42
0 0 42
0 0 42
0 0 42
0 0 42
0 0 42
0 0 42
0 0 42
0 0 42
0 0 42
0 0 42
0 0 42
0 0 42
0 0 42
0 0 42
0 0 42
0 0 42
0 0 42
0 0 42
0 0 42
0 0 42
0 0 42
0 0 42
0 0 42
0 0 42
0 0 42
0 0 42
0 0 42
0 0 42
0 0 42
0 0 42
0 0 42
0 0 42
0 0 42
0 0 42
0 0 42
0 0 42
0 0 42
0 0 42
0 0 42
0 0 42
0 0 42
0 0 42
0 0 42
0 0 42
0 0 42
0 0 42
0 0 42
0 0 42
0 0 42
0 0 42
0 0 42
0 0 42
0 0 41
0 0 42
0 0 42
0 0 42
0 0 42
0 0 40
0 0 42
0 0 42
2 0 39
3 0 34
29 25 29
147 145 152
196 176 157
131 106 67
117 89 49
132 109 69
140 113 72
172 152 107
130 114 70
107 92 64
66 52 30
64 58 34
66 67 34
52 60 22
40 50 15
63 72 31
50 60 13
44 58 6
37 55 0
41 59 9
45 61 15
37 54 4
29 48 0
28 48 5
30 46 5
36 46 15
59 66 40
57 63 31
62 68 34
69 76 38
72 73 40
76 77 44
75 77 43
69 70 37
71 69 37
70 65 34
74 69 35
76 78 41
67 70 32
75 74 38
79 75 38
76 74 38
81 78 44
65 68 34
51 56 21
67 68 34
62 65 22
50 67 36
11 16 30
0 0 39
0 0 45
0 0 42
0 0 42
0 0 42
0 0 42
0 0 42
0 0 42
0 0 42
0 0 42
0 0 42
0 0 42
0 0 42
146 155 170
223 237 255
223 237 255
223 237 255
223 237 255
223 237 255
223 237 255
223 237 255
223 237 255
223 237 255
223 237 255
223 237 255
223 237 255
223 237 255
223 237 255
223 237 255
223 237 255
223 237 255
223 237 255
223 237 255
223 237 255
223 237 255
223 237 255
223 237 255
223 237 255
223 237 255
223 237 255
223 237 255
223 237 255
223 237 255
223 237 255
223 237 255
223 237 255
223 237 255
223 237 255
223 237 255
223 237 255
223 237 255
223 237 255
223 237 255
223 237 255
223 237 255
223 237 255
223 237 255
223 237 255
223 237 255
223 237 255
223 237 255
223 237 255
223 237 255
223 237 255
223 237 255
223 237 255
223 237 255
223 237 255
223 237 255
223 237 255
223 237 255
223 237 255
223 237 255
223 237 255
223 237 255
223 237 255
223 237 255
223 237 255
223 237 255
223 237 255
223 237 255
223 237 255
223 237 255
223 237 255
223 237 255
223 237 255
223 237 255
223 237 255
223 237 255
223 237 255
223 237 255
223 237 255
223 237 255
223 237 255
223 237 255
223 237 255
223 237 255
223 237 255
223 237 255
223 237 255
223 237 255
223 237 255
223 237 255
223 237 255
223 237 255
223 237 255
223 237 255
223 237 255
223 237 255
223 237 255
223 237 255
223 237 255
223 237 255
223 237 255
223 237 255
223 237 255
223 237 255
223 237 255
223 237 255
223 237 255
223 237 255
223 237 255
223 237 255
223 237 255
223 237 255
223 237 255
223 237 255
223 237 255
223 237 255
223 237 255
223 237 255
223 237 255
223 237 255
223 237 255
223 237 255
223 237 255
223 237 255
223 237 255
223 237 255
223 237 255
223 237 255
223 237 255
223 237 255
223 237 255
223 237 255
223 237 255
223 237 255
223 237 255
223 237 255
223 237 255
223 237 255
223 237 255
223 237 255
223 237 255
223 237 255
223 237 255
223 237 255
223 237 255
223 237 255
223 237 255
223 237 255
223 237 255
223 237 255
223 237 255
223 237 255
223 237 255
223 237 255
223 237 255
223 237 255
223 237 255
223 237 255
223 237 255
223 237 255
223 237 255
223 237 255
223 237 255
223 237 255
223 237 255
223 237 255
223 237 255
223 237 255
223 237 255
223 237 255
223 237 255
223 237 255
223 237 255
223 237 255
223 237 255
223 237 255
223 237 255
223 237 255
223 237 255
223 237 255
223 237 255
223 237 255
223 237 255
223 237 255
223 237 255
223 237 255
223 237 255
223 237 255
223 237 255
223 237 255
223 237 255
223 237 255
223 237 255
223 237 255
223 237 255
223 237 255
223 237 255
223 237 255
223 237 255
210 222 240
0 0 42
0 0 42
0 0 41
0 0 42
0 0 42
0 0 42
0 0 42
0 0 42
0 0 42
0 0 42
0 0 42
0 0 42
0 0 41
0 0 40
0 0 41
0 0 41
0 0 42
0 0 42
0 0 42
0 0 42
0 0 42
0 0 42
0 0 42
0 0 42
0 0 42
0 0 42
0 0 42
0 0 42
0 0 42
0 0 42
0 0 42
0 0 42
0 0 42
0 0 42
0 0 42
0 0 42
0 0 42
0 0 42
0 0 42
0 0 42
0 0 42
0 0 42
0 0 42
0 0 42
0 0 42
0 0 42
0 0 42
0 0 42
0 0 42
0 0 42
0 0 42
0 0 42
0 0 42
0 0 42
0 0 42
0 0 42
0 0 42
0 0 42
0 0 42
0 0 42
0 0 42
0 0 42
0 0 42
0 0 42
0 0 42
0 0 42
0 0 42
0 0 42
0 0 42
0 0 42
0 0 42
0 0 42
0 0 42
0 0 42
0 0 42
0 0 42
0 0 42
0 0 42
0 0 42
0 0 42
0 0 42
0 0 42
0 0 42
0 0 42
0 0 42
0 0 42
0 0 42
0 0 42
0 0 42
0 0 42
0 0 42
0 0 42
0 0 42
0 0 42
0 0 42
0 0 42
0 0 42
0 0 42
0 0 42
0 0 42
0 0 42
0 0 42
0 0 42
0 0 42
0 0 42
0 0 42
0 0 42
0 0 42
0 0 42
0 0 42
0 0 42
0 0 42
0 0 42
0 0 42
0 0 42
0 0 42
0 0 42
0 0 42
0 0 42
0 0 42
0 0 42
0 0 42
0 0 42
0 0 42
0 0 42
0 0 42
0 0 42
0 0 42
0 0 42
0 0 42
0 0 42
0 0 42
0 0 42
0 0 42
0 0 42
0 0 42
0 0 42
0 0 38
0 3 28
60 56 55
194 175 155
131 109 73
154 128 91
172 152 110
171 146 107
152 131 85
121 102 62
109 91 63
99 86 65
77 70 45
67 67 35
38 44 13
49 59 26
59 64 27
53 59 17
47 59 13
43 58 3
48 64 14
48 63 14
39 56 3
32 52 0
35 53 12
44 58 18
57 66 33
65 72 41
58 64 31
66 72 33
68 72 33
77 78 44
75 76 43
72 75 40
73 76 40
73 73 38
71 70 36
73 72 36
72 76 38
76 79 42
79 76 39
74 70 34
78 76 40
73 73 37
55 59 27
53 55 24
63 64 28
58 66 25
32 43 27
0 5 40
0 0 42
0 0 43
0 0 41
0 0 42
0 0 42
0 0 42
0 0 42
0 0 42
0 0 42
0 0 42
0 0 42
0 0 42
0 0 42
207 220 237
223 237 255
223 237 255
223 237 255
223 237 255
223 237 255
223 237 255
223 237 255
223 237 255
223 237 255
223 237 255
223 237 255
223 237 255
223 237 255
223 237 255
223 237 255
223 237 255
223 237 255
223 237 255
223 237 255
223 237 255
223 237 255
223 237 255
223 237 255
223 237 255
223 237 255
223 237 255
223 237 255
223 237 255
223 237 255
223 237 255
223 237 255
223 237 255
223 237 255
223 237 255
223 237 255
223 237 255
223 237 255
223 237 255
223 237 255
223 237 255
223 237 255
223 237 255
223 237 255
223 237 255
223 237 255
223 237 255
223 237 255
223 237 255
223 237 255
223 237 255
223 237 255
223 237 255
223 237 255
223 237 255
223 237 255
223 237 255
223 237 255
223 237 255
223 237 255
223 237 255
223 237 255
223 237 255
223 237 255
223 237 255
223 237 255
223 237 255
223 237 255
223 237 255
223 237 255
223 237 255
223 237 255
223 237 255
223 237 255
223 237 255
223 237 255
223 237 255
223 237 255
223 237 255
223 237 255
223 237 255
223 237 255
223 237 255
223 237 255
223 237 255
223 237 255
223 237 255
223 237 255
223 237 255
223 237 255
223 237 255
223 237 255
223 237 255
223 237 255
223 237 255
223 237 255
223 237 255
223 237 255
223 237 255
223 237 255
223 237 255
223 237 255
223 237 255
223 237 255
223 237 255
223 237 255
223 237 255
223 237 255
223 237 255
223 237 255
223 237 255
223 237 255
223 237 255
223 237 255
223 237 255
223 237 255
223 237 255
223 237 255
223 237 255
223 237 255
223 237 255
223 237 255
223 237 255
223 237 255
223 237 255
223 237 255
223 237 255
223 237 255
223 237 255
223 237 255
223 237 255
223 237 255
223 237 255
223 237 255
223 237 255
223 237 255
223 237 255
223 237 255
223 237 255
223 237 255
223 237 255
223 237 255
223 237 255
223 237 255
223 237 255
223 237 255
223 237 255
223 237 255
223 237 255
223 237 255
223 237 255
223 237 255
223 237 255
223 237 255
224 237 255
224 237 255
224 237 255
224 237 255
224 237 255
224 237 255
224 237 255
224 237 255
224 237 255
224 237 255
224 237 255
224 237 255
224 237 255
224 237 255
224 237 255
224 237 255
224 237 255
224 237 255
224 237 255
224 237 255
224 237 255
224 237 255
224 237 255
224 237 255
224 237 255
224 237 255
224 237 255
224 237 255
224 237 255
224 237 255
224 237 255
224 237 255
224 237 255
224 237 255
224 237 255
224 237 255
224 237 255
224 237 255
224 237 255
224 237 255
224 237 255
224 237 255
224 237 255
224 237 255
224 237 255
224 237 255
118 125 140
0 0 42
0 0 42
0 0 42
0 0 42
0 0 42
0 0 42
0 0 42
0 0 42
0 0 42
0 0 42
0 0 42
0 0 41
0 0 41
0 0 41
0 0 42
0 0 42
0 0 42
0 0 40
0 0 40
0 0 41
0 0 42
0 0 42
0 0 42
0 0 42
0 0 42
0 0 42
0 0 42
0 0 42
0 0 42
0 0 42
0 0 42
0 0 42
0 0 42
0 0 42
0 0 42
0 0 42
0 0 42
0 0 42
0 0 42
0 0 42
0 0 42
0 0 42
0 0 42
0 0 42
0 0 42
0 0 42
0 0 42
0 0 42
0 0 42
0 0 42
0 0 42
0 0 42
0 0 42
0 0 42
0 0 42
0 0 42
0 0 42
0 0 42
0 0 42
0 0 42
0 0 42
0 0 42
0 0 42
0 0 42
0 0 42
0 0 42
0 0 42
0 0 42
0 0 42
0 0 42
0 0 42
0 0 42
0 0 42
0 0 42
0 0 42
0 0 42
0 0 42
0 0 42
0 0 42
0 0 42
0 0 42
0 0 42
0 0 42
0 0 42
0 0 42
0 0 42
0 0 42
0 0 42
0 0 42
0 0 42
0 0 42
0 0 42
0 0 42
0 0 42
0 0 42
0 0 42
0 0 42
0 0 42
0 0 42
0 0 42
0 0 42
0 0 42
0 0 42
0 0 42
0 0 42
0 0 42
0 0 42
0 0 42
0 0 42
0 0 42
0 0 42
0 0 42
0 0 42
0 0 42
0 0 42
0 0 42
0 0 42
0 0 42
0 0 42
0 0 42
0 0 42
0 0 42
0 0 42
0 0 42
0 0 42
0 0 42
0 0 42
0 0 42
0 0 42
0 0 42
0 0 42
0 0 42
0 0 42
0 0 42
0 0 42
0 0 45
0 0 39
0 7 30
77 68 65
159 137 114
114 89 57
127 99 63
135 114 78
192 165 129
173 153 110
149 130 94
127 108 81
103 89 64
98 90 63
73 73 42
42 48 16
54 62 27
65 65 32
55 59 22
54 64 23
50 62 18
46 59 10
45 59 12
39 58 8
33 51 8
53 68 26
54 67 26
45 54 21
46 52 16
55 60 22
63 68 26
75 77 39
72 72 37
73 75 39
73 78 39
72 78 40
74 78 41
72 74 36
74 74 36
67 72 33
64 68 30
72 71 34
76 75 38
70 69 31
59 60 26
54 57 28
63 64 30
53 56 18
46 55 38
9 12 37
0 0 42
0 0 43
0 0 39
0 0 42
0 0 42
0 0 42
0 0 42
0 0 42
0 0 42
0 0 42
0 0 42
0 0 42
0 0 42
116 123 137
224 237 255
224 237 255
224 237 255
224 237 255
224 237 255
224 237 255
224 237 255
224 237 255
224 237 255
224 237 255
224 237 255
224 237 255
224 237 255
224 237 255
224 237 255
224 237 255
224 237 255
224 237 255
224 237 255
224 237 255
224 237 255
224 237 255
224 237 255
224 237 255
224 237 255
224 237 255
224 237 255
224 237 255
224 237 255
224 237 255
224 237 255
224 237 255
224 237 255
224 237 255
224 237 255
224 237 255
224 237 255
224 237 255
224 237 255
224 237 255
224 237 255
224 237 255
224 237 255
224 237 255
224 237 255
224 237 255
224 237 255
223 237 255
224 237 255
223 237 255
223 237 255
223 237 255
223 237 255
223 237 255
223 237 255
223 237 255
223 237 255
223 237 255
223 237 255
223 237 255
223 237 255
223 237 255
223 237 255
223 237 255
223 237 255
223 237 255
223 237 255
223 237 255
223 237 255
223 237 255
223 237 255
223 237 255
223 237 255
223 237 255
223 237 255
223 237 255
223 237 255
223 237 255
223 237 255
223 237 255
223 237 255
223 237 255
223 237 255
223 237 255
223 237 255
223 237 255
223 237 255
223 237 255
223 237 255
223 237 255
223 237 255
223 237 255
223 237 255
223 237 255
223 237 255
223 237 255
223 237 255
223 237 255
223 237 255
223 237 255
224 237 255
224 237 255
224 237 255
224 237 255
224 237 255
224 237 255
224 237 255
224 237 255
224 237 255
224 237 255
224 237 255
224 237 255
224 237 255
224 237 255
224 237 255
224 237 255
224 237 255
224 237 255
224 237 255
224 237 255
224 237 255
224 237 255
224 237 255
224 237 255
224 237 255
224 237 255
224 237 255
224 237 255
224 237 255
224 237 255
224 237 255
224 237 255
224 237 255
224 237 255
224 237 255
224 237 255
224 237 255
224 237 255
224 237 255
224 237 255
224 237 255
224 237 255
224 237 255
224 237 255
224 237 255
224 237 255
224 237 255
224 237 255
224 237 255
224 237 255
224 237 255
224 237 255
224 237 255
224 237 255
224 237 255
224 237 255
224 237 255
224 237 255
224 237 255
224 237 255
224 237 255
224 237 255
224 237 255
224 237 255
224 237 255
224 237 255
224 237 255
224 237 255
224 237 255
224 237 255
224 237 255
224 237 255
224 237 255
224 237 255
224 237 255
224 237 255
224 237 255
224 237 255
224 237 255
224 237 255
224 237 255
224 237 255
224 237 255
224 237 255
224 237 255
224 237 255
224 237 255
224 237 255
224 237 255
224 237 255
224 237 255
224 237 255
224 237 255
224 237 255
224 237 255
224 237 255
224 237 255
224 237 255
224 237 255
224 237 255
191 202 219
0 0 42
0 0 42
0 0 42
0 0 42
0 0 42
0 0 42
0 0 42
0 0 42
0 0 42
0 0 42
0 0 42
0 0 42
0 0 42
0 0 42
0 0 42
0 0 42
0 0 42
0 0 41
0 0 42
0 0 41
0 0 42
0 0 42
0 0 42
0 0 42
0 0 42
0 0 42
0 0 42
0 0 42
0 0 42
0 0 42
0 0 42
0 0 42
0 0 42
0 0 42
0 0 42
0 0 42
0 0 42
0 0 42
0 0 42
0 0 42
0 0 42
0 0 42
0 0 42
0 0 42
0 0 42
0 0 42
0 0 42
0 0 42
0 0 42
0 0 42
0 0 42
0 0 42
0 0 42
0 0 42
0 0 42
0 0 42
0 0 42
0 0 42
0 0 42
0 0 42
0 0 42
0 0 42
0 0 42
0 0 42
0 0 42
0 0 42
0 0 42
0 0 42
0 0 42
0 0 42
0 0 42
0 0 42
0 0 42
0 0 42
0 0 42
0 0 42
0 0 42
0 0 42
0 0 42
0 0 42
0 0 42
0 0 42
0 0 42
0 0 42
0 0 42
0 0 42
0 0 42
0 0 42
0 0 42
0 0 42
0 0 42
0 0 42
0 0 42
0 0 42
0 0 42
0 0 42
0 0 42
0 0 42
0 0 42
0 0 42
0 0 42
0 0 42
0 0 42
0 0 42
0 0 42
0 0 42
0 0 42
0 0 42
0 0 42
0 0 42
0 0 42
0 0 42
0 0 42
0 0 42
0 0 42
0 0 42
0 0 42
0 0 42
0 0 42
0 0 42
0 0 42
0 0 42
0 0 42
0 0 42
0 0 42
0 0 42
0 0 42
0 0 42
0 0 42
0 0 42
0 0 42
0 0 42
0 0 42
0 0 42
0 0 42
0 0 45
7 8 42
0 6 35
50 39 34
198 181 161
126 100 70
131 105 72
131 107 72
150 123 89
151 126 86
153 131 96
137 118 91
122 107 82
94 86 58
55 54 23
48 54 19
58 62 30
76 73 45
61 63 32
53 60 23
49 58 18
42 53 4
36 51 0
35 55 7
47 63 20
61 76 32
54 64 23
52 61 22
52 58 19
62 67 26
69 74 33
74 75 37
71 72 34
70 75 35
67 73 32
68 75 34
77 84 43
78 81 43
69 73 35
59 67 27
66 70 31
69 68 31
73 75 37
65 65 24
58 61 28
61 63 32
54 56 19
57 67 41
23 27 37
0 0 50
0 0 43
0 0 43
0 0 39
0 0 42
0 0 42
0 0 42
0 0 42
0 0 42
0 0 42
0 0 42
0 0 42
0 0 42
0 0 42
197 209 226
224 237 255
224 237 255
224 237 255
224 237 255
224 237 255
224 237 255
224 237 255
224 237 255
224 237 255
224 237 255
224 237 255
224 237 255
224 237 255
224 237 255
224 237 255
224 237 255
224 237 255
224 237 255
224 237 255
224 237 255
224 237 255
224 237 255
224 237 255
224 237 255
224 237 255
224 237 255
224 237 255
224 237 255
224 237 255
224 237 255
224 237 255
224 237 255
224 237 255
224 237 255
224 237 255
224 237 255
224 237 255
224 237 255
224 237 255
224 237 255
224 237 255
224 237 255
224 237 255
224 237 255
224 237 255
224 237 255
224 237 255
224 237 255
224 237 255
224 237 255
224 237 255
224 237 255
224 237 255
224 237 255
224 237 255
224 237 255
224 237 255
224 237 255
224 237 255
224 237 255
224 237 255
224 237 255
224 237 255
224 237 255
224 237 255
224 237 255
224 237 255
224 237 255
224 237 255
224 237 255
224 237 255
224 237 255
224 237 255
224 237 255
224 237 255
224 237 255
224 237 255
224 237 255
224 237 255
224 237 255
224 237 255
224 237 255
224 237 255
224 237 255
224 237 255
224 237 255
224 237 255
224 237 255
224 237 255
224 237 255
224 237 255
224 237 255
224 237 255
224 237 255
224 237 255
224 237 255
224 237 255
224 237 255
224 237 255
224 237 255
224 237 255
224 237 255
224 237 255
224 237 255
224 237 255
224 237 255
224 237 255
224 237 255
224 237 255
224 237 255
224 237 255
224 237 255
224 237 255
224 237 255
224 237 255
224 237 255
224 237 255
224 237 255
224 237 255
224 237 255
224 237 255
224 237 255
224 237 255
224 237 255
224 237 255
224 237 255
224 237 255
224 237 255
224 237 255
224 237 255
224 237 255
224 237 255
224 237 255
224 237 255
224 237 255
224 237 255
224 237 255
224 237 255
224 237 255
224 237 255
224 237 255
224 237 255
224 237 255
224 237 255
224 237 255
224 237 255
224 237 255
224 237 255
224 237 255
224 237 255
224 237 255
224 237 255
224 237 255
224 237 255
224 237 255
224 237 255
224 237 255
224 237 255
224 237 255
224 237 255
224 237 255
224 237 255
224 237 255
224 237 255
224 237 255
224 237 255
224 237 255
224 237 255
224 237 255
224 237 255
224 237 255
224 237 255
224 237 255
224 237 255
224 237 255
224 237 255
224 237 255
224 237 255
224 237 255
224 237 255
224 237 255
224 237 255
224 237 255
224 237 255
224 237 255
224 237 255
224 237 255
224 237 255
224 237 255
224 237 255
224 237 255
224 237 255
224 237 255
224 237 255
224 237 255
224 237 255
224 237 255
224 237 255
224 237 255
224 237 255
221 235 253
80 85 100
0 0 42
0 0 42
0 0 42
0 0 42
0 0 42
0 0 42
0 0 42
0 0 42
0 0 42
0 0 42
0 0 42
0 0 42
0 0 42
0 0 42
0 0 42
0 0 42
0 0 42
0 0 42
0 0 42
0 0 42
0 0 42
0 0 42
0 0 42
0 0 42
0 0 42
0 0 42
0 0 42
0 0 42
0 0 42
0 0 42
0 0 42
0 0 42
0 0 42
0 0 42
0 0 42
0 0 42
0 0 42
0 0 42
0 0 42
0 0 42
0 0 42
0 0 42
0 0 42
0 0 42
0 0 42
0 0 42
0 0 42
0 0 42
0 0 42
0 0 42
0 0 42
0 0 42
0 0 42
0 0 42
0 0 42
0 0 42
0 0 42
0 0 42
0 0 42
0 0 42
0 0 42
0 0 42
0 0 42
0 0 42
0 0 42
0 0 42
0 0 42
0 0 42
0 0 42
0 0 42
0 0 42
0 0 42
0 0 42
0 0 42
0 0 42
0 0 42
0 0 42
0 0 42
0 0 42
0 0 42
0 0 42
0 0 42
0 0 42
0 0 42
0 0 42
0 0 42
0 0 42
0 0 42
0 0 42
0 0 42
0 0 42
0 0 42
0 0 42
0 0 42
0 0 42
0 0 42
0 0 42
0 0 42
0 0 42
0 0 42
0 0 42
0 0 42
0 0 42
0 0 42
0 0 42
0 0 42
0 0 42
0 0 42
0 0 42
0 0 42
0 0 42
0 0 42
0 0 42
0 0 42
0 0 42
0 0 42
0 0 42
0 0 42
0 0 42
0 0 42
0 0 42
0 0 42
0 0 42
0 0 42
0 0 42
0 0 42
0 0 42
0 0 42
0 0 42
0 0 42
0 0 42
0 0 42
0 0 42
0 0 42
0 0 46
0 0 41
0 3 36
58 45 41
199 177 158
158 130 107
169 144 116
158 134 103
119 91 60
180 156 121
132 108 75
89 68 37
117 102 75
85 77 52
43 42 10
54 60 26
58 59 29
69 66 40
72 73 43
53 59 23
50 58 18
45 54 11
44 59 13
34 54 7
42 55 10
56 68 24
46 56 12
57 67 27
60 68 27
63 68 27
75 81 39
69 70 30
75 79 37
67 73 31
63 72 29
62 71 28
78 86 44
80 83 43
64 70 30
56 65 23
64 68 30
72 72 34
69 73 34
66 68 30
59 62 30
66 70 32
67 75 44
54 64 51
0 0 45
0 0 47
0 0 43
0 0 42
0 0 41
0 0 42
0 0 42
0 0 42
0 0 42
0 0 42
0 0 42
0 0 42
0 0 42
0 0 42
63 67 83
221 235 253
224 237 255
224 237 255
224 237 255
224 237 255
224 237 255
224 237 255
224 237 255
224 237 255
224 237 255
224 237 255
224 237 255
224 237 255
224 237 255
224 237 255
224 237 255
224 237 255
224 237 255
224 237 255
224 237 255
224 237 255
224 237 255
224 237 255
224 237 255
224 237 255
224 237 255
224 237 255
224 237 255
224 237 255
224 237 255
224 237 255
224 237 255
224 237 255
224 237 255
224 237 255
224 237 255
224 237 255
224 237 255
224 237 255
224 237 255
224 237 255
224 237 255
224 237 255
224 237 255
224 237 255
224 237 255
224 237 255
224 237 255
224 237 255
224 237 255
224 237 255
224 237 255
224 237 255
224 237 255
224 237 255
224 237 255
224 237 255
224 237 255
224 237 255
224 237 255
224 237 255
224 237 255
224 237 255
224 237 255
224 237 255
224 237 255
224 237 255
224 237 255
224 237 255
224 237 255
224 237 255
224 237 255
224 237 255
224 237 255
224 237 255
224 237 255
224 237 255
224 237 255
224 237 255
224 237 255
224 237 255
224 237 255
224 237 255
224 237 255
224 237 255
224 237 255
224 237 255
224 237 255
224 237 255
224 237 255
224 237 255
224 237 255
224 237 255
224 237 255
224 237 255
224 237 255
224 237 255
224 237 255
224 237 255
224 237 255
224 237 255
224 237 255
224 237 255
224 237 255
224 237 255
224 237 255
224 237 255
224 237 255
224 237 255
224 237 255
224 237 255
224 237 255
224 237 255
224 237 255
224 237 255
224 237 255
224 237 255
224 237 255
224 237 255
224 237 255
224 237 255
224 237 255
224 237 255
224 237 255
224 237 255
224 237 255
224 237 255
224 237 255
224 237 255
224 237 255
224 237 255
224 237 255
224 237 255
224 237 255
224 237 255
224 237 255
224 237 255
224 237 255
224 237 255
224 237 255
224 237 255
224 237 255
224 237 255
224 237 255
224 237 255
224 237 255
224 237 255
224 237 255
224 237 255
224 237 255
224 237 255
224 237 255
224 237 255
224 237 255
224 237 255
224 237 255
224 237 255
224 237 255
224 237 255
224 237 255
224 237 255
224 237 255
224 237 255
224 237 255
224 237 255
224 237 255
224 237 255
224 237 255
224 237 255
224 237 255
224 237 255
224 237 255
224 237 255
224 237 255
224 237 255
224 237 255
224 237 255
224 237 255
224 237 255
224 237 255
224 237 255
224 237 255
224 237 255
224 237 255
224 237 255
224 237 255
224 237 255
224 237 255
224 237 255
224 237 255
224 237 255
224 237 255
224 237 255
224 237 255
224 237 255
224 237 255
224 237 255
224 237 255
224 237 255
224 237 255
224 237 255
224 237 255
177 188 204
0 0 42
0 0 42
0 0 42
0 0 42
0 0 42
0 0 42
0 0 41
0 0 42
0 0 42
0 0 42
0 0 42
0 0 42
0 0 42
0 0 42
0 0 42
0 0 42
0 0 42
0 0 42
0 0 42
0 0 42
0 0 42
0 0 42
0 0 42
0 0 42
0 0 42
0 0 42
0 0 42
0 0 42
0 0 42
0 0 42
0 0 42
0 0 42
0 0 42
0 0 42
0 0 42
0 0 42
0 0 42
0 0 42
0 0 42
0 0 42
0 0 42
0 0 42
0 0 42
0 0 42
0 0 42
0 0 42
0 0 42
0 0 42
0 0 42
0 0 42
0 0 42
0 0 42
0 0 42
0 0 42
0 0 42
0 0 42
0 0 42
0 0 42
0 0 42
0 0 42
0 0 42
0 0 42
0 0 42
0 0 42
0 0 42
0 0 42
0 0 42
0 0 42
0 0 42
0 0 42
0 0 42
0 0 42
0 0 42
0 0 42
0 0 42
0 0 42
0 0 42
0 0 42
0 0 42
0 0 42
0 0 42
0 0 42
0 0 42
0 0 42
0 0 42
0 0 42
0 0 42
0 0 42
0 0 42
0 0 42
0 0 42
0 0 42
0 0 42
0 0 42
0 0 42
0 0 42
0 0 42
0 0 42
0 0 42
0 0 42
0 0 42
0 0 42
0 0 42
0 0 42
0 0 42
0 0 42
0 0 42
0 0 42
0 0 42
0 0 42
0 0 42
0 0 42
0 0 42
0 0 42
0 0 42
0 0 42
0 0 42
0 0 42
0 0 42
0 0 42
0 0 42
0 0 42
0 0 42
0 0 42
0 0 42
0 0 42
0 0 42
0 0 42
0 0 42
0 0 42
0 0 42
0 0 42
0 0 42
0 0 42
0 0 47
0 0 37
0 0 36
113 95 89
173 147 129
142 113 91
150 125 98
156 129 101
190 160 132
214 188 157
163 139 106
93 71 39
103 89 57
75 68 47
42 43 17
48 53 18
57 58 27
57 55 27
62 66 33
52 58 22
51 57 17
47 55 14
43 59 13
42 60 12
50 63 19
55 67 23
50 62 16
60 72 27
58 67 24
66 73 32
68 73 32
62 66 23
68 75 29
64 74 30
68 79 34
66 76 30
66 74 28
68 74 34
58 67 25
58 67 26
66 69 30
70 73 34
65 70 31
58 63 29
57 63 26
66 72 30
67 81 65
22 30 38
0 0 45
0 0 38
0 0 45
0 0 42
0 0 42
0 0 42
0 0 42
0 0 42
0 0 42
0 0 42
0 0 42
0 0 42
0 0 42
0 0 42
163 172 188
224 237 255
224 237 255
224 237 255
224 237 255
224 237 255
224 237 255
224 237 255
224 237 255
224 237 255
224 237 255
224 237 255
224 237 255
224 237 255
224 237 255
224 237 255
224 237 255
224 237 255
224 237 255
224 237 255
224 237 255
224 237 255
224 237 255
224 237 255
224 237 255
224 237 255
224 237 255
224 237 255
224 237 255
224 237 255
224 237 255
224 237 255
224 237 255
224 237 255
224 237 255
224 237 255
224 237 255
224 237 255
224 237 255
224 237 255
224 237 255
224 237 255
224 237 255
224 237 255
224 237 255
224 237 255
224 237 255
224 237 255
224 237 255
224 237 255
224 237 255
224 237 255
224 237 255
224 237 255
224 237 255
224 237 255
224 237 255
224 237 255
224 237 255
224 237 255
224 237 255
224 237 255
224 237 255
224 237 255
224 237 255
224 237 255
224 237 255
224 237 255
224 237 255
224 237 255
224 237 255
224 237 255
224 237 255
224 237 255
224 237 255
224 237 255
224 237 255
224 237 255
224 237 255
224 237 255
224 237 255
224 237 255
224 237 255
224 237 255
224 237 255
224 237 255
224 237 255
224 237 255
224 237 255
224 237 255
224 237 255
224 237 255
224 237 255
224 237 255
224 237 255
224 237 255
224 237 255
224 237 255
224 237 255
224 237 255
224 237 255
224 237 255
224 237 255
224 237 255
224 237 255
224 237 255
224 237 255
224 237 255
224 237 255
224 237 255
224 237 255
224 237 255
224 237 255
224 237 255
224 237 255
224 237 255
224 237 255
224 237 255
224 237 255
224 237 255
224 237 255
224 237 255
224 237 255
224 237 255
224 237 255
224 237 255
224 237 255
224 237 255
224 237 255
224 237 255
224 237 255
224 237 255
224 237 255
224 237 255
224 237 255
224 237 255
224 237 255
224 237 255
224 237 255
224 237 255
224 237 255
224 237 255
224 237 255
224 237 255
224 237 255
224 237 255
224 237 255
224 237 255
224 237 255
224 237 255
224 237 255
224 237 255
224 237 255
224 237 255
224 237 255
224 237 255
224 237 255
224 237 255
224 237 255
224 237 255
224 237 255
224 237 255
224 237 255
224 237 255
224 237 255
224 237 255
224 237 255
224 237 255
224 237 255
224 237 255
224 237 255
224 237 255
224 237 255
224 237 255
224 237 255
224 237 255
224 237 255
224 237 255
224 237 255
224 237 255
224 237 255
224 237 255
224 237 255
224 237 255
224 237 255
224 237 255
224 237 255
224 237 255
224 237 255
224 237 255
224 237 255
224 237 255
224 237 255
224 237 255
224 237 255
224 237 255
224 237 255
224 237 255
224 237 255
224 237 255
224 237 255
224 237 255
224 237 255
216 229 247
38 41 60
0 0 42
0 0 42
0 0 42
0 0 42
0 0 41
0 0 41
0 0 41
0 0 42
0 0 42
0 0 42
0 0 42
0 0 42
0 0 42
0 0 42
0 0 42
0 0 42
0 0 41
0 0 42
0 0 41
0 0 42
0 0 42
0 0 42
0 0 42
0 0 42
0 0 42
0 0 42
0 0 42
0 0 42
0 0 42
0 0 42
0 0 42
0 0 42
0 0 42
0 0 42
0 0 42
0 0 42
0 0 42
0 0 42
0 0 42
0 0 42
0 0 42
0 0 42
0 0 42
0 0 42
0 0 42
0 0 42
0 0 42
0 0 42
0 0 42
0 0 42
0 0 42
0 0 42
0 0 42
0 0 42
0 0 42
0 0 42
0 0 42
0 0 42
0 0 42
0 0 42
0 0 42
0 0 42
0 0 42
0 0 42
0 0 42
0 0 42
0 0 42
0 0 42
0 0 42
0 0 42
0 0 42
0 0 42
0 0 42
0 0 42
0 0 42
0 0 42
0 0 42
0 0 42
0 0 42
0 0 42
0 0 42
0 0 42
0 0 42
0 0 42
0 0 42
0 0 42
0 0 42
0 0 42
0 0 42
0 0 42
0 0 42
0 0 42
0 0 42
0 0 42
0 0 42
0 0 42
0 0 42
0 0 42
0 0 42
0 0 42
0 0 42
0 0 42
0 0 42
0 0 42
0 0 42
0 0 42
0 0 42
0 0 42
0 0 42
0 0 42
0 0 42
0 0 42
0 0 42
0 0 42
0 0 42
0 0 42
0 0 42
0 0 42
0 0 42
0 0 42
0 0 42
0 0 42
0 0 42
0 0 42
0 0 42
0 0 42
0 0 42
0 0 42
0 0 42
0 0 42
0 0 42
0 0 42
0 0 42
0 0 47
0 0 37
0 0 33
120 102 96
190 166 150
160 131 112
133 109 82
154 127 100
153 123 97
180 152 120
142 117 82
112 94 59
113 101 70
89 84 61
46 48 17
50 57 23
56 57 27
59 60 29
57 62 28
60 67 29
49 54 12
48 58 16
45 63 18
44 60 14
53 67 24
55 69 25
54 68 23
55 69 25
59 70 28
57 63 24
67 74 30
65 74 29
61 71 27
76 88 43
72 84 37
73 83 37
73 79 35
67 73 33
58 69 28
60 69 28
64 67 28
63 68 28
55 60 23
51 58 24
44 51 19
49 57 34
33 40 37
0 1 36
0 0 41
0 0 39
0 0 44
0 0 42
0 0 42
0 0 42
0 0 42
0 0 42
0 0 42
0 0 42
0 0 42
0 0 42
0 0 42
38 41 60
217 230 248
224 237 255
224 237 255
224 237 255
224 237 255
224 237 255
224 237 255
224 237 255
224 237 255
224 237 255
224 237 255
224 237 255
224 237 255
224 237 255
224 237 255
224 237 255
224 237 255
224 237 255
224 237 255
224 237 255
224 237 255
224 237 255
224 237 255
224 237 255
224 237 255
224 237 255
224 237 255
224 237 255
224 237 255
224 237 255
224 237 255
224 237 255
224 237 255
224 237 255
224 237 255
224 237 255
224 237 255
224 237 255
224 237 255
224 237 255
224 237 255
224 237 255
224 237 255
224 237 255
224 237 255
224 237 255
224 237 255
224 237 255
224 237 255
224 237 255
224 237 255
224 237 255
224 237 255
224 237 255
224 237 255
224 237 255
224 237 255
224 237 255
224 237 255
224 237 255
224 237 255
224 237 255
224 237 255
224 237 255
224 237 255
224 237 255
224 237 255
224 237 255
224 237 255
224 237 255
224 237 255
224 237 255
224 237 255
224 237 255
224 237 255
224 237 255
224 237 255
224 237 255
224 237 255
224 237 255
224 237 255
224 237 255
224 237 255
224 237 255
224 237 255
224 237 255
224 237 255
224 237 255
224 237 255
224 237 255
224 237 255
224 237 255
224 237 255
224 237 255
224 237 255
224 237 255
224 237 255
224 237 255
224 237 255
224 237 255
224 237 255
224 237 255
224 237 255
224 237 255
224 237 255
224 237 255
224 237 255
224 237 255
224 237 255
224 237 255
224 237 255
224 237 255
224 237 255
224 237 255
224 237 255
224 237 255
224 237 255
224 237 255
224 237 255
224 237 255
224 237 255
224 237 255
224 237 255
224 237 255
224 237 255
224 237 255
224 237 255
224 237 255
224 237 255
224 237 255
224 237 255
224 237 255
224 237 255
224 237 255
224 237 255
224 237 255
224 237 255
224 237 255
224 237 255
224 237 255
224 237 255
224 237 255
224 237 255
224 237 255
224 237 255
224 237 255
224 237 255
224 237 255
224 237 255
224 237 255
224 237 255
224 237 255
224 237 255
224 237 255
224 237 255
224 237 255
224 237 255
224 237 255
224 237 255
224 237 255
224 237 255
224 237 255
224 237 255
224 237 255
224 237 255
224 237 255
224 237 255
224 237 255
224 237 255
224 237 255
224 237 255
224 237 255
224 237 255
224 237 255
224 237 255
224 237 255
224 237 255
224 237 255
224 237 255
224 237 255
224 237 255
224 237 255
224 237 255
224 237 255
224 237 255
224 237 255
224 237 255
224 237 255
224 237 255
224 237 255
224 237 255
224 237 255
224 237 255
224 237 255
224 237 255
224 237 255
224 237 255
224 237 255
224 237 255
224 237 255
224 237 255
224 237 255
224 237 255
224 237 255
152 161 176
0 0 42
0 0 42
0 0 42
0 0 42
0 0 42
0 0 42
0 0 40
0 0 40
0 0 41
0 0 42
0 0 42
0 0 42
0 0 42
0 0 42
0 0 42
0 0 42
0 0 42
0 0 42
0 0 42
0 0 41
0 0 41
0 0 41
0 0 42
0 0 42
0 0 42
0 0 42
0 0 42
0 0 42
0 0 42
0 0 42
0 0 42
0 0 42
0 0 42
0 0 42
0 0 42
0 0 42
0 0 42
0 0 42
0 0 42
0 0 42
0 0 42
0 0 42
0 0 42
0 0 42
0 0 42
0 0 42
0 0 42
0 0 42
0 0 42
0 0 42
0 0 42
0 0 42
0 0 42
0 0 42
0 0 42
0 0 42
0 0 42
0 0 42
0 0 42
0 0 42
0 0 42
0 0 42
0 0 42
0 0 42
0 0 42
0 0 42
0 0 42
0 0 42
0 0 42
0 0 42
0 0 42
0 0 42
0 0 42
0 0 42
0 0 42
0 0 42
0 0 42
0 0 42
0 0 42
0 0 42
0 0 42
0 0 42
0 0 42
0 0 42
0 0 42
0 0 42
0 0 42
0 0 42
0 0 42
0 0 42
0 0 42
0 0 42
0 0 42
0 0 42
0 0 42
0 0 42
0 0 42
0 0 42
0 0 42
0 0 42
0 0 42
0 0 42
0 0 42
0 0 42
0 0 42
0 0 42
0 0 42
0 0 42
0 0 42
0 0 42
0 0 42
0 0 42
0 0 42
0 0 42
0 0 42
0 0 42
0 0 42
0 0 42
0 0 42
0 0 42
0 0 42
0 0 42
0 0 42
0 0 42
0 0 42
0 0 42
0 0 42
0 0 42
0 0 42
0 0 42
0 0 42
0 0 42
0 0 43
0 0 46
0 0 35
10 7 32
138 116 107
210 188 174
156 126 107
120 96 69
156 126 98
155 125 99
147 120 89
119 96 58
134 117 81
108 99 70
56 54 34
38 41 10
52 60 25
63 66 35
56 61 26
56 63 25
54 60 20
59 66 25
58 69 28
44 61 16
37 51 0
48 61 19
49 63 19
48 64 17
59 73 31
57 68 25
65 72 32
70 79 33
63 73 29
68 80 34
76 88 42
65 76 31
67 76 31
64 70 26
56 64 20
61 71 30
63 71 33
56 64 24
54 65 27
45 57 21
52 64 35
45 55 43
32 36 40
0 0 37
0 0 41
0 0 42
0 0 42
0 0 42
0 0 42
0 0 42
0 0 42
0 0 42
0 0 42
0 0 42
0 0 42
0 0 42
0 0 42
0 0 42
153 162 178
224 237 255
224 237 255
224 237 255
224 237 255
224 237 255
224 237 255
224 237 255
224 237 255
224 237 255
224 237 255
224 237 255
224 237 255
224 237 255
224 237 255
224 237 255
224 237 255
224 237 255
224 237 255
224 237 255
224 237 255
224 237 255
224 237 255
224 237 255
224 237 255
224 237 255
224 237 255
224 237 255
224 237 255
224 237 255
224 237 255
224 237 255
224 237 255
224 237 255
224 237 255
224 237 255
224 237 255
224 237 255
224 237 255
224 237 255
224 237 255
224 237 255
224 237 255
224 237 255
224 237 255
224 237 255
224 237 255
224 237 255
224 237 255
224 237 255
224 237 255
224 237 255
224 237 255
224 237 255
224 237 255
224 237 255
224 237 255
224 237 255
224 237 255
224 237 255
224 237 255
224 237 255
224 237 255
224 237 255
224 237 255
224 237 255
224 237 255
224 237 255
224 237 255
224 237 255
224 237 255
224 237 255
224 237 255
224 237 255
224 237 255
224 237 255
224 237 255
224 237 255
224 237 255
224 237 255
224 237 255
224 237 255
224 237 255
224 237 255
224 237 255
224 237 255
224 237 255
224 237 255
224 237 255
224 237 255
224 237 255
224 237 255
224 237 255
224 237 255
224 237 255
224 237 255
224 237 255
224 237 255
224 237 255
224 237 255
224 237 255
224 237 255
224 237 255
224 237 255
224 237 255
224 237 255
224 237 255
224 237 255
224 237 255
224 237 255
224 237 255
224 237 255
224 237 255
224 237 255
224 237 255
224 237 255
224 237 255
224 237 255
224 237 255
224 237 255
224 237 255
224 237 255
224 237 255
224 237 255
224 237 255
224 237 255
224 237 255
224 237 255
224 237 255
224 237 255
224 237 255
224 237 255
224 237 255
224 237 255
224 237 255
224 237 255
224 237 255
224 237 255
224 237 255
224 237 255
224 237 255
224 237 255
224 237 255
224 237 255
224 237 255
224 237 255
224 237 255
224 237 255
224 237 255
224 237 255
224 237 255
224 237 255
224 237 255
224 237 255
224 237 255
224 237 255
224 237 255
224 237 255
224 237 255
224 237 255
224 237 255
224 237 255
224 237 255
224 237 255
224 237 255
224 237 255
224 237 255
224 237 255
224 237 255
224 237 255
224 237 255
224 237 255
224 237 255
224 237 255
224 237 255
224 237 255
224 237 255
224 237 255
224 237 255
224 237 255
224 237 255
224 237 255
224 237 255
224 237 255
224 237 255
224 237 255
224 237 255
224 237 255
224 237 255
224 237 255
224 237 255
224 237 255
224 237 255
224 237 255
224 237 255
224 237 255
224 237 255
224 237 255
224 237 255
224 237 255
224 237 255
224 237 255
224 237 255
224 237 255
224 237 255
217 230 248
38 41 60
0 0 42
0 0 42
0 0 42
0 0 42
0 0 41
0 0 41
0 0 42
0 0 42
0 0 42
0 0 42
0 0 42
0 0 42
0 0 42
0 0 42
0 0 42
0 0 42
0 0 42
0 0 42
0 0 43
0 0 41
0 0 42
0 0 42
0 0 42
0 0 42
0 0 42
0 0 42
0 0 42
0 0 42
0 0 42
0 0 42
0 0 42
0 0 42
0 0 42
0 0 42
0 0 42
0 0 42
0 0 42
0 0 42
0 0 42
0 0 42
0 0 42
0 0 42
0 0 42
0 0 42
0 0 42
0 0 42
0 0 42
0 0 42
0 0 42
0 0 42
0 0 42
0 0 42
0 0 42
0 0 42
0 0 42
0 0 42
0 0 42
0 0 42
0 0 42
0 0 42
0 0 42
0 0 42
0 0 42
0 0 42
0 0 42
0 0 42
0 0 42
0 0 42
0 0 42
0 0 42
0 0 42
0 0 42
0 0 42
0 0 42
0 0 42
0 0 42
0 0 42
0 0 42
0 0 42
0 0 42
0 0 42
0 0 42
0 0 42
0 0 42
0 0 42
0 0 42
0 0 42
0 0 42
0 0 42
0 0 42
0 0 42
0 0 42
0 0 42
0 0 42
0 0 42
0 0 42
0 0 42
0 0 42
0 0 42
0 0 42
0 0 42
0 0 42
0 0 42
0 0 42
0 0 42
0 0 42
0 0 42
0 0 42
0 0 42
0 0 42
0 0 42
0 0 42
0 0 42
0 0 42
0 0 42
0 0 42
0 0 42
0 0 42
0 0 42
0 0 42
0 0 42
0 0 42
0 0 42
0 0 42
0 0 42
0 0 42
0 0 42
0 0 42
0 0 42
0 0 42
0 0 42
0 0 43
0 0 42
0 0 37
37 28 39
156 132 122
176 150 132
177 150 131
146 123 97
152 121 95
149 119 91
135 108 75
150 127 91
162 148 116
72 65 42
30 35 9
49 56 24
50 56 19
67 72 38
53 60 24
51 59 21
55 64 24
77 88 47
69 83 42
41 56 11
40 53 11
40 55 13
46 62 19
43 57 16
57 69 27
64 73 28
71 78 32
67 75 32
77 88 43
75 84 40
63 73 30
50 60 15
53 64 21
61 70 23
55 64 26
66 76 38
53 64 27
56 67 36
41 49 38
7 10 26
17 20 32
0 0 35
0 0 46
0 0 46
0 0 42
0 0 42
0 0 42
0 0 42
0 0 42
0 0 42
0 0 42
0 0 42
0 0 42
0 0 42
0 0 42
0 0 42
0 0 42
38 41 60
211 224 241
224 237 255
224 237 255
224 237 255
224 237 255
224 237 255
224 237 255
224 237 255
224 237 255
224 237 255
224 237 255
224 237 255
224 237 255
224 237 255
224 237 255
224 237 255
224 237 255
224 237 255
224 237 255
224 237 255
224 237 255
224 237 255
224 237 255
224 237 255
224 237 255
224 237 255
224 237 255
224 237 255
224 237 255
224 237 255
224 237 255
224 237 255
224 237 255
224 237 255
224 237 255
224 237 255
224 237 255
224 237 255
224 237 255
224 237 255
224 237 255
224 237 255
224 237 255
224 237 255
224 237 255
224 237 255
224 237 255
224 237 255
224 237 255
224 237 255
224 237 255
224 237 255
224 237 255
224 237 255
224 237 255
224 237 255
224 237 255
224 237 255
224 237 255
224 237 255
224 237 255
224 237 255
224 237 255
224 237 255
224 237 255
224 237 255
224 237 255
224 237 255
224 237 255
224 237 255
224 237 255
224 237 255
224 237 255
224 237 255
224 237 255
224 237 255
224 237 255
224 237 255
224 237 255
224 237 255
224 237 255
224 237 255
224 237 255
224 237 255
224 237 255
224 237 255
224 237 255
224 237 255
224 237 255
224 237 255
224 237 255
224 237 255
224 237 255
224 237 255
224 237 255
224 237 255
224 237 255
224 237 255
224 237 255
224 237 255
224 237 255
224 237 255
224 237 255
224 237 255
224 237 255
224 237 255
224 237 255
224 237 255
224 237 255
224 237 255
224 237 255
224 237 255
224 237 255
224 237 255
224 237 255
224 237 255
224 237 255
224 237 255
224 237 255
224 237 255
224 237 255
224 237 255
224 237 255
224 237 255
224 237 255
224 237 255
224 237 255
224 237 255
224 237 255
224 237 255
224 237 255
224 237 255
224 237 255
224 237 255
224 237 255
224 237 255
224 237 255
224 237 255
224 237 255
224 237 255
224 237 255
224 237 255
224 237 255
224 237 255
224 237 255
224 237 255
224 237 255
224 237 255
224 237 255
224 237 255
224 237 255
224 237 255
224 237 255
224 237 255
224 237 255
224 237 255
224 237 255
224 237 255
224 237 255
224 237 255
224 237 255
224 237 255
224 237 255
224 237 255
224 237 255
224 237 255
224 237 255
224 237 255
224 237 255
224 237 255
224 237 255
224 237 255
224 237 255
224 237 255
224 237 255
224 237 255
224 237 255
224 237 255
224 237 255
224 237 255
224 237 255
224 237 255
224 237 255
224 237 255
224 237 255
224 237 255
224 237 255
224 237 255
224 237 255
224 237 255
224 237 255
224 237 255
224 237 255
224 237 255
224 237 255
224 237 255
224 237 255
224 237 255
224 237 255
224 237 255
224 237 255
224 237 255
224 237 255
224 237 255
224 237 255
224 237 255
141 150 165
0 0 42
0 0 42
0 0 42
0 0 42
0 0 42
0 0 41
0 0 40
0 0 40
0 0 42
0 0 42
0 0 42
0 0 42
0 0 42
0 0 42
0 0 42
0 0 42
0 0 42
0 0 42
0 0 42
0 0 39
0 0 41
0 0 42
0 0 42
0 0 42
0 0 42
0 0 42
0 0 42
0 0 42
0 0 42
0 0 42
0 0 42
0 0 42
0 0 42
0 0 42
0 0 42
0 0 42
0 0 42
0 0 42
0 0 42
0 0 42
0 0 42
0 0 42
0 0 42
0 0 42
0 0 42
0 0 42
0 0 42
0 0 42
0 0 42
0 0 42
0 0 42
0 0 42
0 0 42
0 0 42
0 0 42
0 0 42
0 0 42
0 0 42
0 0 42
0 0 42
0 0 42
0 0 42
0 0 42
0 0 42
0 0 42
0 0 42
0 0 42
0 0 42
0 0 42
0 0 42
0 0 42
0 0 42
0 0 42
0 0 42
0 0 42
0 0 42
0 0 42
0 0 42
0 0 42
0 0 42
0 0 42
0 0 42
0 0 42
0 0 42
0 0 42
0 0 42
0 0 42
0 0 42
0 0 42
0 0 42
0 0 42
0 0 42
0 0 42
0 0 42
0 0 42
0 0 42
0 0 42
0 0 42
0 0 42
0 0 42
0 0 42
0 0 42
0 0 42
0 0 42
0 0 42
0 0 42
0 0 42
0 0 42
0 0 42
0 0 42
0 0 42
0 0 42
0 0 42
0 0 42
0 0 42
0 0 42
0 0 42
0 0 42
0 0 42
0 0 42
0 0 42
0 0 42
0 0 42
0 0 42
0 0 42
0 0 42
0 0 42
0 0 42
0 0 42
0 0 42
0 0 42
0 0 39
0 0 43
0 0 36
77 64 61
158 131 115
174 143 117
158 135 110
137 113 93
148 119 98
152 127 97
148 118 86
161 135 107
128 115 87
46 47 27
46 56 22
60 68 31
59 63 25
65 71 34
58 65 27
50 58 19
43 53 13
51 63 22
51 65 25
41 57 12
37 52 6
49 66 25
46 63 21
45 58 17
65 77 32
67 76 31
64 72 25
71 81 36
65 75 32
58 68 24
54 65 21
56 67 25
53 64 24
57 67 21
60 71 32
49 62 23
58 69 39
28 34 31
7 9 38
0 0 42
0 0 38
0 0 37
0 0 40
0 0 42
0 0 42
0 0 42
0 0 42
0 0 42
0 0 42
0 0 42
0 0 42
0 0 42
0 0 42
0 0 42
0 0 42
0 0 42
0 0 42
140 148 163
224 237 255
224 237 255
224 237 255
224 237 255
224 237 255
224 237 255
224 237 255
224 237 255
224 237 255
224 237 255
224 237 255
224 237 255
224 237 255
224 237 255
224 237 255
224 237 255
224 237 255
224 237 255
224 237 255
224 237 255
224 237 255
224 237 255
224 237 255
224 237 255
224 237 255
224 237 255
224 237 255
224 237 255
224 237 255
224 237 255
224 237 255
224 237 255
224 237 255
224 237 255
224 237 255
224 237 255
224 237 255
224 237 255
224 237 255
224 237 255
224 237 255
224 237 255
224 237 255
224 237 255
224 237 255
224 237 255
224 237 255
224 237 255
224 237 255
224 237 255
224 237 255
224 237 255
224 237 255
224 237 255
224 237 255
224 237 255
224 237 255
224 237 255
224 237 255
224 237 255
224 237 255
224 237 255
224 237 255
224 237 255
224 237 255
224 237 255
224 237 255
224 237 255
224 237 255
224 237 255
224 237 255
224 237 255
224 237 255
224 237 255
224 237 255
224 237 255
224 237 255
224 237 255
224 237 255
224 237 255
224 237 255
224 237 255
224 237 255
224 237 255
224 237 255
224 237 255
224 237 255
224 237 255
224 237 255
224 237 255
224 237 255
224 237 255
224 237 255
224 237 255
224 237 255
224 237 255
224 237 255
224 237 255
224 237 255
224 237 255
224 237 255
224 237 255
224 237 255
224 237 255
224 237 255
224 237 255
224 237 255
224 237 255
224 237 255
224 237 255
224 237 255
224 237 255
224 237 255
224 237 255
224 237 255
224 237 255
224 237 255
224 237 255
224 237 255
224 237 255
224 237 255
224 237 255
224 237 255
224 237 255
224 237 255
224 237 255
224 237 255
224 237 255
224 237 255
224 237 255
224 237 255
224 237 255
224 237 255
224 237 255
224 237 255
224 237 255
224 237 255
224 237 255
224 237 255
224 237 255
224 237 255
224 237 255
224 237 255
224 237 255
224 237 255
224 237 255
224 237 255
224 237 255
224 237 255
224 237 255
224 237 255
224 237 255
224 237 255
224 237 255
224 237 255
224 237 255
224 237 255
224 237 255
224 237 255
224 237 255
224 237 255
224 237 255
224 237 255
224 237 255
224 237 255
224 237 255
224 237 255
224 237 255
224 237 255
224 237 255
224 237 255
224 237 255
224 237 255
224 237 255
224 237 255
224 237 255
224 237 255
224 237 255
224 237 255
224 237 255
224 237 255
224 237 255
224 237 255
224 237 255
224 237 255
224 237 255
224 237 255
224 237 255
224 237 255
224 237 255
224 237 255
224 237 255
224 237 255
224 237 255
224 237 255
224 237 255
224 237 255
224 237 255
224 237 255
224 237 255
224 237 255
224 237 255
224 237 255
224 237 255
224 237 255
224 237 255
214 226 244
38 41 60
0 0 42
0 0 42
0 0 42
0 0 42
0 0 42
0 0 42
0 0 42
0 0 42
0 0 42
0 0 42
0 0 42
0 0 42
0 0 42
0 0 42
0 0 42
0 0 42
0 0 42
0 0 42
0 0 42
0 0 42
0 0 42
0 0 42
0 0 42
0 0 42
0 0 42
0 0 42
0 0 42
0 0 42
0 0 42
0 0 42
0 0 42
0 0 42
0 0 42
0 0 42
0 0 42
0 0 42
0 0 42
0 0 42
0 0 42
0 0 42
0 0 42
0 0 42
0 0 42
0 0 42
0 0 42
0 0 42
0 0 42
0 0 42
0 0 42
0 0 42
0 0 42
0 0 42
0 0 42
0 0 42
0 0 42
0 0 42
0 0 42
0 0 42
0 0 42
0 0 42
0 0 42
0 0 42
0 0 42
0 0 42
0 0 42
0 0 42
0 0 42
0 0 42
0 0 42
0 0 42
0 0 42
0 0 42
0 0 42
0 0 42
0 0 42
0 0 42
0 0 42
0 0 42
0 0 42
0 0 42
0 0 42
0 0 42
0 0 42
0 0 42
0 0 42
0 0 42
0 0 42
0 0 42
0 0 42
0 0 42
0 0 42
0 0 42
0 0 42
0 0 42
0 0 42
0 0 42
0 0 42
0 0 42
0 0 42
0 0 42
0 0 42
0 0 42
0 0 42
0 0 42
0 0 42
0 0 42
0 0 42
0 0 42
0 0 42
0 0 42
0 0 42
0 0 42
0 0 42
0 0 42
0 0 42
0 0 42
0 0 42
0 0 42
0 0 42
0 0 42
0 0 42
0 0 42
0 0 42
0 0 42
0 0 42
0 0 42
0 0 42
0 0 42
0 0 42
0 0 41
0 0 38
0 0 44
38 36 47
157 142 144
174 143 121
157 127 99
134 112 85
181 155 138
147 119 98
170 143 113
154 125 95
175 154 127
102 97 71
28 35 12
62 73 39
63 67 29
61 66 28
57 64 27
54 64 25
48 58 17
53 65 25
55 70 30
45 61 20
48 65 24
39 56 9
46 64 21
45 62 18
41 55 13
60 72 28
65 76 30
69 79 34
72 84 38
60 72 26
51 63 19
43 55 12
44 57 17
48 60 25
45 57 19
34 48 13
19 29 15
6 10 20
0 0 30
0 0 40
0 0 38
0 0 39
0 0 44
0 0 44
0 0 42
0 0 42
0 0 42
0 0 42
0 0 42
0 0 42
0 0 42
0 0 42
0 0 42
0 0 42
0 0 42
0 0 42
0 0 42
38 41 60
215 227 245
224 237 255
224 237 255
224 237 255
224 237 255
224 237 255
224 237 255
224 237 255
224 237 255
224 237 255
224 237 255
224 237 255
224 237 255
224 237 255
224 237 255
224 237 255
224 237 255
224 237 255
224 237 255
224 237 255
224 237 255
224 237 255
224 237 255
224 237 255
224 237 255
224 237 255
224 237 255
224 237 255
224 237 255
224 237 255
224 237 255
224 237 255
224 237 255
224 237 255
224 237 255
224 237 255
224 237 255
224 237 255
224 237 255
224 237 255
224 237 255
224 237 255
224 237 255
224 237 255
224 237 255
224 237 255
224 237 255
224 237 255
224 237 255
224 237 255
224 237 255
224 237 255
224 237 255
224 237 255
224 237 255
224 237 255
224 237 255
224 237 255
224 237 255
224 237 255
224 237 255
224 237 255
224 237 255
224 237 255
224 237 255
224 237 255
224 237 255
224 237 255
224 237 255
224 237 255
224 237 255
224 237 255
224 237 255
224 237 255
224 237 255
224 237 255
224 237 255
224 237 255
224 237 255
224 237 255
224 237 255
224 237 255
224 237 255
224 237 255
224 237 255
224 237 255
224 237 255
224 237 255
224 237 255
224 237 255
224 237 255
224 237 255
224 237 255
224 237 255
224 237 255
224 237 255
224 237 255
224 237 255
224 237 255
224 237 255
224 237 255
224 237 255
224 237 255
224 237 255
224 237 255
224 237 255
224 237 255
224 237 255
224 237 255
224 237 255
224 237 255
224 237 255
224 237 255
224 237 255
224 237 255
224 237 255
224 237 255
224 237 255
224 237 255
224 237 255
224 237 255
224 237 255
224 237 255
224 237 255
224 237 255
224 237 255
224 237 255
224 237 255
224 237 255
224 237 255
224 237 255
224 237 255
224 237 255
224 237 255
224 237 255
224 237 255
224 237 255
224 237 255
224 237 255
224 237 255
224 237 255
224 237 255
224 237 255
224 237 255
224 237 255
224 237 255
224 237 255
224 237 255
224 237 255
224 237 255
224 237 255
224 237 255
224 237 255
224 237 255
224 237 255
224 237 255
224 237 255
224 237 255
224 237 255
224 237 255
224 237 255
224 237 255
224 237 255
224 237 255
224 237 255
224 237 255
224 237 255
224 237 255
224 237 255
224 237 255
224 237 255
224 237 255
224 237 255
224 237 255
224 237 255
224 237 255
224 237 255
224 237 255
224 237 255
224 237 255
224 237 255
224 237 255
224 237 255
224 237 255
224 237 255
224 237 255
224 237 255
224 237 255
224 237 255
224 237 255
224 237 255
224 237 255
224 237 255
224 237 255
224 237 255
224 237 255
224 237 255
224 237 255
224 237 255
224 237 255
224 237 255
224 237 255
224 237 255
224 237 255
224 237 255
224 237 255
224 237 255
224 237 255
165 174 190
0 0 42
0 0 42
0 0 42
0 0 42
0 0 42
0 0 42
0 0 42
0 0 42
0 0 42
0 0 42
0 0 42
0 0 42
0 0 42
0 0 42
0 0 42
0 0 42
0 0 42
0 0 42
0 0 42
0 0 41
0 0 41
0 0 42
0 0 42
0 0 42
0 0 42
0 0 42
0 0 42
0 0 42
0 0 42
0 0 42
0 0 42
0 0 42
0 0 42
0 0 42
0 0 42
0 0 42
0 0 42
0 0 42
0 0 42
0 0 42
0 0 42
0 0 42
0 0 42
0 0 42
0 0 42
0 0 42
0 0 42
0 0 42
0 0 42
0 0 42
0 0 42
0 0 42
0 0 42
0 0 42
0 0 42
0 0 42
0 0 42
0 0 42
0 0 42
0 0 42
0 0 42
0 0 42
0 0 42
0 0 42
0 0 42
0 0 42
0 0 42
0 0 42
0 0 42
0 0 42
0 0 42
0 0 42
0 0 42
0 0 42
0 0 42
0 0 42
0 0 42
0 0 42
0 0 42
0 0 42
0 0 42
0 0 42
0 0 42
0 0 42
0 0 42
0 0 42
0 0 42
0 0 42
0 0 42
0 0 42
0 0 42
0 0 42
0 0 42
0 0 42
0 0 42
0 0 42
0 0 42
0 0 42
0 0 42
0 0 42
0 0 42
0 0 42
0 0 42
0 0 42
0 0 42
0 0 42
0 0 42
0 0 42
0 0 42
0 0 42
0 0 42
0 0 42
0 0 42
0 0 42
0 0 42
0 0 42
0 0 42
0 0 42
0 0 42
0 0 42
0 0 42
0 0 42
0 0 42
0 0 42
0 0 42
0 0 42
0 0 42
0 0 42
0 0 42
0 0 41
0 0 39
4 4 42
31 26 35
169 149 139
169 137 111
153 123 95
164 138 109
165 137 118
139 108 86
160 130 102
158 133 105
136 123 98
34 35 12
40 50 19
50 58 24
69 71 34
59 65 27
51 59 19
47 56 16
41 52 11
38 51 10
56 72 34
40 57 17
41 59 12
43 60 11
44 62 15
42 59 13
40 54 11
48 61 19
53 66 22
56 70 26
54 67 23
49 63 21
51 64 24
38 50 14
43 56 17
27 41 8
30 44 13
26 37 21
1 5 35
0 0 42
0 0 37
0 0 39
0 0 41
0 0 45
0 0 49
0 0 43
0 0 42
0 0 42
0 0 42
0 0 42
0 0 42
0 0 42
0 0 42
0 0 42
0 0 42
0 0 42
0 0 42
0 0 42
0 0 42
160 169 185
224 237 255
224 237 255
224 237 255
224 237 255
224 237 255
224 237 255
224 237 255
224 237 255
224 237 255
224 237 255
224 237 255
224 237 255
224 237 255
224 237 255
224 237 255
224 237 255
224 237 255
224 237 255
224 237 255
224 237 255
224 237 255
224 237 255
224 237 255
224 237 255
224 237 255
224 237 255
224 237 255
224 237 255
224 237 255
224 237 255
224 237 255
224 237 255
224 237 255
224 237 255
224 237 255
224 237 255
224 237 255
224 237 255
224 237 255
224 237 255
224 237 255
224 237 255
224 237 255
224 237 255
224 237 255
224 237 255
224 237 255
224 237 255
224 237 255
224 237 255
224 237 255
224 237 255
224 237 255
224 237 255
224 237 255
224 237 255
224 237 255
224 237 255
224 237 255
224 237 255
224 237 255
224 237 255
224 237 255
224 237 255
224 237 255
224 237 255
224 237 255
224 237 255
224 237 255
224 237 255
224 237 255
224 237 255
224 237 255
224 237 255
224 237 255
224 237 255
224 237 255
224 237 255
224 237 255
224 237 255
224 237 255
224 237 255
224 237 255
224 237 255
224 237 255
224 237 255
224 237 255
224 237 255
224 237 255
224 237 255
224 237 255
224 237 255
224 237 255
224 237 255
224 237 255
224 237 255
224 237 255
224 237 255
224 237 255
224 237 255
224 237 255
224 237 255
224 237 255
224 237 255
224 237 255
224 237 255
224 237 255
224 237 255
224 237 255
224 237 255
224 237 255
224 237 255
224 237 255
224 237 255
224 237 255
224 237 255
224 237 255
224 237 255
224 237 255
224 237 255
224 237 255
224 237 255
224 237 255
224 237 255
224 237 255
224 237 255
224 237 255
224 237 255
224 237 255
224 237 255
224 237 255
224 237 255
224 237 255
224 237 255
224 237 255
224 237 255
224 237 255
224 237 255
224 237 255
224 237 255
224 237 255
224 237 255
224 237 255
224 237 255
224 237 255
224 237 255
224 237 255
224 237 255
224 237 255
224 237 255
224 237 255
224 237 255
224 237 255
224 237 255
224 237 255
224 237 255
224 237 255
224 237 255
224 237 255
224 237 255
224 237 255
224 237 255
224 237 255
224 237 255
224 237 255
224 237 255
224 237 255
224 237 255
224 237 255
224 237 255
224 237 255
224 237 255
224 237 255
224 237 255
224 237 255
224 237 255
224 237 255
224 237 255
224 237 255
224 237 255
224 237 255
224 237 255
224 237 255
224 237 255
224 237 255
224 237 255
224 237 255
224 237 255
224 237 255
224 237 255
224 237 255
224 237 255
224 237 255
224 237 255
224 237 255
224 237 255
224 237 255
224 237 255
224 237 255
224 237 255
224 237 255
224 237 255
224 237 255
224 237 255
224 237 255
224 237 255
224 237 255
224 237 255
210 222 240
22 23 49
0 0 42
0 0 42
0 0 42
0 0 42
0 0 42
0 0 42
0 0 42
0 0 42
0 0 42
0 0 42
0 0 42
0 0 42
0 0 42
0 0 42
0 0 42
0 0 42
0 0 42
0 0 42
0 0 42
0 0 42
0 0 42
0 0 42
0 0 42
0 0 42
0 0 42
0 0 42
0 0 42
0 0 42
0 0 42
0 0 42
0 0 42
0 0 42
0 0 42
0 0 42
0 0 42
0 0 42
0 0 42
0 0 42
0 0 42
0 0 42
0 0 42
0 0 42
0 0 42
0 0 42
0 0 42
0 0 42
0 0 42
0 0 42
0 0 42
0 0 42
0 0 42
0 0 42
0 0 42
0 0 42
0 0 42
0 0 42
0 0 42
0 0 42
0 0 42
0 0 42
0 0 42
0 0 42
0 0 42
0 0 42
0 0 42
0 0 42
0 0 42
0 0 42
0 0 42
0 0 42
0 0 42
0 0 42
0 0 42
0 0 42
0 0 42
0 0 42
0 0 42
0 0 42
0 0 42
0 0 42
0 0 42
0 0 42
0 0 42
0 0 42
0 0 42
0 0 42
0 0 42
0 0 42
0 0 42
0 0 42
0 0 42
0 0 42
0 0 42
0 0 42
0 0 42
0 0 42
0 0 42
0 0 42
0 0 42
0 0 42
0 0 42
0 0 42
0 0 42
0 0 42
0 0 42
0 0 42
0 0 42
0 0 42
0 0 42
0 0 42
0 0 42
0 0 42
0 0 42
0 0 42
0 0 42
0 0 42
0 0 42
0 0 42
0 0 42
0 0 42
0 0 42
0 0 42
0 0 42
0 0 42
0 0 42
0 0 42
0 0 42
0 0 42
0 0 42
0 0 40
8 8 44
72 65 70
177 152 136
193 157 130
164 135 107
143 118 91
142 113 94
161 129 108
163 133 109
120 99 71
80 73 48
58 68 38
36 45 22
54 59 27
51 53 13
51 59 20
51 61 22
47 58 16
41 53 12
36 50 7
39 55 14
39 55 13
38 55 3
46 63 15
41 58 12
44 59 12
40 54 12
49 63 22
50 65 25
52 67 25
47 62 20
47 60 19
38 52 15
50 63 26
38 52 15
21 37 9
18 29 21
3 5 38
0 0 49
0 0 46
0 0 40
0 0 39
0 0 39
0 0 38
0 0 37
0 0 42
0 0 42
0 0 42
0 0 42
0 0 42
0 0 42
0 0 42
0 0 42
0 0 42
0 0 42
0 0 42
0 0 42
0 0 42
59 62 79
211 224 241
224 237 255
224 237 255
224 237 255
224 237 255
224 237 255
224 237 255
224 237 255
224 237 255
224 237 255
224 237 255
224 237 255
224 237 255
224 237 255
224 237 255
224 237 255
224 237 255
224 237 255
224 237 255
224 237 255
224 237 255
224 237 255
224 237 255
224 237 255
224 237 255
224 237 255
224 237 255
224 237 255
224 237 255
224 237 255
224 237 255
224 237 255
224 237 255
224 237 255
224 237 255
224 237 255
224 237 255
224 237 255
224 237 255
224 237 255
224 237 255
224 237 255
224 237 255
224 237 255
224 237 255
224 237 255
224 237 255
224 237 255
224 237 255
224 237 255
224 237 255
224 237 255
224 237 255
224 237 255
224 237 255
224 237 255
224 237 255
224 237 255
224 237 255
224 237 255
224 237 255
224 237 255
224 237 255
224 237 255
224 237 255
224 237 255
224 237 255
224 237 255
224 237 255
224 237 255
224 237 255
224 237 255
224 237 255
224 237 255
224 237 255
224 237 255
224 237 255
224 237 255
224 237 255
224 237 255
224 237 255
224 237 255
224 237 255
224 237 255
224 237 255
224 237 255
224 237 255
224 237 255
224 237 255
224 237 255
224 237 255
224 237 255
224 237 255
224 237 255
224 237 255
224 237 255
224 237 255
224 237 255
224 237 255
224 237 255
224 237 255
224 237 255
224 237 255
224 237 255
224 237 255
224 237 255
224 237 255
224 237 255
224 237 255
224 237 255
224 237 255
224 237 255
224 237 255
224 237 255
224 237 255
224 237 255
224 237 255
224 237 255
224 237 255
224 237 255
224 237 255
224 237 255
224 237 255
224 237 255
224 237 255
224 237 255
224 237 255
224 237 255
224 237 255
224 237 255
224 237 255
224 237 255
224 237 255
224 237 255
224 237 255
224 237 255
224 237 255
224 237 255
224 237 255
224 237 255
224 237 255
224 237 255
224 237 255
224 237 255
224 237 255
224 237 255
224 237 255
224 237 255
224 237 255
224 237 255
224 237 255
224 237 255
224 237 255
224 237 255
224 237 255
224 237 255
224 237 255
224 237 255
224 237 255
224 237 255
224 237 255
224 237 255
224 237 255
224 237 255
224 237 255
224 237 255
224 237 255
224 237 255
224 237 255
224 237 255
224 237 255
224 237 255
224 237 255
224 237 255
224 237 255
224 237 255
224 237 255
224 237 255
224 237 255
224 237 255
224 237 255
224 237 255
224 237 255
224 237 255
224 237 255
224 237 255
224 237 255
224 237 255
224 237 255
224 237 255
224 237 255
224 237 255
224 237 255
224 237 255
224 237 255
224 237 255
224 237 255
224 237 255
224 237 255
224 237 255
224 237 255
224 237 255
224 237 255
224 237 255
224 237 255
224 237 255
224 237 255
224 237 255
224 237 255
224 237 255
166 176 191
0 0 42
0 0 42
0 0 42
0 0 42
0 0 42
0 0 42
0 0 42
0 0 42
0 0 42
0 0 42
0 0 42
0 0 42
0 0 42
0 0 42
0 0 42
0 0 42
0 0 42
0 0 42
0 0 42
0 0 42
0 0 42
0 0 42
0 0 42
0 0 42
0 0 42
0 0 42
0 0 42
0 0 42
0 0 42
0 0 42
0 0 42
0 0 42
0 0 42
0 0 42
0 0 42
0 0 42
0 0 42
0 0 42
0 0 42
0 0 42
0 0 42
0 0 42
0 0 42
0 0 42
0 0 42
0 0 42
0 0 42
0 0 42
0 0 42
0 0 42
0 0 42
0 0 42
0 0 42
0 0 42
0 0 42
0 0 42
0 0 42
0 0 42
0 0 42
0 0 42
0 0 42
0 0 42
0 0 42
0 0 42
0 0 42
0 0 42
0 0 42
0 0 42
0 0 42
0 0 42
0 0 42
0 0 42
0 0 42
0 0 42
0 0 42
0 0 42
0 0 42
0 0 42
0 0 42
0 0 42
0 0 42
0 0 42
0 0 42
0 0 42
0 0 42
0 0 42
0 0 42
0 0 42
0 0 42
0 0 42
0 0 42
0 0 42
0 0 42
0 0 42
0 0 42
0 0 42
0 0 42
0 0 42
0 0 42
0 0 42
0 0 42
0 0 42
0 0 42
0 0 42
0 0 42
0 0 42
0 0 42
0 0 42
0 0 42
0 0 42
0 0 42
0 0 42
0 0 42
0 0 42
0 0 42
0 0 42
0 0 42
0 0 42
0 0 42
0 0 42
0 0 42
0 0 42
0 0 42
0 0 42
0 0 42
0 0 42
0 0 42
0 0 42
0 0 41
0 0 42
0 0 39
105 93 91
146 117 93
180 143 116
157 129 102
120 95 67
175 146 128
157 122 102
157 132 110
89 77 51
54 55 26
37 46 18
65 76 45
56 63 29
52 57 16
48 57 17
43 54 16
44 56 18
43 55 17
41 54 13
33 47 11
38 54 17
46 62 17
53 70 25
47 61 15
48 62 18
42 57 18
43 58 20
41 55 18
47 60 19
46 60 19
55 68 32
41 53 20
46 58 23
39 55 17
18 30 21
2 3 42
0 0 46
0 0 43
0 0 48
0 0 46
0 0 44
0 0 41
0 0 40
0 0 40
0 0 42
0 0 42
0 0 42
0 0 42
0 0 42
0 0 42
0 0 42
0 0 42
0 0 42
0 0 42
0 0 42
0 0 42
0 0 42
160 169 185
224 237 255
224 237 255
224 237 255
224 237 255
224 237 255
224 237 255
224 237 255
224 237 255
224 237 255
224 237 255
224 237 255
224 237 255
224 237 255
224 237 255
224 237 255
224 237 255
224 237 255
224 237 255
224 237 255
224 237 255
224 237 255
224 237 255
224 237 255
224 237 255
224 237 255
224 237 255
224 237 255
224 237 255
224 237 255
224 237 255
224 237 255
224 237 255
224 237 255
224 237 255
224 237 255
224 237 255
224 237 255
224 237 255
224 237 255
224 237 255
224 237 255
224 237 255
224 237 255
224 237 255
224 237 255
224 237 255
224 237 255
224 237 255
224 237 255
224 237 255
224 237 255
224 237 255
224 237 255
224 237 255
224 237 255
224 237 255
224 237 255
224 237 255
224 237 255
224 237 255
224 237 255
224 237 255
224 237 255
224 237 255
224 237 255
224 237 255
224 237 255
224 237 255
224 237 255
224 237 255
224 237 255
224 237 255
224 237 255
224 237 255
224 237 255
224 237 255
224 237 255
224 237 255
224 237 255
224 237 255
224 237 255
224 237 255
224 237 255
224 237 255
224 237 255
224 237 255
224 237 255
224 237 255
224 237 255
224 237 255
224 237 255
224 237 255
224 237 255
224 237 255
224 237 255
224 237 255
224 237 255
224 237 255
224 237 255
224 237 255
224 237 255
224 237 255
224 237 255
224 237 255
224 237 255
224 237 255
224 237 255
224 237 255
224 237 255
224 237 255
224 237 255
224 237 255
224 237 255
224 237 255
224 237 255
224 237 255
224 237 255
224 237 255
224 237 255
224 237 255
224 237 255
224 237 255
224 237 255
224 237 255
224 237 255
224 237 255
224 237 255
224 237 255
224 237 255
224 237 255
224 237 255
224 237 255
224 237 255
224 237 255
224 237 255
224 237 255
224 237 255
224 237 255
224 237 255
224 237 255
224 237 255
224 237 255
224 237 255
224 237 255
224 237 255
224 237 255
224 237 255
224 237 255
224 237 255
224 237 255
224 237 255
224 237 255
224 237 255
224 237 255
224 237 255
224 237 255
224 237 255
224 237 255
224 237 255
224 237 255
224 237 255
224 237 255
224 237 255
224 237 255
224 237 255
224 237 255
224 237 255
224 237 255
224 237 255
224 237 255
224 237 255
224 237 255
224 237 255
224 237 255
224 237 255
224 237 255
224 237 255
224 237 255
224 237 255
224 237 255
224 237 255
224 237 255
224 237 255
224 237 255
224 237 255
224 237 255
224 237 255
224 237 255
224 237 255
224 237 255
224 237 255
224 237 255
224 237 255
224 237 255
224 237 255
224 237 255
224 237 255
224 237 255
224 237 255
224 237 255
224 237 255
224 237 255
224 237 255
224 237 255
224 237 255
224 237 255
224 237 255
224 237 255
224 237 255
224 237 255
219 231 249
84 88 103
0 0 42
0 0 42
0 0 42
0 0 42
0 0 42
0 0 42
0 0 42
0 0 42
0 0 41
0 0 42
0 0 42
0 0 42
0 0 42
0 0 42
0 0 42
0 0 42
0 0 42
0 0 42
0 0 42
0 0 42
0 0 42
0 0 42
0 0 42
0 0 42
0 0 42
0 0 42
0 0 42
0 0 42
0 0 42
0 0 42
0 0 42
0 0 42
0 0 42
0 0 42
0 0 42
0 0 42
0 0 42
0 0 42
0 0 42
0 0 42
0 0 42
0 0 42
0 0 42
0 0 42
0 0 42
0 0 42
0 0 42
0 0 42
0 0 42
0 0 42
0 0 42
0 0 42
0 0 42
0 0 42
0 0 42
0 0 42
0 0 42
0 0 42
0 0 42
0 0 42
0 0 42
0 0 42
0 0 42
0 0 42
0 0 42
0 0 42
0 0 42
0 0 42
0 0 42
0 0 42
0 0 42
0 0 42
0 0 42
0 0 42
0 0 42
0 0 42
0 0 42
0 0 42
0 0 42
0 0 42
0 0 42
0 0 42
0 0 42
0 0 42
0 0 42
0 0 42
0 0 42
0 0 42
0 0 42
0 0 42
0 0 42
0 0 42
0 0 42
0 0 42
0 0 42
0 0 42
0 0 42
0 0 42
0 0 42
0 0 42
0 0 42
0 0 42
0 0 42
0 0 42
0 0 42
0 0 42
0 0 42
0 0 42
0 0 42
0 0 42
0 0 42
0 0 42
0 0 42
0 0 42
0 0 42
0 0 42
0 0 42
0 0 42
0 0 42
0 0 42
0 0 42
0 0 42
0 0 42
0 0 42
0 0 42
0 0 42
0 0 42
0 0 41
5 0 42
3 0 28
98 82 70
150 119 91
159 122 96
136 111 87
129 106 83
133 105 85
177 147 126
115 96 73
100 93 67
45 47 18
60 69 39
53 63 29
56 65 24
46 56 14
46 56 17
41 51 14
50 62 25
46 57 19
41 53 14
47 61 24
40 53 16
42 56 16
53 65 26
51 64 22
46 58 18
48 63 26
29 43 10
48 62 22
55 69 30
42 54 19
32 42 7
46 55 22
40 51 17
32 46 22
8 13 34
0 0 48
0 0 36
0 0 38
0 0 43
0 0 42
0 0 43
0 0 45
0 0 44
0 0 42
0 0 42
0 0 42
0 0 42
0 0 42
0 0 42
0 0 42
0 0 42
0 0 42
0 0 42
0 0 42
0 0 42
0 0 42
77 82 97
222 235 253
224 237 255
224 237 255
224 237 255
224 237 255
224 237 255
224 237 255
224 237 255
224 237 255
224 237 255
224 237 255
224 237 255
224 237 255
224 237 255
224 237 255
224 237 255
224 237 255
224 237 255
224 237 255
224 237 255
224 237 255
224 237 255
224 237 255
224 237 255
224 237 255
224 237 255
224 237 255
224 237 255
224 237 255
224 237 255
224 237 255
224 237 255
224 237 255
224 237 255
224 237 255
224 237 255
224 237 255
224 237 255
224 237 255
224 237 255
224 237 255
224 237 255
224 237 255
224 237 255
224 237 255
224 237 255
224 237 255
224 237 255
224 237 255
224 237 255
224 237 255
224 237 255
224 237 255
224 237 255
224 237 255
224 237 255
224 237 255
224 237 255
224 237 255
224 237 255
224 237 255
224 237 255
224 237 255
224 237 255
224 237 255
224 237 255
224 237 255
224 237 255
224 237 255
224 237 255
224 237 255
224 237 255
224 237 255
224 237 255
224 237 255
224 237 255
224 237 255
224 237 255
224 237 255
224 237 255
224 237 255
224 237 255
224 237 255
224 237 255
224 237 255
224 237 255
224 237 255
224 237 255
224 237 255
224 237 255
224 237 255
224 237 255
224 237 255
224 237 255
224 237 255
224 237 255
224 237 255
224 237 255
224 237 255
224 237 255
224 237 255
224 237 255
224 237 255
224 237 255
224 237 255
224 237 255
224 237 255
224 237 255
224 237 255
224 237 255
224 237 255
224 237 255
224 237 255
224 237 255
224 237 255
224 237 255
224 237 255
224 237 255
224 237 255
224 237 255
224 237 255
224 237 255
224 237 255
224 237 255
224 237 255
224 237 255
224 237 255
224 237 255
224 237 255
224 237 255
224 237 255
224 237 255
224 237 255
224 237 255
224 237 255
224 237 255
224 237 255
224 237 255
224 237 255
224 237 255
224 237 255
224 237 255
224 237 255
224 237 255
224 237 255
224 237 255
224 237 255
224 237 255
224 237 255
224 237 255
224 237 255
224 237 255
224 237 255
224 237 255
224 237 255
224 237 255
224 237 255
224 237 255
224 237 255
224 237 255
224 237 255
224 237 255
224 237 255
224 237 255
224 237 255
224 237 255
224 237 255
224 237 255
224 237 255
224 237 255
224 237 255
224 237 255
224 237 255
224 237 255
224 237 255
224 237 255
224 237 255
224 237 255
224 237 255
224 237 255
224 237 255
224 237 255
224 237 255
224 237 255
224 237 255
224 237 255
224 237 255
224 237 255
224 237 255
224 237 255
224 237 255
224 237 255
224 237 255
224 237 255
224 237 255
224 237 255
224 237 255
224 237 255
224 237 255
224 237 255
224 237 255
224 237 255
224 237 255
224 237 255
224 237 255
224 237 255
224 237 255
224 237 255
224 237 255
224 237 255
224 237 255
224 237 255
194 205 222
0 0 42
0 0 42
0 0 42
0 0 42
0 0 42
0 0 42
0 0 42
0 0 41
0 0 41
0 0 42
0 0 42
0 0 42
0 0 42
0 0 42
0 0 42
0 0 42
0 0 42
0 0 42
0 0 42
0 0 42
0 0 42
0 0 42
0 0 42
0 0 42
0 0 42
0 0 42
0 0 42
0 0 42
0 0 42
0 0 42
0 0 42
0 0 42
0 0 42
0 0 42
0 0 42
0 0 42
0 0 42
0 0 42
0 0 42
0 0 42
0 0 42
0 0 42
0 0 42
0 0 42
0 0 42
0 0 42
0 0 42
0 0 42
0 0 42
0 0 42
0 0 42
0 0 42
0 0 42
0 0 42
0 0 42
0 0 42
0 0 42
0 0 42
0 0 42
0 0 42
0 0 42
0 0 42
0 0 42
0 0 42
0 0 42
0 0 42
0 0 42
0 0 42
0 0 42
0 0 42
0 0 42
0 0 42
0 0 42
0 0 42
0 0 42
0 0 42
0 0 42
0 0 42
0 0 42
0 0 42
0 0 42
0 0 42
0 0 42
0 0 42
0 0 42
0 0 42
0 0 42
0 0 42
0 0 42
0 0 42
0 0 42
0 0 42
0 0 42
0 0 42
0 0 42
0 0 42
0 0 42
0 0 42
0 0 42
0 0 42
0 0 42
0 0 42
0 0 42
0 0 42
0 0 42
0 0 42
0 0 42
0 0 42
0 0 42
0 0 42
0 0 42
0 0 42
0 0 42
0 0 42
0 0 42
0 0 42
0 0 42
0 0 42
0 0 42
0 0 42
0 0 42
0 0 42
0 0 42
0 0 42
0 0 42
0 0 42
0 0 42
0 0 43
2 0 40
22 18 31
134 117 103
123 90 58
123 91 69
117 95 73
131 114 95
130 104 87
153 130 110
112 98 68
81 77 49
55 57 31
57 63 31
52 64 23
48 63 16
49 59 19
49 60 20
41 52 15
46 56 21
50 60 23
55 67 29
56 69 32
49 61 24
46 55 20
54 63 27
49 58 21
45 56 19
44 59 21
27 42 4
48 61 23
50 63 24
48 59 24
33 42 9
35 42 10
30 38 7
29 39 26
0 0 38
0 0 44
0 0 37
0 0 38
0 0 39
0 0 41
0 0 42
0 0 42
0 0 42
0 0 42
0 0 42
0 0 42
0 0 42
0 0 42
0 0 42
0 0 42
0 0 42
0 0 42
0 0 42
0 0 42
0 0 42
0 0 42
181 191 207
224 237 255
224 237 255
224 237 255
224 237 255
224 237 255
224 237 255
224 237 255
224 237 255
224 237 255
224 237 255
224 237 255
224 237 255
224 237 255
224 237 255
224 237 255
224 237 255
224 237 255
224 237 255
224 237 255
224 237 255
224 237 255
224 237 255
224 237 255
224 237 255
224 237 255
224 237 255
224 237 255
224 237 255
224 237 255
224 237 255
224 237 255
224 237 255
224 237 255
224 237 255
224 237 255
224 237 255
224 237 255
224 237 255
224 237 255
224 237 255
224 237 255
224 237 255
224 237 255
224 237 255
224 237 255
224 237 255
224 237 255
224 237 255
224 237 255
224 237 255
224 237 255
224 237 255
224 237 255
224 237 255
224 237 255
224 237 255
224 237 255
224 237 255
224 237 255
224 237 255
224 237 255
224 237 255
224 237 255
224 237 255
224 237 255
224 237 255
224 237 255
224 237 255
224 237 255
224 237 255
224 237 255
224 237 255
224 237 255
224 237 255
224 237 255
224 237 255
224 237 255
224 237 255
224 237 255
224 237 255
224 237 255
224 237 255
224 237 255
224 237 255
224 237 255
224 237 255
224 237 255
224 237 255
224 237 255
224 237 255
224 237 255
224 237 255
224 237 255
224 237 255
224 237 255
224 237 255
224 237 255
224 237 255
224 237 255
224 237 255
224 237 255
224 237 255
224 237 255
224 237 255
224 237 255
224 237 255
224 237 255
224 237 255
224 237 255
224 237 255
224 237 255
224 237 255
224 237 255
224 237 255
224 237 255
224 237 255
224 237 255
224 237 255
224 237 255
224 237 255
224 237 255
224 237 255
224 237 255
224 237 255
224 237 255
224 237 255
224 237 255
224 237 255
224 237 255
224 237 255
224 237 255
224 237 255
224 237 255
224 237 255
224 237 255
224 237 255
224 237 255
224 237 255
224 237 255
224 237 255
224 237 255
224 237 255
224 237 255
224 237 255
224 237 255
224 237 255
224 237 255
224 237 255
224 237 255
224 237 255
224 237 255
224 237 255
224 237 255
224 237 255
224 237 255
224 237 255
224 237 255
224 237 255
224 237 255
224 237 255
224 237 255
224 237 255
224 237 255
224 237 255
224 237 255
224 237 255
224 237 255
224 237 255
224 237 255
224 237 255
224 237 255
224 237 255
224 237 255
224 237 255
224 237 255
224 237 255
224 237 255
224 237 255
224 237 255
224 237 255
224 237 255
224 237 255
224 237 255
224 237 255
224 237 255
224 237 255
224 237 255
224 237 255
224 237 255
224 237 255
224 237 255
224 237 255
224 237 255
224 237 255
224 237 255
224 237 255
224 237 255
224 237 255
224 237 255
224 237 255
224 237 255
224 237 255
224 237 255
224 237 255
224 237 255
224 237 255
224 237 255
224 237 255
224 237 255
224 237 255
224 237 255
224 237 255
224 237 255
118 125 140
0 0 42
0 0 42
0 0 42
0 0 42
0 0 42
0 0 42
0 0 42
0 0 42
0 0 41
0 0 42
0 0 42
0 0 42
0 0 42
0 0 42
0 0 42
0 0 42
0 0 42
0 0 42
0 0 42
0 0 42
0 0 42
0 0 42
0 0 42
0 0 42
0 0 42
0 0 42
0 0 42
0 0 42
0 0 42
0 0 42
0 0 42
0 0 42
0 0 42
0 0 42
0 0 42
0 0 42
0 0 42
0 0 42
0 0 42
0 0 42
0 0 42
0 0 42
0 0 42
0 0 42
0 0 42
0 0 42
0 0 42
0 0 42
0 0 42
0 0 42
0 0 42
0 0 42
0 0 42
0 0 42
0 0 42
0 0 42
0 0 42
0 0 42
0 0 42
0 0 42
0 0 42
0 0 42
0 0 42
0 0 42
0 0 42
0 0 42
0 0 42
0 0 42
0 0 42
0 0 42
0 0 42
0 0 42
0 0 42
0 0 42
0 0 42
0 0 42
0 0 42
0 0 42
0 0 42
0 0 42
0 0 42
0 0 42
0 0 42
0 0 42
0 0 42
0 0 42
0 0 42
0 0 42
0 0 42
0 0 42
0 0 42
0 0 42
0 0 42
0 0 42
0 0 42
0 0 42
0 0 42
0 0 42
0 0 42
0 0 42
0 0 42
0 0 42
0 0 42
0 0 42
0 0 42
0 0 42
0 0 42
0 0 42
0 0 42
0 0 42
0 0 42
0 0 42
0 0 42
0 0 42
0 0 42
0 0 42
0 0 42
0 0 42
0 0 42
0 0 42
0 0 42
0 0 42
0 0 42
0 0 42
0 0 42
0 0 42
5 5 40
0 0 39
59 52 50
141 120 99
156 120 90
173 145 128
128 111 91
140 124 107
175 156 138
147 129 105
119 112 83
68 64 38
61 62 33
66 72 39
45 59 17
45 63 14
50 60 21
51 60 22
56 64 28
61 71 34
60 72 32
47 58 20
50 61 23
44 55 17
45 54 19
55 65 29
53 62 24
43 55 18
33 47 8
34 49 14
48 61 24
45 58 15
47 54 23
44 52 20
42 52 22
34 49 15
29 38 32
0 0 43
0 0 45
0 0 40
0 0 41
0 0 42
0 0 42
0 0 42
0 0 42
0 0 42
0 0 42
0 0 42
0 0 42
0 0 42
0 0 42
0 0 42
0 0 42
0 0 42
0 0 42
0 0 42
0 0 42
0 0 42
100 106 120
224 237 255
224 237 255
224 237 255
224 237 255
224 237 255
224 237 255
224 237 255
224 237 255
224 237 255
224 237 255
224 237 255
224 237 255
224 237 255
224 237 255
224 237 255
224 237 255
224 237 255
224 237 255
224 237 255
224 237 255
224 237 255
224 237 255
224 237 255
224 237 255
224 237 255
224 237 255
224 237 255
224 237 255
224 237 255
224 237 255
224 237 255
224 237 255
224 237 255
224 237 255
224 237 255
224 237 255
224 237 255
224 237 255
224 237 255
224 237 255
224 237 255
224 237 255
224 237 255
224 237 255
224 237 255
224 237 255
224 237 255
224 237 255
224 237 255
224 237 255
224 237 255
224 237 255
224 237 255
224 237 255
224 237 255
224 237 255
224 237 255
224 237 255
224 237 255
224 237 255
224 237 255
224 237 255
224 237 255
224 237 255
224 237 255
224 237 255
224 237 255
224 237 255
224 237 255
224 237 255
224 237 255
224 237 255
224 237 255
224 237 255
224 237 255
224 237 255
224 237 255
224 237 255
224 237 255
224 237 255
224 237 255
224 237 255
224 237 255
224 237 255
224 237 255
224 237 255
224 237 255
224 237 255
224 237 255
224 237 255
224 237 255
224 237 255
224 237 255
224 237 255
224 237 255
224 237 255
224 237 255
224 237 255
224 237 255
224 237 255
224 237 255
224 237 255
224 237 255
224 237 255
224 237 255
224 237 255
224 237 255
224 237 255
224 237 255
224 237 255
224 237 255
224 237 255
224 237 255
224 237 255
224 237 255
224 237 255
224 237 255
224 237 255
224 237 255
224 237 255
224 237 255
224 237 255
224 237 255
224 237 255
224 237 255
224 237 255
224 237 255
224 237 255
224 237 255
224 237 255
224 237 255
224 237 255
224 237 255
224 237 255
224 237 255
224 237 255
224 237 255
224 237 255
224 237 255
224 237 255
224 237 255
224 237 255
224 237 255
224 237 255
224 237 255
224 237 255
224 237 255
224 237 255
224 237 255
224 237 255
224 237 255
224 237 255
224 237 255
224 237 255
224 237 255
224 237 255
224 237 255
224 237 255
224 237 255
224 237 255
224 237 255
224 237 255
224 237 255
224 237 255
224 237 255
224 237 255
224 237 255
224 237 255
224 237 255
224 237 255
224 237 255
224 237 255
224 237 255
224 237 255
224 237 255
224 237 255
224 237 255
224 237 255
224 237 255
224 237 255
224 237 255
224 237 255
224 237 255
224 237 255
224 237 255
224 237 255
224 237 255
224 237 255
224 237 255
224 237 255
224 237 255
224 237 255
224 237 255
224 237 255
224 237 255
224 237 255
224 237 255
224 237 255
224 237 255
224 237 255
224 237 255
224 237 255
224 237 255
224 237 255
224 237 255
224 237 255
224 237 255
224 237 255
224 237 255
224 237 255
224 237 255
224 237 255
224 237 255
224 237 255
206 217 235
22 23 49
0 0 42
0 0 42
0 0 42
0 0 42
0 0 42
0 0 42
0 0 41
0 0 42
0 0 42
0 0 42
0 0 42
0 0 42
0 0 42
0 0 42
0 0 42
0 0 42
0 0 42
0 0 42
0 0 42
0 0 42
0 0 42
0 0 42
0 0 42
0 0 42
0 0 42
0 0 42
0 0 42
0 0 42
0 0 42
0 0 42
0 0 42
0 0 42
0 0 42
0 0 42
0 0 42
0 0 42
0 0 42
0 0 42
0 0 42
0 0 42
0 0 42
0 0 42
0 0 42
0 0 42
0 0 42
0 0 42
0 0 42
0 0 42
0 0 42
0 0 42
0 0 42
0 0 42
0 0 42
0 0 42
0 0 44
0 0 42
0 0 42
0 0 42
0 0 42
0 0 42
0 0 42
0 0 42
0 0 42
0 0 42
0 0 42
0 0 42
0 0 42
0 0 42
0 0 42
0 0 42
0 0 42
0 0 42
0 0 42
0 0 42
0 0 42
0 0 42
0 0 42
0 0 42
0 0 42
0 0 42
0 0 42
0 0 42
0 0 42
0 0 42
0 0 42
0 0 42
0 0 42
0 0 42
0 0 42
0 0 42
0 0 42
0 0 42
0 0 42
0 0 42
0 0 42
0 0 42
0 0 42
0 0 42
0 0 42
0 0 42
0 0 42
0 0 42
0 0 42
0 0 42
0 0 42
0 0 42
0 0 42
0 0 42
0 0 42
0 0 42
0 0 42
0 0 42
0 0 42
0 0 42
0 0 42
0 0 42
0 0 42
0 0 42
0 0 42
0 0 42
0 0 42
0 0 42
0 0 42
0 0 42
0 0 42
4 4 39
4 0 32
128 116 106
146 123 92
121 94 74
149 126 114
129 117 100
123 107 90
152 135 115
137 129 105
125 123 102
53 59 29
68 75 41
53 61 26
52 65 27
50 62 21
51 59 23
64 68 32
72 78 44
56 65 30
47 60 22
50 63 24
52 65 25
46 57 20
47 56 22
49 59 23
49 59 21
42 51 13
49 63 23
52 68 25
53 67 23
52 63 23
50 57 23
43 52 20
35 46 9
27 41 23
7 9 33
0 0 46
0 0 42
0 0 42
0 0 42
0 0 42
0 0 42
0 0 42
0 0 42
0 0 42
0 0 42
0 0 42
0 0 42
0 0 42
0 0 42
0 0 42
0 0 42
0 0 42
0 0 42
0 0 42
0 0 42
31 33 55
209 221 239
224 237 255
224 237 255
224 237 255
224 237 255
224 237 255
224 237 255
224 237 255
224 237 255
224 237 255
224 237 255
224 237 255
224 237 255
224 237 255
224 237 255
224 237 255
224 237 255
224 237 255
224 237 255
224 237 255
224 237 255
224 237 255
224 237 255
224 237 255
224 237 255
224 237 255
224 237 255
224 237 255
224 237 255
224 237 255
224 237 255
224 237 255
224 237 255
224 237 255
224 237 255
224 237 255
224 237 255
224 237 255
224 237 255
224 237 255
224 237 255
224 237 255
224 237 255
224 237 255
224 237 255
224 237 255
224 237 255
224 237 255
224 237 255
224 237 255
224 237 255
224 237 255
224 237 255
224 237 255
224 237 255
224 237 255
224 237 255
224 237 255
224 237 255
224 237 255
224 237 255
224 237 255
224 237 255
224 237 255
224 237 255
224 237 255
224 237 255
224 237 255
224 237 255
224 237 255
224 237 255
224 237 255
224 237 255
224 237 255
224 237 255
224 237 255
224 237 255
224 237 255
224 237 255
224 237 255
224 237 255
224 237 255
224 237 255
224 237 255
224 237 255
224 237 255
224 237 255
224 237 255
224 237 255
224 237 255
224 237 255
224 237 255
224 237 255
224 237 255
224 237 255
224 237 255
224 237 255
224 237 255
224 237 255
224 237 255
224 237 255
224 237 255
224 237 255
224 237 255
224 237 255
224 237 255
224 237 255
224 237 255
224 237 255
224 237 255
224 237 255
224 237 255
224 237 255
224 237 255
224 237 255
224 237 255
224 237 255
224 237 255
224 237 255
224 237 255
224 237 255
224 237 255
224 237 255
224 237 255
224 237 255
224 237 255
224 237 255
224 237 255
224 237 255
224 237 255
224 237 255
224 237 255
224 237 255
224 237 255
224 237 255
224 237 255
224 237 255
224 237 255
224 237 255
224 237 255
224 237 255
224 237 255
224 237 255
224 237 255
224 237 255
224 237 255
224 237 255
224 237 255
224 237 255
224 237 255
224 237 255
224 237 255
224 237 255
224 237 255
224 237 255
224 237 255
224 237 255
224 237 255
224 237 255
224 237 255
224 237 255
224 237 255
224 237 255
224 237 255
224 237 255
224 237 255
224 237 255
224 237 255
224 237 255
224 237 255
224 237 255
224 237 255
224 237 255
224 237 255
224 237 255
224 237 255
224 237 255
224 237 255
224 237 255
224 237 255
224 237 255
224 237 255
224 237 255
224 237 255
224 237 255
224 237 255
224 237 255
224 237 255
224 237 255
224 237 255
224 237 255
224 237 255
224 237 255
224 237 255
224 237 255
224 237 255
224 237 255
224 237 255
224 237 255
224 237 255
224 237 255
224 237 255
224 237 255
224 237 255
224 237 255
224 237 255
224 237 255
224 237 255
224 237 255
224 237 255
224 237 255
224 237 255
224 237 255
224 237 255
224 237 255
224 237 255
155 164 179
0 0 42
0 0 42
0 0 42
0 0 42
0 0 42
0 0 42
0 0 42
0 0 42
0 0 42
0 0 42
0 0 42
0 0 42
0 0 42
0 0 42
0 0 42
0 0 42
0 0 42
0 0 42
0 0 42
0 0 42
0 0 42
0 0 42
0 0 42
0 0 42
0 0 42
0 0 42
0 0 42
0 0 42
0 0 42
0 0 42
0 0 42
0 0 42
0 0 42
0 0 42
0 0 42
0 0 42
0 0 42
0 0 42
0 0 42
0 0 42
0 0 42
0 0 42
0 0 42
0 0 42
0 0 42
0 0 42
0 0 42
0 0 42
0 0 42
0 0 42
0 0 42
0 0 42
0 0 42
0 0 39
0 0 42
0 0 40
0 0 42
0 0 42
0 0 42
0 0 42
0 0 42
0 0 42
0 0 42
0 0 42
0 0 42
0 0 42
0 0 42
0 0 42
0 0 42
0 0 42
0 0 42
0 0 42
0 0 42
0 0 42
0 0 42
0 0 42
0 0 42
0 0 42
0 0 42
0 0 42
0 0 42
0 0 42
0 0 42
0 0 42
0 0 42
0 0 42
0 0 42
0 0 42
0 0 42
0 0 42
0 0 42
0 0 42
0 0 42
0 0 42
0 0 42
0 0 42
0 0 42
0 0 42
0 0 42
0 0 42
0 0 42
0 0 42
0 0 42
0 0 42
0 0 42
0 0 42
0 0 42
0 0 42
0 0 42
0 0 42
0 0 42
0 0 42
0 0 42
0 0 42
0 0 42
0 0 42
0 0 42
0 0 42
0 0 42
0 0 42
0 0 42
0 0 42
0 0 42
0 0 42
0 0 40
0 0 34
70 66 67
175 156 133
132 114 80
123 103 94
165 146 138
111 102 84
151 136 117
91 75 56
102 97 73
51 52 24
58 65 30
60 69 32
71 80 45
53 63 25
51 62 23
60 65 29
66 69 35
64 70 36
43 53 15
45 60 20
50 63 25
50 61 25
38 46 11
32 39 12
49 56 19
56 64 27
57 67 28
55 68 28
56 71 25
56 68 31
53 63 26
58 68 31
46 55 24
39 50 38
24 29 35
0 0 42
0 0 42
0 0 41
0 0 44
0 0 42
0 0 42
0 0 42
0 0 42
0 0 42
0 0 42
0 0 42
0 0 42
0 0 42
0 0 42
0 0 42
0 0 42
0 0 42
0 0 42
0 0 42
0 0 42
0 0 42
147 155 170
224 237 255
224 237 255
224 237 255
224 237 255
224 237 255
224 237 255
224 237 255
224 237 255
224 237 255
224 237 255
224 237 255
224 237 255
224 237 255
224 237 255
224 237 255
224 237 255
224 237 255
224 237 255
224 237 255
224 237 255
224 237 255
224 237 255
224 237 255
224 237 255
224 237 255
224 237 255
224 237 255
224 237 255
224 237 255
224 237 255
224 237 255
224 237 255
224 237 255
224 237 255
224 237 255
224 237 255
224 237 255
224 237 255
224 237 255
224 237 255
224 237 255
224 237 255
224 237 255
224 237 255
224 237 255
224 237 255
224 237 255
224 237 255
224 237 255
224 237 255
224 237 255
224 237 255
224 237 255
224 237 255
224 237 255
224 237 255
224 237 255
224 237 255
224 237 255
224 237 255
224 237 255
224 237 255
224 237 255
224 237 255
224 237 255
224 237 255
224 237 255
224 237 255
224 237 255
224 237 255
224 237 255
224 237 255
224 237 255
224 237 255
224 237 255
224 237 255
224 237 255
224 237 255
224 237 255
224 237 255
224 237 255
224 237 255
224 237 255
224 237 255
224 237 255
224 237 255
224 237 255
224 237 255
224 237 255
224 237 255
224 237 255
224 237 255
224 237 255
224 237 255
224 237 255
224 237 255
224 237 255
224 237 255
224 237 255
224 237 255
224 237 255
224 237 255
224 237 255
224 237 255
224 237 255
224 237 255
224 237 255
224 237 255
224 237 255
224 237 255
224 237 255
224 237 255
224 237 255
224 237 255
224 237 255
224 237 255
224 237 255
224 237 255
224 237 255
224 237 255
224 237 255
224 237 255
224 237 255
224 237 255
224 237 255
224 237 255
224 237 255
224 237 255
224 237 255
224 237 255
224 237 255
224 237 255
224 237 255
224 237 255
224 237 255
224 237 255
224 237 255
224 237 255
224 237 255
224 237 255
224 237 255
224 237 255
224 237 255
224 237 255
224 237 255
224 237 255
224 237 255
224 237 255
224 237 255
224 237 255
224 237 255
224 237 255
224 237 255
224 237 255
224 237 255
224 237 255
224 237 255
224 237 255
224 237 255
224 237 255
224 237 255
224 237 255
224 237 255
224 237 255
224 237 255
224 237 255
224 237 255
224 237 255
224 237 255
224 237 255
224 237 255
224 237 255
224 237 255
224 237 255
224 237 255
224 237 255
224 237 255
224 237 255
224 237 255
224 237 255
224 237 255
224 237 255
224 237 255
224 237 255
224 237 255
224 237 255
224 237 255
224 237 255
224 237 255
224 237 255
224 237 255
224 237 255
224 237 255
224 237 255
224 237 255
224 237 255
224 237 255
224 237 255
224 237 255
224 237 255
224 237 255
224 237 255
224 237 255
224 237 255
224 237 255
224 237 255
224 237 255
224 237 255
224 237 255
224 237 255
224 237 255
224 237 255
224 237 255
224 237 255
224 237 255
224 237 255
221 234 252
63 67 83
0 0 42
0 0 42
0 0 42
0 0 42
0 0 42
0 0 42
0 0 42
0 0 42
0 0 42
0 0 42
0 0 42
0 0 42
0 0 42
0 0 42
0 0 42
0 0 42
0 0 42
0 0 42
0 0 42
0 0 42
0 0 42
0 0 42
0 0 42
0 0 42
0 0 42
0 0 42
0 0 42
0 0 42
0 0 42
0 0 42
0 0 42
0 0 42
0 0 42
0 0 42
0 0 42
0 0 42
0 0 42
0 0 42
0 0 42
0 0 42
0 0 42
0 0 42
0 0 42
0 0 42
0 0 42
0 0 42
0 0 42
0 0 42
0 0 42
0 0 42
0 0 42
0 0 42
0 0 42
0 0 41
0 0 41
0 0 42
0 0 42
0 0 42
0 0 42
0 0 42
0 0 42
0 0 42
0 0 42
0 0 42
0 0 42
0 0 42
0 0 42
0 0 42
0 0 42
0 0 42
0 0 42
0 0 42
0 0 42
0 0 42
0 0 42
0 0 42
0 0 42
0 0 42
0 0 42
0 0 42
0 0 42
0 0 42
0 0 42
0 0 42
0 0 42
0 0 42
0 0 42
0 0 42
0 0 42
0 0 42
0 0 42
0 0 42
0 0 42
0 0 42
0 0 42
0 0 42
0 0 42
0 0 42
0 0 42
0 0 42
0 0 42
0 0 42
0 0 42
0 0 42
0 0 42
0 0 42
0 0 42
0 0 42
0 0 42
0 0 42
0 0 42
0 0 42
0 0 42
0 0 42
0 0 42
0 0 42
0 0 42
0 0 42
0 0 42
0 0 42
0 0 42
0 0 42
0 0 42
0 0 42
0 0 28
122 112 100
159 137 106
121 100 78
151 130 118
136 118 103
90 76 56
109 89 66
167 156 136
150 147 122
44 46 15
59 65 31
59 65 29
68 74 38
56 65 27
54 64 26
64 69 36
62 66 35
31 37 8
40 51 14
54 67 29
51 61 26
45 53 21
42 47 16
53 58 24
64 70 33
66 74 34
66 75 32
62 76 33
57 71 26
46 54 21
41 49 10
44 53 24
39 50 28
29 35 39
0 0 39
0 0 42
0 0 40
0 0 43
0 0 42
0 0 42
0 0 42
0 0 42
0 0 42
0 0 42
0 0 42
0 0 42
0 0 42
0 0 42
0 0 42
0 0 42
0 0 42
0 0 42
0 0 42
0 0 42
0 0 42
71 75 90
218 230 248
224 237 255
224 237 255
224 237 255
224 237 255
224 237 255
224 237 255
224 237 255
224 237 255
224 237 255
224 237 255
224 237 255
224 237 255
224 237 255
224 237 255
224 237 255
224 237 255
224 237 255
224 237 255
224 237 255
224 237 255
224 237 255
224 237 255
224 237 255
224 237 255
224 237 255
224 237 255
224 237 255
224 237 255
224 237 255
224 237 255
224 237 255
224 237 255
224 237 255
224 237 255
224 237 255
224 237 255
224 237 255
224 237 255
224 237 255
224 237 255
224 237 255
224 237 255
224 237 255
224 237 255
224 237 255
224 237 255
224 237 255
224 237 255
224 237 255
224 237 255
224 237 255
224 237 255
224 237 255
224 237 255
224 237 255
224 237 255
224 237 255
224 237 255
224 237 255
224 237 255
224 237 255
224 237 255
224 237 255
224 237 255
224 237 255
224 237 255
224 237 255
224 237 255
224 237 255
224 237 255
224 237 255
224 237 255
224 237 255
224 237 255
224 237 255
224 237 255
224 237 255
224 237 255
224 237 255
224 237 255
224 237 255
224 237 255
224 237 255
224 237 255
224 237 255
224 237 255
224 237 255
224 237 255
224 237 255
224 237 255
224 237 255
224 237 255
224 237 255
224 237 255
224 237 255
224 237 255
224 237 255
224 237 255
224 237 255
224 237 255
224 237 255
224 237 255
224 237 255
224 237 255
224 237 255
224 237 255
224 237 255
224 237 255
224 237 255
224 237 255
224 237 255
224 237 255
224 237 255
224 237 255
224 237 255
224 237 255
224 237 255
224 237 255
224 237 255
224 237 255
224 237 255
224 237 255
224 237 255
224 237 255
224 237 255
224 237 255
224 237 255
224 237 255
224 237 255
224 237 255
224 237 255
224 237 255
224 237 255
224 237 255
224 237 255
224 237 255
224 237 255
224 237 255
224 237 255
224 237 255
224 237 255
224 237 255
224 237 255
224 237 255
224 237 255
224 237 255
224 237 255
224 237 255
224 237 255
224 237 255
224 237 255
224 237 255
224 237 255
224 237 255
224 237 255
224 237 255
224 237 255
224 237 255
224 237 255
224 237 255
224 237 255
224 237 255
224 237 255
224 237 255
224 237 255
224 237 255
224 237 255
225 237 255
225 237 255
225 237 255
225 237 255
225 237 255
225 237 255
225 237 255
225 237 255
225 237 255
225 237 255
225 237 255
225 237 255
225 237 255
225 237 255
225 237 255
225 237 255
225 237 255
225 237 255
225 237 255
225 237 255
225 237 255
225 237 255
225 237 255
225 237 255
225 237 255
225 237 255
225 237 255
225 237 255
225 237 255
225 237 255
225 237 255
225 237 255
225 237 255
225 237 255
225 237 255
225 237 255
225 237 255
225 237 255
225 237 255
225 237 255
225 237 255
225 237 255
225 237 255
225 237 255
225 237 255
225 237 255
225 237 255
225 237 255
225 237 255
225 237 255
197 208 225
0 0 42
0 0 42
0 0 42
0 0 42
0 0 42
0 0 42
0 0 42
0 0 42
0 0 42
0 0 42
0 0 42
0 0 42
0 0 42
0 0 42
0 0 42
0 0 42
0 0 42
0 0 42
0 0 42
0 0 42
0 0 42
0 0 42
0 0 42
0 0 42
0 0 42
0 0 42
0 0 42
0 0 42
0 0 42
0 0 42
0 0 42
0 0 42
0 0 42
0 0 42
0 0 42
0 0 42
0 0 42
0 0 42
0 0 42
0 0 42
0 0 42
0 0 42
0 0 42
0 0 42
0 0 42
0 0 42
0 0 42
0 0 42
0 0 42
0 0 42
0 0 42
0 0 42
0 0 41
0 0 41
0 0 42
0 0 41
0 0 41
0 0 42
0 0 42
0 0 42
0 0 42
0 0 42
0 0 42
0 0 42
0 0 42
0 0 42
0 0 42
0 0 42
0 0 42
0 0 42
0 0 42
0 0 42
0 0 42
0 0 42
0 0 42
0 0 42
0 0 42
0 0 42
0 0 42
0 0 42
0 0 42
0 0 42
0 0 42
0 0 42
0 0 42
0 0 42
0 0 42
0 0 42
0 0 42
0 0 42
0 0 42
0 0 42
0 0 42
0 0 42
0 0 42
0 0 42
0 0 42
0 0 42
0 0 42
0 0 42
0 0 42
0 0 42
0 0 42
0 0 42
0 0 42
0 0 42
0 0 42
0 0 42
0 0 42
0 0 42
0 0 42
0 0 42
0 0 42
0 0 42
0 0 42
0 0 42
0 0 42
0 0 42
0 0 42
0 0 42
0 0 42
0 0 42
0 0 42
0 0 45
33 33 39
121 111 84
123 100 76
134 112 100
127 106 87
97 81 63
109 91 74
117 98 78
135 125 103
86 82 64
56 58 27
61 63 31
74 76 44
65 69 34
52 59 22
65 75 39
74 80 46
60 65 33
45 53 23
58 71 35
54 66 30
60 68 35
63 69 38
55 59 24
63 66 31
71 75 37
66 71 30
68 78 35
56 70 26
41 51 14
44 52 11
37 45 15
32 41 20
16 20 28
0 0 39
0 0 44
0 0 42
0 0 42
0 0 42
0 0 42
0 0 42
0 0 42
0 0 42
0 0 42
0 0 42
0 0 42
0 0 42
0 0 42
0 0 42
0 0 42
0 0 42
0 0 42
0 0 42
0 0 42
0 0 42
22 23 49
188 199 215
225 237 255
225 237 255
225 237 255
225 237 255
225 237 255
225 237 255
225 237 255
225 237 255
225 237 255
225 237 255
225 237 255
225 237 255
225 237 255
225 237 255
225 237 255
225 237 255
225 237 255
225 237 255
225 237 255
225 237 255
225 237 255
225 237 255
225 237 255
225 237 255
225 237 255
225 237 255
225 237 255
225 237 255
225 237 255
225 237 255
225 237 255
225 237 255
225 237 255
225 237 255
225 237 255
225 237 255
225 237 255
225 237 255
225 237 255
225 237 255
225 237 255
225 237 255
225 237 255
225 237 255
225 237 255
225 237 255
225 237 255
225 237 255
225 237 255
224 237 255
225 237 255
224 237 255
224 237 255
224 237 255
224 237 255
224 237 255
224 237 255
224 237 255
224 237 255
224 237 255
224 237 255
224 237 255
224 237 255
224 237 255
224 237 255
224 237 255
224 237 255
224 237 255
224 237 255
224 237 255
224 237 255
224 237 255
224 237 255
224 237 255
224 237 255
224 237 255
224 237 255
224 237 255
224 237 255
224 237 255
224 237 255
224 237 255
224 237 255
224 237 255
224 237 255
224 237 255
224 237 255
224 237 255
224 237 255
224 237 255
224 237 255
224 237 255
224 237 255
224 237 255
224 237 255
224 237 255
224 237 255
224 237 255
224 237 255
224 237 255
224 237 255
224 237 255
224 237 255
224 237 255
224 237 255
224 237 255
224 237 255
224 237 255
224 237 255
224 237 255
224 237 255
224 237 255
224 237 255
224 237 255
224 237 255
224 237 255
224 237 255
224 237 255
224 237 255
224 237 255
224 237 255
224 237 255
224 237 255
224 237 255
225 237 255
225 237 255
225 237 255
225 237 255
225 237 255
225 237 255
225 237 255
225 237 255
225 237 255
225 237 255
225 237 255
225 237 255
225 237 255
225 237 255
225 237 255
225 237 255
225 237 255
225 237 255
225 237 255
225 237 255
225 237 255
225 237 255
225 237 255
225 237 255
225 237 255
225 237 255
225 237 255
225 237 255
225 237 255
225 237 255
225 237 255
225 237 255
225 237 255
225 237 255
225 237 255
225 237 255
225 237 255
225 237 255
225 237 255
225 237 255
225 237 255
225 237 255
225 237 255
225 237 255
225 237 255
225 237 255
225 237 255
225 237 255
225 237 255
225 237 255
225 237 255
225 237 255
225 237 255
225 237 255
225 237 255
225 237 255
225 237 255
225 237 255
225 237 255
225 237 255
225 237 255
225 237 255
225 237 255
225 237 255
225 237 255
225 237 255
225 237 255
225 237 255
225 237 255
225 237 255
225 237 255
225 237 255
225 237 255
225 237 255
225 237 255
225 237 255
225 237 255
225 237 255
225 237 255
225 237 255
225 237 255
225 237 255
225 237 255
225 237 255
225 237 255
225 237 255
225 237 255
225 237 255
225 237 255
225 237 255
225 237 255
225 237 255
225 237 255
225 237 255
225 237 255
151 159 174
0 0 42
0 0 42
0 0 42
0 0 42
0 0 42
0 0 42
0 0 42
0 0 42
0 0 42
0 0 42
0 0 42
0 0 42
0 0 42
0 0 42
0 0 42
0 0 42
0 0 42
0 0 42
0 0 42
0 0 42
0 0 42
0 0 42
0 0 42
0 0 42
0 0 42
0 0 42
0 0 42
0 0 42
0 0 42
0 0 42
0 0 42
0 0 42
0 0 42
0 0 42
0 0 42
0 0 42
0 0 42
0 0 42
0 0 42
0 0 42
0 0 41
0 0 40
0 0 42
0 0 42
0 0 41
0 0 41
0 0 40
0 0 40
0 0 40
0 0 41
0 0 41
0 0 41
0 0 41
0 0 41
0 0 40
0 0 41
0 0 41
0 0 41
0 0 42
0 0 42
0 0 42
0 0 42
0 0 42
0 0 42
0 0 42
0 0 42
0 0 42
0 0 42
0 0 42
0 0 42
0 0 42
0 0 42
0 0 42
0 0 42
0 0 42
0 0 42
0 0 42
0 0 42
0 0 42
0 0 42
0 0 42
0 0 42
0 0 42
0 0 42
0 0 42
0 0 42
0 0 42
0 0 42
0 0 42
0 0 42
0 0 42
0 0 42
0 0 42
0 0 42
0 0 42
0 0 42
0 0 42
0 0 42
0 0 42
0 0 42
0 0 42
0 0 42
0 0 42
0 0 42
0 0 42
0 0 42
0 0 42
0 0 42
0 0 42
0 0 42
0 0 42
0 0 42
0 0 42
0 0 42
0 0 42
0 0 42
0 0 42
0 0 42
0 0 42
0 0 42
0 0 42
0 0 42
8 7 41
100 97 88
130 117 85
148 127 122
150 130 118
107 92 69
111 93 79
84 64 47
102 86 68
65 55 30
94 93 64
65 66 34
77 76 46
85 86 54
59 63 28
48 57 28
62 71 40
64 69 37
50 57 21
61 72 36
51 63 27
51 60 27
71 77 44
61 65 30
63 67 31
65 68 31
68 72 33
64 71 31
57 69 21
54 65 29
57 67 25
52 61 24
54 62 38
33 38 33
0 0 40
0 0 42
0 0 42
0 0 43
0 0 41
0 0 42
0 0 42
0 0 42
0 0 42
0 0 42
0 0 42
0 0 42
0 0 42
0 0 42
0 0 42
0 0 42
0 0 42
0 0 42
0 0 42
0 0 42
0 0 42
0 0 42
145 154 169
225 237 255
225 237 255
225 237 255
225 237 255
225 237 255
225 237 255
225 237 255
225 237 255
225 237 255
225 237 255
225 237 255
225 237 255
225 237 255
225 237 255
225 237 255
225 237 255
225 237 255
225 237 255
225 237 255
225 237 255
225 237 255
225 237 255
225 237 255
225 237 255
225 237 255
225 237 255
225 237 255
225 237 255
225 237 255
225 237 255
225 237 255
225 237 255
225 237 255
225 237 255
225 237 255
225 237 255
225 237 255
225 237 255
225 237 255
225 237 255
225 237 255
225 237 255
225 237 255
225 237 255
225 237 255
225 237 255
225 237 255
225 237 255
225 237 255
225 237 255
225 237 255
225 237 255
225 237 255
225 237 255
225 237 255
225 237 255
225 237 255
225 237 255
225 237 255
225 237 255
225 237 255
225 237 255
225 237 255
225 237 255
225 237 255
225 237 255
225 237 255
225 237 255
225 237 255
225 237 255
225 237 255
225 237 255
225 237 255
225 237 255
225 237 255
225 237 255
225 237 255
225 237 255
225 237 255
225 237 255
225 237 255
225 237 255
225 237 255
225 237 255
225 237 255
225 237 255
225 237 255
225 237 255
225 237 255
225 237 255
225 237 255
225 237 255
225 237 255
225 237 255
225 237 255
225 237 255
225 237 255
224 237 255
224 237 255
224 237 255
224 237 255
224 237 255
224 237 255
224 237 255
224 237 255
224 237 255
224 237 255
224 237 255
224 237 255
224 237 255
225 237 255
225 237 255
225 237 255
225 237 255
225 237 255
225 237 255
225 237 255
225 237 255
225 237 255
225 237 255
225 237 255
225 237 255
225 237 255
225 237 255
225 237 255
225 237 255
225 237 255
225 237 255
225 237 255
225 237 255
225 237 255
225 237 255
225 237 255
225 237 255
225 237 255
225 237 255
225 237 255
225 237 255
225 237 255
225 237 255
225 237 255
225 237 255
225 237 255
225 237 255
225 237 255
225 237 255
225 237 255
225 237 255
225 237 255
225 237 255
225 237 255
225 237 255
225 237 255
225 237 255
225 237 255
225 237 255
225 237 255
225 237 255
225 237 255
225 237 255
225 237 255
225 237 255
225 237 255
225 237 255
225 237 255
225 237 255
225 237 255
225 237 255
225 237 255
225 237 255
225 237 255
225 237 255
225 237 255
225 237 255
225 237 255
225 237 255
225 237 255
225 237 255
225 237 255
225 237 255
225 237 255
225 237 255
225 237 255
225 237 255
225 237 255
225 237 255
225 237 255
225 237 255
225 237 255
225 237 255
225 237 255
225 237 255
225 237 255
225 237 255
225 237 255
225 237 255
225 237 255
225 237 255
225 237 255
225 237 255
225 237 255
225 237 255
225 237 255
225 237 255
225 237 255
225 237 255
225 237 255
225 237 255
225 237 255
225 237 255
225 237 255
225 237 255
225 237 255
225 237 255
225 237 255
225 237 255
225 237 255
225 237 255
225 237 255
225 237 255
219 231 249
81 85 100
0 0 42
0 0 42
0 0 42
0 0 42
0 0 42
0 0 42
0 0 42
0 0 42
0 0 42
0 0 42
0 0 42
0 0 42
0 0 42
0 0 42
0 0 42
0 0 42
0 0 42
0 0 42
0 0 42
0 0 42
0 0 42
0 0 42
0 0 42
0 0 42
0 0 42
0 0 42
0 0 42
0 0 42
0 0 42
0 0 42
0 0 42
0 0 42
0 0 42
0 0 42
0 0 42
0 0 42
0 0 42
0 0 42
0 0 42
0 0 42
0 0 39
0 0 41
0 0 42
0 0 43
0 0 44
0 0 45
0 0 45
0 0 45
0 0 44
0 0 44
0 0 44
0 0 44
0 0 44
0 0 43
0 0 43
0 0 43
0 0 43
0 0 43
0 0 43
0 0 42
0 0 42
0 0 42
0 0 42
0 0 42
0 0 42
0 0 42
0 0 42
0 0 42
0 0 42
0 0 42
0 0 42
0 0 42
0 0 42
0 0 42
0 0 42
0 0 42
0 0 42
0 0 42
0 0 42
0 0 42
0 0 42
0 0 42
0 0 42
0 0 42
0 0 42
0 0 42
0 0 42
0 0 42
0 0 42
0 0 42
0 0 42
0 0 42
0 0 42
0 0 42
0 0 42
0 0 42
0 0 42
0 0 42
0 0 42
0 0 42
0 0 42
0 0 42
0 0 42
0 0 42
0 0 42
0 0 42
0 0 42
0 0 42
0 0 42
0 0 42
0 0 42
0 0 42
0 0 42
0 0 42
0 0 42
0 0 42
0 0 42
0 0 42
0 0 42
0 0 42
0 0 42
0 0 32
86 80 51
106 94 65
161 138 135
124 106 86
82 69 45
148 125 108
120 99 79
105 92 70
87 81 56
75 75 44
88 88 58
70 69 38
73 73 38
58 62 27
31 40 9
77 85 51
75 80 46
64 73 35
55 67 30
51 60 24
59 68 33
65 71 34
65 69 31
67 71 34
69 72 35
61 65 27
64 72 31
56 68 25
54 65 27
48 57 13
76 88 59
47 54 50
2 3 40
0 0 42
0 0 42
0 0 45
0 0 42
0 0 38
0 0 42
0 0 42
0 0 42
0 0 42
0 0 42
0 0 42
0 0 42
0 0 42
0 0 42
0 0 42
0 0 42
0 0 42
0 0 42
0 0 42
0 0 42
0 0 42
63 67 83
219 231 249
225 237 255
225 237 255
225 237 255
225 237 255
225 237 255
225 237 255
225 237 255
225 237 255
225 237 255
225 237 255
225 237 255
225 237 255
225 237 255
225 237 255
225 237 255
225 237 255
225 237 255
225 237 255
225 237 255
225 237 255
225 237 255
225 237 255
225 237 255
225 237 255
225 237 255
225 237 255
225 237 255
225 237 255
225 237 255
225 237 255
225 237 255
225 237 255
225 237 255
225 237 255
225 237 255
225 237 255
225 237 255
225 237 255
225 237 255
225 237 255
225 237 255
225 237 255
225 237 255
225 237 255
225 237 255
225 237 255
225 237 255
225 237 255
225 237 255
225 237 255
225 237 255
225 237 255
225 237 255
225 237 255
225 237 255
225 237 255
225 237 255
225 237 255
225 237 255
225 237 255
225 237 255
225 237 255
225 237 255
225 237 255
225 237 255
225 237 255
225 237 255
225 237 255
225 237 255
225 237 255
225 237 255
225 237 255
225 237 255
225 237 255
225 237 255
225 237 255
225 237 255
225 237 255
225 237 255
225 237 255
225 237 255
225 237 255
225 237 255
225 237 255
225 237 255
225 237 255
225 237 255
225 237 255
225 237 255
225 237 255
225 237 255
225 237 255
225 237 255
225 237 255
225 237 255
225 237 255
225 237 255
225 237 255
225 237 255
225 237 255
225 237 255
225 237 255
225 237 255
225 237 255
225 237 255
225 237 255
225 237 255
225 237 255
225 237 255
225 237 255
225 237 255
225 237 255
225 237 255
225 237 255
225 237 255
225 237 255
225 237 255
225 237 255
225 237 255
225 237 255
225 237 255
225 237 255
225 237 255
225 237 255
225 237 255
225 237 255
225 237 255
225 237 255
225 237 255
225 237 255
225 237 255
225 237 255
225 237 255
225 237 255
225 237 255
225 237 255
225 237 255
225 237 255
225 237 255
225 237 255
225 237 255
225 237 255
225 237 255
225 237 255
225 237 255
225 237 255
225 237 255
225 237 255
225 237 255
225 237 255
225 237 255
225 237 255
225 237 255
225 237 255
225 237 255
225 237 255
225 237 255
225 237 255
225 237 255
225 237 255
225 237 255
225 237 255
225 237 255
225 237 255
225 237 255
225 237 255
225 237 255
225 237 255
225 237 255
225 237 255
225 237 255
225 237 255
225 237 255
225 237 255
225 237 255
225 237 255
225 237 255
225 237 255
225 237 255
225 237 255
225 237 255
225 237 255
225 237 255
225 237 255
225 237 255
225 237 255
225 237 255
225 237 255
225 237 255
225 237 255
225 237 255
225 237 255
225 237 255
225 237 255
225 237 255
225 237 255
225 237 255
225 237 255
225 237 255
225 237 255
225 237 255
225 237 255
225 237 255
225 237 255
225 237 255
225 237 255
225 238 255
225 238 255
225 238 255
225 238 255
225 238 255
225 238 255
225 238 255
225 238 255
225 238 255
225 238 255
225 238 255
225 238 255
225 238 255
225 238 255
225 238 255
203 215 232
0 0 42
0 0 42
0 0 42
0 0 42
0 0 42
0 0 42
0 0 42
0 0 42
0 0 42
0 0 42
0 0 42
0 0 42
0 0 42
0 0 42
0 0 42
0 0 42
0 0 42
0 0 42
0 0 42
0 0 42
0 0 42
0 0 42
0 0 42
0 0 42
0 0 42
0 0 42
0 0 42
0 0 42
0 0 42
0 0 42
0 0 42
0 0 42
0 0 42
0 0 42
0 0 42
0 0 42
0 0 42
0 0 42
0 0 42
0 0 42
0 0 42
0 0 42
0 0 42
0 0 41
0 0 40
0 0 41
0 0 40
0 0 40
0 0 39
0 0 40
0 0 40
0 0 41
0 0 41
0 0 41
0 0 41
0 0 42
0 0 41
0 0 41
0 0 42
0 0 41
0 0 42
0 0 41
0 0 42
0 0 42
0 0 42
0 0 42
0 0 42
0 0 42
0 0 42
0 0 42
0 0 42
0 0 42
0 0 42
0 0 42
0 0 42
0 0 42
0 0 42
0 0 42
0 0 42
0 0 42
0 0 42
0 0 42
0 0 42
0 0 42
0 0 42
0 0 42
0 0 42
0 0 42
0 0 42
0 0 42
0 0 42
0 0 42
0 0 42
0 0 42
0 0 42
0 0 42
0 0 42
0 0 42
0 0 42
0 0 42
0 0 42
0 0 42
0 0 42
0 0 42
0 0 42
0 0 42
0 0 42
0 0 42
0 0 42
0 0 42
0 0 42
0 0 42
0 0 42
0 0 42
0 0 42
0 0 42
0 0 42
0 0 42
0 0 42
0 0 42
0 0 39
37 35 37
84 76 48
110 97 84
146 127 120
112 101 76
116 100 80
157 134 114
88 71 48
88 78 53
62 59 31
72 72 42
78 77 47
70 69 34
78 80 44
53 59 27
45 55 25
81 89 52
78 84 48
67 78 39
51 63 24
57 66 30
63 71 34
68 74 33
74 79 40
74 77 41
65 69 33
60 67 29
61 70 33
54 64 21
58 67 28
72 82 44
55 64 47
0 0 37
0 0 42
0 0 41
0 0 42
0 0 43
0 0 41
0 0 41
0 0 42
0 0 42
0 0 42
0 0 42
0 0 42
0 0 42
0 0 42
0 0 42
0 0 42
0 0 42
0 0 42
0 0 42
0 0 42
0 0 42
0 0 42
0 0 42
193 204 221
225 238 255
225 238 255
225 238 255
225 238 255
225 238 255
225 238 255
225 238 255
225 238 255
225 238 255
225 238 255
225 238 255
225 238 255
225 238 255
225 238 255
225 238 255
225 238 255
225 237 255
225 237 255
225 237 255
225 237 255
225 237 255
225 237 255
225 237 255
225 237 255
225 237 255
225 237 255
225 237 255
225 237 255
225 237 255
225 237 255
225 237 255
225 237 255
225 237 255
225 237 255
225 237 255
225 237 255
225 237 255
225 237 255
225 237 255
225 237 255
225 237 255
225 237 255
225 237 255
225 237 255
225 237 255
225 237 255
225 237 255
225 237 255
225 237 255
225 237 255
225 237 255
225 237 255
225 237 255
225 237 255
225 237 255
225 237 255
225 237 255
225 237 255
225 237 255
225 237 255
225 237 255
225 237 255
225 237 255
225 237 255
225 237 255
225 237 255
225 237 255
225 237 255
225 237 255
225 237 255
225 237 255
225 237 255
225 237 255
225 237 255
225 237 255
225 237 255
225 237 255
225 237 255
225 237 255
225 237 255
225 237 255
225 237 255
225 237 255
225 237 255
225 237 255
225 237 255
225 237 255
225 237 255
225 237 255
225 237 255
225 237 255
225 237 255
225 237 255
225 237 255
225 237 255
225 237 255
225 237 255
225 237 255
225 237 255
225 237 255
225 237 255
225 237 255
225 237 255
225 237 255
225 237 255
225 237 255
225 237 255
225 237 255
225 237 255
225 237 255
225 237 255
225 237 255
225 237 255
225 237 255
225 237 255
225 237 255
225 237 255
225 237 255
225 237 255
225 237 255
225 237 255
225 237 255
225 237 255
225 237 255
225 237 255
225 237 255
225 237 255
225 237 255
225 237 255
225 237 255
225 237 255
225 237 255
225 237 255
225 237 255
225 237 255
225 237 255
225 237 255
225 237 255
225 237 255
225 237 255
225 237 255
225 237 255
225 237 255
225 237 255
225 237 255
225 237 255
225 237 255
225 237 255
225 237 255
225 237 255
225 237 255
225 237 255
225 237 255
225 238 255
225 237 255
225 237 255
225 238 255
225 238 255
225 238 255
225 238 255
225 238 255
225 238 255
225 238 255
225 238 255
225 238 255
225 238 255
225 238 255
225 238 255
225 238 255
225 238 255
225 238 255
225 238 255
225 238 255
225 238 255
225 238 255
225 238 255
225 238 255
225 238 255
225 238 255
225 238 255
225 238 255
225 238 255
225 238 255
225 238 255
225 238 255
225 238 255
225 238 255
225 238 255
225 238 255
225 238 255
225 238 255
225 238 255
225 238 255
225 238 255
225 238 255
225 238 255
225 238 255
225 238 255
225 238 255
225 238 255
225 238 255
225 238 255
225 238 255
225 238 255
225 238 255
225 238 255
225 238 255
225 238 255
225 238 255
225 238 255
225 238 255
225 238 255
225 238 255
225 238 255
225 238 255
225 238 255
225 238 255
225 238 255
225 238 255
225 238 255
225 238 255
225 238 255
225 238 255
138 146 161
0 0 42
0 0 42
0 0 42
0 0 42
0 0 42
0 0 42
0 0 42
0 0 42
0 0 42
0 0 42
0 0 42
0 0 42
0 0 42
0 0 42
0 0 42
0 0 42
0 0 42
0 0 42
0 0 42
0 0 42
0 0 42
0 0 42
0 0 42
0 0 42
0 0 42
0 0 42
0 0 42
0 0 42
0 0 42
0 0 42
0 0 42
0 0 42
0 0 42
0 0 42
0 0 42
0 0 42
0 0 42
0 0 42
0 0 42
0 0 42
0 0 42
0 0 42
0 0 42
0 0 42
0 0 42
0 0 42
0 0 42
0 0 42
0 0 42
0 0 42
0 0 42
0 0 42
0 0 42
0 0 42
0 0 42
0 0 42
0 0 42
0 0 42
0 0 42
0 0 42
0 0 42
0 0 42
0 0 42
0 0 42
0 0 42
0 0 42
0 0 42
0 0 42
0 0 42
0 0 42
0 0 42
0 0 42
0 0 42
0 0 42
0 0 42
0 0 42
0 0 42
0 0 42
0 0 42
0 0 42
0 0 42
0 0 42
0 0 42
0 0 42
0 0 42
0 0 42
0 0 42
0 0 42
0 0 42
0 0 42
0 0 42
0 0 42
0 0 42
0 0 42
0 0 42
0 0 42
0 0 42
0 0 42
0 0 42
0 0 42
0 0 42
0 0 42
0 0 42
0 0 42
0 0 42
0 0 42
0 0 42
0 0 42
0 0 42
0 0 42
0 0 42
0 0 42
0 0 42
0 0 42
0 0 42
0 0 42
0 0 42
0 0 42
0 0 42
0 0 32
74 69 64
83 73 50
153 140 127
92 75 52
109 101 76
139 122 105
165 143 119
75 63 42
86 80 55
62 61 33
63 63 33
73 72 39
80 79 43
83 86 48
80 91 55
73 85 47
78 85 48
75 83 43
58 69 30
58 69 31
60 68 31
61 67 23
75 81 37
74 80 38
57 64 25
62 73 34
59 72 26
57 66 29
54 62 24
68 78 47
43 47 42
0 0 45
0 0 39
0 0 42
0 0 42
0 0 42
0 0 42
0 0 42
0 0 42
0 0 42
0 0 42
0 0 42
0 0 42
0 0 42
0 0 42
0 0 42
0 0 42
0 0 42
0 0 42
0 0 42
0 0 42
0 0 42
0 0 42
0 0 42
162 171 186
225 238 255
225 238 255
225 238 255
225 238 255
225 238 255
225 238 255
225 238 255
225 238 255
225 238 255
225 238 255
225 238 255
225 238 255
225 238 255
225 238 255
225 238 255
225 238 255
225 238 255
225 238 255
225 238 255
225 238 255
225 238 255
225 238 255
225 238 255
225 238 255
225 238 255
225 238 255
225 238 255
225 238 255
225 238 255
225 238 255
225 238 255
225 238 255
225 238 255
225 238 255
225 238 255
225 238 255
225 238 255
225 238 255
225 238 255
225 238 255
225 238 255
225 238 255
225 238 255
225 238 255
225 238 255
225 238 255
225 238 255
225 238 255
225 238 255
225 238 255
225 238 255
225 238 255
225 238 255
225 238 255
225 238 255
225 238 255
225 238 255
225 238 255
225 238 255
225 238 255
225 238 255
225 238 255
225 238 255
225 238 255
225 238 255
225 238 255
225 238 255
225 238 255
225 238 255
225 237 255
225 237 255
225 237 255
225 237 255
225 237 255
225 237 255
225 237 255
225 237 255
225 237 255
225 237 255
225 237 255
225 237 255
225 237 255
225 237 255
225 237 255
225 237 255
225 237 255
225 237 255
225 237 255
225 237 255
225 237 255
225 237 255
225 237 255
225 237 255
225 237 255
225 237 255
225 237 255
225 237 255
225 237 255
225 237 255
225 237 255
225 237 255
225 237 255
225 237 255
225 237 255
225 237 255
225 237 255
225 237 255
225 237 255
225 237 255
225 237 255
225 237 255
225 237 255
225 237 255
225 237 255
225 237 255
225 237 255
225 237 255
225 238 255
225 238 255
225 238 255
225 238 255
225 238 255
225 238 255
225 238 255
225 238 255
225 238 255
225 238 255
225 238 255
225 238 255
225 238 255
225 238 255
225 238 255
225 238 255
225 238 255
225 238 255
225 238 255
225 238 255
225 238 255
225 238 255
225 238 255
225 238 255
225 238 255
225 238 255
225 238 255
225 238 255
225 238 255
225 238 255
225 238 255
225 238 255
225 238 255
225 238 255
225 238 255
225 238 255
225 238 255
225 238 255
225 238 255
225 238 255
225 238 255
225 238 255
225 238 255
225 238 255
225 238 255
225 238 255
225 238 255
225 238 255
225 238 255
225 238 255
225 238 255
225 238 255
225 238 255
225 238 255
225 238 255
225 238 255
225 238 255
225 238 255
225 238 255
225 238 255
225 238 255
225 238 255
225 238 255
225 238 255
225 238 255
225 238 255
225 238 255
225 238 255
225 238 255
225 238 255
225 238 255
225 238 255
225 238 255
225 238 255
225 238 255
225 238 255
225 238 255
225 238 255
225 238 255
225 238 255
225 238 255
225 238 255
225 238 255
225 238 255
225 238 255
225 238 255
225 238 255
225 238 255
225 238 255
225 238 255
225 238 255
225 238 255
225 238 255
225 238 255
225 238 255
225 238 255
225 238 255
225 238 255
225 238 255
225 238 255
225 238 255
225 238 255
225 238 255
225 238 255
225 238 255
225 238 255
225 238 255
224 236 254
121 128 142
0 0 42
0 0 42
0 0 42
0 0 42
0 0 42
0 0 42
0 0 42
0 0 42
0 0 42
0 0 42
0 0 42
0 0 42
0 0 42
0 0 42
0 0 42
0 0 42
0 0 42
0 0 42
0 0 42
0 0 42
0 0 42
0 0 42
0 0 42
0 0 42
0 0 42
0 0 42
0 0 42
0 0 42
0 0 42
0 0 42
0 0 42
0 0 42
0 0 42
0 0 42
0 0 42
0 0 42
0 0 42
0 0 42
0 0 42
0 0 42
0 0 42
0 0 42
0 0 41
0 0 41
0 0 41
0 0 41
0 0 42
0 0 42
0 0 42
0 0 42
0 0 42
0 0 42
0 0 42
0 0 41
0 0 40
0 0 40
0 0 41
0 0 41
0 0 42
0 0 42
0 0 42
0 0 42
0 0 42
0 0 42
0 0 42
0 0 42
0 0 42
0 0 42
0 0 42
0 0 42
0 0 42
0 0 42
0 0 42
0 0 42
0 0 42
0 0 42
0 0 42
0 0 42
0 0 42
0 0 42
0 0 42
0 0 42
0 0 42
0 0 42
0 0 42
0 0 42
0 0 42
0 0 42
0 0 42
0 0 42
0 0 42
0 0 42
0 0 42
0 0 42
0 0 42
0 0 42
0 0 42
0 0 42
0 0 42
0 0 42
0 0 42
0 0 42
0 0 42
0 0 42
0 0 42
0 0 42
0 0 42
0 0 42
0 0 42
0 0 42
0 0 42
0 0 42
0 0 42
0 0 42
0 0 42
0 0 42
0 0 41
0 0 42
10 11 28
76 73 63
111 106 89
155 144 128
107 95 71
74 66 40
128 108 84
130 111 92
120 106 83
73 69 43
67 69 37
75 72 42
84 76 48
99 96 63
79 84 49
83 90 54
77 84 46
76 84 43
68 76 34
71 80 38
60 69 28
68 75 35
64 71 30
67 75 32
69 78 42
51 61 28
56 67 30
60 72 31
60 72 28
52 61 28
20 22 30
0 0 40
0 0 43
0 0 43
0 0 42
0 0 42
0 0 42
0 0 42
0 0 42
0 0 42
0 0 42
0 0 42
0 0 42
0 0 42
0 0 42
0 0 42
0 0 42
0 0 42
0 0 42
0 0 42
0 0 42
0 0 42
0 0 42
0 0 42
100 106 120
223 235 253
225 238 255
225 238 255
225 238 255
225 238 255
225 238 255
225 238 255
225 238 255
225 238 255
225 238 255
225 238 255
225 238 255
225 238 255
225 238 255
225 238 255
225 238 255
225 238 255
225 238 255
225 238 255
225 238 255
225 238 255
225 238 255
225 238 255
225 238 255
225 238 255
225 238 255
225 238 255
225 238 255
225 238 255
225 238 255
225 238 255
225 238 255
225 238 255
225 238 255
225 238 255
225 238 255
225 238 255
225 238 255
225 238 255
225 238 255
225 238 255
225 238 255
225 238 255
225 238 255
225 238 255
225 238 255
225 238 255
225 238 255
225 238 255
225 238 255
225 238 255
225 238 255
225 238 255
225 238 255
225 238 255
225 238 255
225 238 255
225 238 255
225 238 255
225 238 255
225 238 255
225 238 255
225 238 255
225 238 255
225 238 255
225 238 255
225 238 255
225 238 255
225 238 255
225 238 255
225 238 255
225 238 255
225 238 255
225 238 255
225 238 255
225 238 255
225 238 255
225 238 255
225 238 255
225 238 255
225 238 255
225 238 255
225 238 255
225 238 255
225 238 255
225 238 255
225 238 255
225 238 255
225 238 255
225 238 255
225 238 255
225 238 255
225 238 255
225 238 255
225 238 255
225 238 255
225 238 255
225 238 255
225 238 255
225 238 255
225 238 255
225 238 255
225 238 255
225 238 255
225 238 255
225 238 255
225 238 255
225 238 255
225 237 255
225 238 255
225 237 255
225 237 255
225 237 255
225 238 255
225 238 255
225 238 255
225 238 255
225 238 255
225 238 255
225 238 255
225 238 255
225 238 255
225 238 255
225 238 255
225 238 255
225 238 255
225 238 255
225 238 255
225 238 255
225 238 255
225 238 255
225 238 255
225 238 255
225 238 255
225 238 255
225 238 255
225 238 255
225 238 255
225 238 255
225 238 255
225 238 255
225 238 255
225 238 255
225 238 255
225 238 255
225 238 255
225 238 255
225 238 255
225 238 255
225 238 255
225 238 255
225 238 255
225 238 255
225 238 255
225 238 255
225 238 255
225 238 255
225 238 255
225 238 255
225 238 255
225 238 255
225 238 255
225 238 255
225 238 255
225 238 255
225 238 255
225 238 255
225 238 255
225 238 255
225 238 255
225 238 255
225 238 255
225 238 255
225 238 255
225 238 255
225 238 255
225 238 255
225 238 255
225 238 255
225 238 255
225 238 255
225 238 255
225 238 255
225 238 255
225 238 255
225 238 255
225 238 255
225 238 255
225 238 255
225 238 255
225 238 255
225 238 255
225 238 255
225 238 255
225 238 255
225 238 255
225 238 255
225 238 255
225 238 255
225 238 255
225 238 255
225 238 255
225 238 255
225 238 255
225 238 255
225 238 255
225 238 255
225 238 255
225 238 255
225 238 255
225 238 255
225 238 255
225 238 255
225 238 255
225 238 255
225 238 255
225 238 255
225 238 255
225 238 255
225 238 255
225 238 255
225 238 255
225 238 255
225 238 255
225 238 255
225 238 255
206 218 235
63 67 83
0 0 42
0 0 42
0 0 42
0 0 42
0 0 42
0 0 42
0 0 42
0 0 42
0 0 42
0 0 42
0 0 42
0 0 42
0 0 42
0 0 42
0 0 42
0 0 42
0 0 42
0 0 42
0 0 42
0 0 42
0 0 42
0 0 42
0 0 42
0 0 42
0 0 42
0 0 42
0 0 42
0 0 42
0 0 42
0 0 42
0 0 42
0 0 42
0 0 42
0 0 42
0 0 42
0 0 42
0 0 42
0 0 42
0 0 42
0 0 42
0 0 42
0 0 42
0 0 42
0 0 42
0 0 42
0 0 42
0 0 42
0 0 42
0 0 42
0 0 42
0 0 42
0 0 42
0 0 42
0 0 42
0 0 42
0 0 42
0 0 42
0 0 42
0 0 42
0 0 42
0 0 42
0 0 42
0 0 42
0 0 42
0 0 42
0 0 42
0 0 42
0 0 42
0 0 42
0 0 42
0 0 42
0 0 42
0 0 42
0 0 42
0 0 42
0 0 42
0 0 42
0 0 42
0 0 42
0 0 42
0 0 42
0 0 42
0 0 42
0 0 42
0 0 42
0 0 42
0 0 42
0 0 42
0 0 42
0 0 42
0 0 42
0 0 42
0 0 42
0 0 42
0 0 42
0 0 42
0 0 42
0 0 42
0 0 42
0 0 42
0 0 42
0 0 42
0 0 42
0 0 42
0 0 42
0 0 42
0 0 42
0 0 42
0 0 42
0 0 40
0 0 40
0 0 44
0 0 47
0 0 43
0 0 39
0 0 39
0 0 41
4 5 32
57 62 48
112 110 89
134 124 116
119 108 89
93 82 55
145 125 99
146 124 105
95 83 60
69 69 40
68 68 36
73 66 36
83 72 44
103 100 67
82 87 50
82 88 52
81 87 48
76 84 42
62 69 32
76 86 43
69 80 39
57 70 31
58 73 30
63 79 33
60 72 29
58 68 27
62 72 28
51 65 21
46 58 23
27 32 37
0 0 50
0 0 40
0 0 43
0 0 42
0 0 42
0 0 42
0 0 42
0 0 42
0 0 42
0 0 42
0 0 42
0 0 42
0 0 42
0 0 42
0 0 42
0 0 42
0 0 42
0 0 42
0 0 42
0 0 42
0 0 42
0 0 42
0 0 42
74 78 93
211 223 240
225 238 255
225 238 255
225 238 255
225 238 255
225 238 255
225 238 255
225 238 255
225 238 255
225 238 255
225 238 255
225 238 255
225 238 255
225 238 255
225 238 255
225 238 255
225 238 255
225 238 255
225 238 255
225 238 255
225 238 255
225 238 255
225 238 255
225 238 255
225 238 255
225 238 255
225 238 255
225 238 255
225 238 255
225 238 255
225 238 255
225 238 255
225 238 255
225 238 255
225 238 255
225 238 255
225 238 255
225 238 255
225 238 255
225 238 255
225 238 255
225 238 255
225 238 255
225 238 255
225 238 255
225 238 255
225 238 255
225 238 255
225 238 255
225 238 255
225 238 255
225 238 255
225 238 255
225 238 255
225 238 255
225 238 255
225 238 255
225 238 255
225 238 255
225 238 255
225 238 255
225 238 255
225 238 255
225 238 255
225 238 255
225 238 255
225 238 255
225 238 255
225 238 255
225 238 255
225 238 255
225 238 255
225 238 255
225 238 255
225 238 255
225 238 255
225 238 255
225 238 255
225 238 255
225 238 255
225 238 255
225 238 255
225 238 255
225 238 255
225 238 255
225 238 255
225 238 255
225 238 255
225 238 255
225 238 255
225 238 255
225 238 255
225 238 255
225 238 255
225 238 255
225 238 255
225 238 255
225 238 255
225 238 255
225 238 255
225 238 255
225 238 255
225 238 255
225 238 255
225 238 255
225 238 255
225 238 255
225 238 255
225 238 255
225 238 255
225 238 255
225 238 255
225 238 255
225 238 255
225 238 255
225 238 255
225 238 255
225 238 255
225 238 255
225 238 255
225 238 255
225 238 255
225 238 255
225 238 255
225 238 255
225 238 255
225 238 255
225 238 255
225 238 255
225 238 255
225 238 255
225 238 255
225 238 255
225 238 255
225 238 255
225 238 255
225 238 255
225 238 255
225 238 255
225 238 255
225 238 255
225 238 255
225 238 255
225 238 255
225 238 255
225 238 255
225 238 255
225 238 255
225 238 255
225 238 255
225 238 255
225 238 255
225 238 255
225 238 255
225 238 255
225 238 255
225 238 255
225 238 255
225 238 255
225 238 255
225 238 255
225 238 255
225 238 255
225 238 255
225 238 255
225 238 255
225 238 255
225 238 255
225 238 255
225 238 255
225 238 255
225 238 255
225 238 255
225 238 255
225 238 255
225 238 255
225 238 255
225 238 255
225 238 255
225 238 255
225 238 255
225 238 255
225 238 255
225 238 255
225 238 255
225 238 255
225 238 255
225 238 255
225 238 255
225 238 255
225 238 255
225 238 255
225 238 255
225 238 255
225 238 255
225 238 255
225 238 255
225 238 255
225 238 255
225 238 255
225 238 255
225 238 255
225 238 255
225 238 255
225 238 255
225 238 255
225 238 255
225 238 255
225 238 255
225 238 255
225 238 255
225 238 255
225 238 255
225 238 255
225 238 255
225 238 255
225 238 255
225 238 255
225 238 255
225 238 255
225 238 255
225 238 255
225 238 255
225 238 255
225 238 255
225 238 255
225 238 255
225 238 255
191 202 218
0 0 42
0 0 42
0 0 42
0 0 42
0 0 42
0 0 42
0 0 42
0 0 42
0 0 42
0 0 42
0 0 42
0 0 42
0 0 42
0 0 42
0 0 42
0 0 42
0 0 42
0 0 42
0 0 42
0 0 42
0 0 42
0 0 42
0 0 42
0 0 42
0 0 42
0 0 42
0 0 42
0 0 42
0 0 42
0 0 42
0 0 42
0 0 42
0 0 42
0 0 42
0 0 42
0 0 42
0 0 42
0 0 42
0 0 42
0 0 42
0 0 42
0 0 42
0 0 42
0 0 42
0 0 42
0 0 42
0 0 42
0 0 42
0 0 42
0 0 42
0 0 42
0 0 42
0 0 42
0 0 42
0 0 42
0 0 42
0 0 42
0 0 42
0 0 42
0 0 42
0 0 42
0 0 42
0 0 42
0 0 42
0 0 42
0 0 42
0 0 42
0 0 42
0 0 42
0 0 42
0 0 42
0 0 42
0 0 42
0 0 42
0 0 42
0 0 42
0 0 42
0 0 42
0 0 42
0 0 42
0 0 42
0 0 42
0 0 42
0 0 42
0 0 42
0 0 42
0 0 42
0 0 42
0 0 42
0 0 42
0 0 42
0 0 42
0 0 42
0 0 42
0 0 42
0 0 42
0 0 42
0 0 42
0 0 42
0 0 42
0 0 42
0 0 42
0 0 42
0 0 42
0 0 42
0 0 42
0 0 42
0 0 42
0 0 41
0 0 39
0 0 39
0 0 41
0 0 42
0 0 40
0 0 39
0 0 40
0 0 39
15 19 26
49 54 37
110 105 96
153 144 143
88 78 63
113 102 77
103 87 67
119 104 83
70 63 37
74 75 45
82 79 51
84 74 45
100 90 60
88 88 55
80 85 49
88 92 55
82 89 50
77 85 44
40 48 18
57 67 31
65 78 38
57 74 22
62 79 24
67 83 30
69 80 38
63 72 39
50 60 25
45 60 35
25 31 37
0 0 44
0 0 46
0 0 41
0 0 42
0 0 42
0 0 42
0 0 42
0 0 42
0 0 42
0 0 42
0 0 42
0 0 42
0 0 42
0 0 42
0 0 42
0 0 42
0 0 42
0 0 42
0 0 42
0 0 42
0 0 42
0 0 42
0 0 42
0 0 42
176 185 201
225 238 255
225 238 255
225 238 255
225 238 255
225 238 255
225 238 255
225 238 255
225 238 255
225 238 255
225 238 255
225 238 255
225 238 255
225 238 255
225 238 255
225 238 255
225 238 255
225 238 255
225 238 255
225 238 255
225 238 255
225 238 255
225 238 255
225 238 255
225 238 255
225 238 255
225 238 255
225 238 255
225 238 255
225 238 255
225 238 255
225 238 255
225 238 255
225 238 255
225 238 255
225 238 255
225 238 255
225 238 255
225 238 255
225 238 255
225 238 255
225 238 255
225 238 255
225 238 255
225 238 255
225 238 255
225 238 255
225 238 255
225 238 255
225 238 255
225 238 255
225 238 255
225 238 255
225 238 255
225 238 255
225 238 255
225 238 255
225 238 255
225 238 255
225 238 255
225 238 255
225 238 255
225 238 255
225 238 255
225 238 255
225 238 255
225 238 255
225 238 255
225 238 255
225 238 255
225 238 255
225 238 255
225 238 255
225 238 255
225 238 255
225 238 255
225 238 255
225 238 255
225 238 255
225 238 255
225 238 255
225 238 255
225 238 255
225 238 255
225 238 255
225 238 255
225 238 255
225 238 255
225 238 255
225 238 255
225 238 255
225 238 255
225 238 255
225 238 255
225 238 255
225 238 255
225 238 255
225 238 255
225 238 255
225 238 255
225 238 255
225 238 255
225 238 255
225 238 255
225 238 255
225 238 255
225 238 255
225 238 255
225 238 255
225 238 255
225 238 255
225 238 255
225 238 255
225 238 255
225 238 255
225 238 255
225 238 255
225 238 255
225 238 255
225 238 255
225 238 255
225 238 255
225 238 255
225 238 255
225 238 255
225 238 255
225 238 255
225 238 255
225 238 255
225 238 255
225 238 255
225 238 255
225 238 255
225 238 255
225 238 255
225 238 255
225 238 255
225 238 255
225 238 255
225 238 255
225 238 255
225 238 255
225 238 255
225 238 255
225 238 255
225 238 255
225 238 255
225 238 255
225 238 255
225 238 255
225 238 255
225 238 255
225 238 255
225 238 255
225 238 255
225 238 255
225 238 255
225 238 255
225 238 255
225 238 255
225 238 255
225 238 255
225 238 255
225 238 255
225 238 255
225 238 255
225 238 255
225 238 255
225 238 255
225 238 255
225 238 255
225 238 255
225 238 255
225 238 255
225 238 255
225 238 255
225 238 255
225 238 255
225 238 255
225 238 255
225 238 255
225 238 255
225 238 255
225 238 255
225 238 255
225 238 255
225 238 255
225 238 255
225 238 255
225 238 255
225 238 255
225 238 255
225 238 255
225 238 255
225 238 255
225 238 255
225 238 255
225 238 255
225 238 255
225 238 255
225 238 255
225 238 255
225 238 255
225 238 255
225 238 255
225 238 255
225 238 255
225 238 255
225 238 255
225 238 255
225 238 255
225 238 255
225 238 255
225 238 255
225 238 255
225 238 255
225 238 255
225 238 255
225 238 255
225 238 255
225 238 255
225 238 255
225 238 255
225 238 255
225 238 255
225 238 255
225 238 255
225 238 255
225 238 255
225 238 255
154 163 178
0 0 42
0 0 42
0 0 42
0 0 42
0 0 42
0 0 42
0 0 42
0 0 42
0 0 42
0 0 42
0 0 42
0 0 42
0 0 42
0 0 42
0 0 42
0 0 42
0 0 42
0 0 42
0 0 42
0 0 42
0 0 42
0 0 42
0 0 42
0 0 42
0 0 42
0 0 42
0 0 42
0 0 42
0 0 42
0 0 42
0 0 42
0 0 42
0 0 42
0 0 42
0 0 42
0 0 42
0 0 42
0 0 42
0 0 42
0 0 42
0 0 42
0 0 42
0 0 42
0 0 42
0 0 42
0 0 42
0 0 42
0 0 42
0 0 42
0 0 42
0 0 42
0 0 42
0 0 42
0 0 42
0 0 42
0 0 42
0 0 42
0 0 42
0 0 42
0 0 42
0 0 42
0 0 42
0 0 42
0 0 42
0 0 42
0 0 42
0 0 42
0 0 42
0 0 42
0 0 42
0 0 42
0 0 42
0 0 42
0 0 42
0 0 42
0 0 42
0 0 42
0 0 42
0 0 42
0 0 42
0 0 42
0 0 42
0 0 42
0 0 42
0 0 42
0 0 42
0 0 42
0 0 42
0 0 42
0 0 42
0 0 42
0 0 42
0 0 42
0 0 42
0 0 42
0 0 42
0 0 42
0 0 42
0 0 42
0 0 42
0 0 42
0 0 42
0 0 42
0 0 42
0 0 42
0 0 42
0 0 42
0 0 41
0 0 39
0 0 39
0 0 38
0 0 36
0 0 40
0 0 41
0 0 44
0 0 33
34 43 31
48 54 32
121 117 116
143 137 139
70 62 42
91 83 62
83 72 52
83 72 49
66 60 33
83 81 51
96 90 61
96 85 57
96 88 56
84 83 49
78 81 47
77 81 46
72 79 40
74 84 42
56 67 28
39 51 11
56 63 24
73 79 33
73 82 32
72 81 33
61 73 32
56 69 29
47 61 37
8 13 36
0 0 43
0 0 36
0 0 43
0 0 41
0 0 42
0 0 42
0 0 42
0 0 42
0 0 42
0 0 42
0 0 42
0 0 42
0 0 42
0 0 42
0 0 42
0 0 42
0 0 42
0 0 42
0 0 42
0 0 42
0 0 42
0 0 42
0 0 42
0 0 42
156 165 179
225 238 255
225 238 255
225 238 255
225 238 255
225 238 255
225 238 255
225 238 255
225 238 255
225 238 255
225 238 255
225 238 255
225 238 255
225 238 255
225 238 255
225 238 255
225 238 255
225 238 255
225 238 255
225 238 255
225 238 255
225 238 255
225 238 255
225 238 255
225 238 255
225 238 255
225 238 255
225 238 255
225 238 255
225 238 255
225 238 255
225 238 255
225 238 255
225 238 255
225 238 255
225 238 255
225 238 255
225 238 255
225 238 255
225 238 255
225 238 255
225 238 255
225 238 255
225 238 255
225 238 255
225 238 255
225 238 255
225 238 255
225 238 255
225 238 255
225 238 255
225 238 255
225 238 255
225 238 255
225 238 255
225 238 255
225 238 255
225 238 255
225 238 255
225 238 255
225 238 255
225 238 255
225 238 255
225 238 255
225 238 255
225 238 255
225 238 255
225 238 255
225 238 255
225 238 255
225 238 255
225 238 255
225 238 255
225 238 255
225 238 255
225 238 255
225 238 255
225 238 255
225 238 255
225 238 255
225 238 255
225 238 255
225 238 255
225 238 255
225 238 255
225 238 255
225 238 255
225 238 255
225 238 255
225 238 255
225 238 255
225 238 255
225 238 255
225 238 255
225 238 255
225 238 255
225 238 255
225 238 255
225 238 255
225 238 255
225 238 255
225 238 255
225 238 255
225 238 255
225 238 255
225 238 255
225 238 255
225 238 255
225 238 255
225 238 255
225 238 255
225 238 255
225 238 255
225 238 255
225 238 255
225 238 255
225 238 255
225 238 255
225 238 255
225 238 255
225 238 255
225 238 255
225 238 255
225 238 255
225 238 255
225 238 255
225 238 255
225 238 255
225 238 255
225 238 255
225 238 255
225 238 255
225 238 255
225 238 255
225 238 255
225 238 255
225 238 255
225 238 255
225 238 255
225 238 255
225 238 255
225 238 255
225 238 255
225 238 255
225 238 255
225 238 255
225 238 255
225 238 255
225 238 255
225 238 255
225 238 255
225 238 255
225 238 255
225 238 255
225 238 255
225 238 255
225 238 255
225 238 255
225 238 255
225 238 255
225 238 255
225 238 255
225 238 255
225 238 255
225 238 255
225 238 255
225 238 255
225 238 255
225 238 255
225 238 255
225 238 255
225 238 255
225 238 255
225 238 255
225 238 255
225 238 255
225 238 255
225 238 255
225 238 255
225 238 255
225 238 255
225 238 255
225 238 255
225 238 255
225 238 255
225 238 255
225 238 255
225 238 255
225 238 255
225 238 255
225 238 255
225 238 255
225 238 255
225 238 255
225 238 255
225 238 255
225 238 255
225 238 255
225 238 255
225 238 255
225 238 255
225 238 255
225 238 255
225 238 255
225 238 255
225 238 255
225 238 255
225 238 255
225 238 255
225 238 255
225 238 255
225 238 255
225 238 255
225 238 255
225 238 255
225 238 255
225 238 255
225 238 255
225 238 255
225 238 255
225 238 255
225 238 255
225 238 255
225 238 255
225 238 255
225 238 255
225 238 255
225 238 255
225 238 255
225 238 255
225 238 255
225 238 255
137 144 159
0 0 42
0 0 42
0 0 42
0 0 42
0 0 42
0 0 42
0 0 42
0 0 42
0 0 42
0 0 42
0 0 42
0 0 42
0 0 42
0 0 42
0 0 42
0 0 42
0 0 42
0 0 42
0 0 42
0 0 42
0 0 42
0 0 42
0 0 42
0 0 42
0 0 42
0 0 42
0 0 42
0 0 42
0 0 42
0 0 42
0 0 42
0 0 42
0 0 42
0 0 42
0 0 42
0 0 42
0 0 42
0 0 42
0 0 42
0 0 42
0 0 42
0 0 42
0 0 42
0 0 42
0 0 42
0 0 42
0 0 42
0 0 42
0 0 42
0 0 42
0 0 42
0 0 42
0 0 42
0 0 42
0 0 42
0 0 42
0 0 42
0 0 42
0 0 42
0 0 42
0 0 42
0 0 42
0 0 42
0 0 42
0 0 42
0 0 42
0 0 42
0 0 42
0 0 42
0 0 42
0 0 42
0 0 42
0 0 42
0 0 42
0 0 42
0 0 42
0 0 42
0 0 42
0 0 42
0 0 42
0 0 42
0 0 42
0 0 42
0 0 42
0 0 42
0 0 42
0 0 42
0 0 42
0 0 42
0 0 42
0 0 42
0 0 42
0 0 42
0 0 42
0 0 42
0 0 42
0 0 42
0 0 42
0 0 42
0 0 42
0 0 42
0 0 42
0 0 42
0 0 42
0 0 42
0 0 42
0 0 42
0 0 43
0 0 40
0 0 37
0 0 39
0 0 44
0 0 49
0 0 43
14 21 26
46 60 28
54 59 41
141 140 144
142 139 136
80 74 50
74 70 48
79 74 50
72 66 40
78 72 44
91 85 56
93 85 56
93 86 55
80 77 45
71 73 39
63 68 34
75 81 44
68 77 37
69 80 39
69 81 41
60 68 31
85 82 49
74 74 34
64 67 31
57 64 30
59 73 43
44 58 31
9 14 34
0 0 42
0 0 41
0 0 36
0 0 44
0 0 43
0 0 42
0 0 42
0 0 42
0 0 42
0 0 42
0 0 42
0 0 42
0 0 42
0 0 42
0 0 42
0 0 42
0 0 42
0 0 42
0 0 42
0 0 42
0 0 42
0 0 42
0 0 42
0 0 42
127 134 148
225 238 255
225 238 255
225 238 255
225 238 255
225 238 255
225 238 255
225 238 255
225 238 255
225 238 255
225 238 255
225 238 255
225 238 255
225 238 255
225 238 255
225 238 255
225 238 255
225 238 255
225 238 255
225 238 255
225 238 255
225 238 255
225 238 255
225 238 255
225 238 255
225 238 255
225 238 255
225 238 255
225 238 255
225 238 255
225 238 255
225 238 255
225 238 255
225 238 255
225 238 255
225 238 255
225 238 255
225 238 255
225 238 255
225 238 255
225 238 255
225 238 255
225 238 255
225 238 255
225 238 255
225 238 255
225 238 255
225 238 255
225 238 255
225 238 255
225 238 255
225 238 255
225 238 255
225 238 255
225 238 255
225 238 255
225 238 255
225 238 255
225 238 255
225 238 255
225 238 255
225 238 255
225 238 255
225 238 255
225 238 255
225 238 255
225 238 255
225 238 255
225 238 255
225 238 255
225 238 255
225 238 255
225 238 255
225 238 255
225 238 255
225 238 255
225 238 255
225 238 255
225 238 255
225 238 255
225 238 255
225 238 255
225 238 255
225 238 255
225 238 255
225 238 255
225 238 255
225 238 255
225 238 255
225 238 255
225 238 255
225 238 255
225 238 255
225 238 255
225 238 255
225 238 255
225 238 255
225 238 255
225 238 255
225 238 255
225 238 255
225 238 255
225 238 255
225 238 255
225 238 255
225 238 255
225 238 255
225 238 255
225 238 255
225 238 255
225 238 255
225 238 255
225 238 255
225 238 255
225 238 255
225 238 255
225 238 255
225 238 255
225 238 255
225 238 255
225 238 255
225 238 255
225 238 255
225 238 255
225 238 255
225 238 255
225 238 255
225 238 255
225 238 255
225 238 255
225 238 255
225 238 255
225 238 255
225 238 255
225 238 255
225 238 255
225 238 255
225 238 255
225 238 255
225 238 255
225 238 255
225 238 255
225 238 255
225 238 255
225 238 255
225 238 255
225 238 255
225 238 255
225 238 255
225 238 255
225 238 255
225 238 255
225 238 255
225 238 255
225 238 255
225 238 255
225 238 255
225 238 255
225 238 255
225 238 255
225 238 255
225 238 255
225 238 255
225 238 255
225 238 255
225 238 255
225 238 255
225 238 255
225 238 255
225 238 255
225 238 255
225 238 255
225 238 255
225 238 255
225 238 255
225 238 255
225 238 255
225 238 255
225 238 255
225 238 255
225 238 255
225 238 255
225 238 255
225 238 255
225 238 255
225 238 255
225 238 255
225 238 255
225 238 255
225 238 255
225 238 255
225 238 255
225 238 255
225 238 255
225 238 255
225 238 255
225 238 255
225 238 255
225 238 255
225 238 255
225 238 255
225 238 255
225 238 255
225 238 255
225 238 255
225 238 255
225 238 255
225 238 255
225 238 255
225 238 255
225 238 255
225 238 255
225 238 255
225 238 255
225 238 255
225 238 255
225 238 255
225 238 255
225 238 255
225 238 255
225 238 255
225 238 255
225 238 255
225 238 255
225 238 255
225 238 255
225 238 255
225 238 255
225 238 255
225 238 255
225 238 255
225 238 255
225 238 255
218 230 248
100 106 120
0 0 42
0 0 42
0 0 42
0 0 42
0 0 42
0 0 42
0 0 42
0 0 42
0 0 42
0 0 42
0 0 42
0 0 42
0 0 42
0 0 42
0 0 42
0 0 42
0 0 42
0 0 42
0 0 42
0 0 42
0 0 42
0 0 42
0 0 42
0 0 42
0 0 42
0 0 42
0 0 42
0 0 42
0 0 42
0 0 42
0 0 42
0 0 42
0 0 42
0 0 42
0 0 42
0 0 42
0 0 42
0 0 42
0 0 42
0 0 42
0 0 42
0 0 42
0 0 42
0 0 42
0 0 42
0 0 42
0 0 42
0 0 42
0 0 42
0 0 42
0 0 42
0 0 42
0 0 42
0 0 42
0 0 42
0 0 42
0 0 42
0 0 42
0 0 42
0 0 42
0 0 42
0 0 42
0 0 42
0 0 42
0 0 42
0 0 42
0 0 42
0 0 42
0 0 42
0 0 42
0 0 42
0 0 42
0 0 42
0 0 42
0 0 42
0 0 42
0 0 42
0 0 42
0 0 42
0 0 42
0 0 42
0 0 42
0 0 42
0 0 42
0 0 42
0 0 42
0 0 42
0 0 42
0 0 42
0 0 42
0 0 42
0 0 42
0 0 42
0 0 42
0 0 42
0 0 42
0 0 42
0 0 42
0 0 42
0 0 42
0 0 42
0 0 42
0 0 42
0 0 42
0 0 42
0 0 43
0 0 46
0 0 41
0 0 40
0 0 45
0 0 49
5 5 45
5 5 34
42 53 25
46 59 22
86 91 86
164 164 164
106 100 80
82 76 47
82 76 53
76 73 46
83 78 51
86 79 52
86 78 49
86 81 51
81 80 47
69 73 37
69 75 41
49 57 21
47 55 16
59 67 28
60 69 29
56 66 26
69 75 32
75 78 36
104 110 82
49 52 41
11 12 30
0 0 38
0 0 41
0 0 39
0 0 42
0 0 45
0 0 42
0 0 44
0 0 42
0 0 42
0 0 42
0 0 42
0 0 42
0 0 42
0 0 42
0 0 42
0 0 42
0 0 42
0 0 42
0 0 42
0 0 42
0 0 42
0 0 42
0 0 42
0 0 42
0 0 42
0 0 42
95 101 115
221 233 250
225 238 255
225 238 255
225 238 255
225 238 255
225 238 255
225 238 255
225 238 255
225 238 255
225 238 255
225 238 255
225 238 255
225 238 255
225 238 255
225 238 255
225 238 255
225 238 255
225 238 255
225 238 255
225 238 255
225 238 255
225 238 255
225 238 255
225 238 255
225 238 255
225 238 255
225 238 255
225 238 255
225 238 255
225 238 255
225 238 255
225 238 255
225 238 255
225 238 255
225 238 255
225 238 255
225 238 255
225 238 255
225 238 255
225 238 255
225 238 255
225 238 255
225 238 255
225 238 255
225 238 255
225 238 255
225 238 255
225 238 255
225 238 255
225 238 255
225 238 255
225 238 255
225 238 255
225 238 255
225 238 255
225 238 255
225 238 255
225 238 255
225 238 255
225 238 255
225 238 255
225 238 255
225 238 255
225 238 255
225 238 255
225 238 255
225 238 255
225 238 255
225 238 255
225 238 255
225 238 255
225 238 255
225 238 255
225 238 255
225 238 255
225 238 255
225 238 255
225 238 255
225 238 255
225 238 255
225 238 255
225 238 255
225 238 255
225 238 255
225 238 255
225 238 255
225 238 255
225 238 255
225 238 255
225 238 255
225 238 255
225 238 255
225 238 255
225 238 255
225 238 255
225 238 255
225 238 255
225 238 255
225 238 255
225 238 255
225 238 255
225 238 255
225 238 255
225 238 255
225 238 255
225 238 255
225 238 255
225 238 255
225 238 255
225 238 255
225 238 255
225 238 255
225 238 255
225 238 255
225 238 255
225 238 255
225 238 255
225 238 255
225 238 255
225 238 255
225 238 255
225 238 255
225 238 255
225 238 255
225 238 255
225 238 255
225 238 255
225 238 255
225 238 255
225 238 255
225 238 255
225 238 255
225 238 255
225 238 255
225 238 255
225 238 255
225 238 255
225 238 255
225 238 255
225 238 255
225 238 255
225 238 255
225 238 255
225 238 255
225 238 255
225 238 255
225 238 255
225 238 255
225 238 255
225 238 255
225 238 255
225 238 255
225 238 255
225 238 255
225 238 255
225 238 255
225 238 255
225 238 255
225 238 255
225 238 255
225 238 255
225 238 255
225 238 255
225 238 255
225 238 255
225 238 255
225 238 255
225 238 255
225 238 255
225 238 255
225 238 255
225 238 255
225 238 255
225 238 255
225 238 255
225 238 255
225 238 255
225 238 255
225 238 255
225 238 255
225 238 255
225 238 255
225 238 255
225 238 255
225 238 255
225 238 255
225 238 255
225 238 255
225 238 255
225 238 255
225 238 255
225 238 255
225 238 255
225 238 255
225 238 255
225 238 255
225 238 255
225 238 255
225 238 255
225 238 255
225 238 255
225 238 255
225 238 255
225 238 255
225 238 255
225 238 255
225 238 255
225 238 255
225 238 255
225 238 255
225 238 255
225 238 255
225 238 255
225 238 255
225 238 255
225 238 255
225 238 255
225 238 255
225 238 255
225 238 255
225 238 255
225 238 255
225 238 255
225 238 255
225 238 255
225 238 255
225 238 255
225 238 255
225 238 255
225 238 255
225 238 255
225 238 255
225 238 255
225 238 255
216 228 245
71 75 90
0 0 42
0 0 42
0 0 42
0 0 42
0 0 42
0 0 42
0 0 42
0 0 42
0 0 42
0 0 42
0 0 42
0 0 42
0 0 42
0 0 42
0 0 42
0 0 42
0 0 42
0 0 42
0 0 42
0 0 42
0 0 42
0 0 42
0 0 42
0 0 42
0 0 42
0 0 42
0 0 42
0 0 42
0 0 42
0 0 42
0 0 42
0 0 42
0 0 42
0 0 42
0 0 42
0 0 42
0 0 42
0 0 42
0 0 42
0 0 42
0 0 42
0 0 42
0 0 42
0 0 42
0 0 42
0 0 42
0 0 42
0 0 42
0 0 42
0 0 42
0 0 42
0 0 42
0 0 42
0 0 42
0 0 42
0 0 42
0 0 42
0 0 42
0 0 42
0 0 42
0 0 42
0 0 42
0 0 42
0 0 42
0 0 42
0 0 42
0 0 42
0 0 42
0 0 42
0 0 42
0 0 42
0 0 42
0 0 42
0 0 42
0 0 42
0 0 42
0 0 42
0 0 42
0 0 42
0 0 42
0 0 42
0 0 42
0 0 42
0 0 42
0 0 42
0 0 42
0 0 42
0 0 42
0 0 42
0 0 42
0 0 42
0 0 42
0 0 42
0 0 42
0 0 42
0 0 42
0 0 42
0 0 42
0 0 42
0 0 42
0 0 42
0 0 42
0 0 42
0 0 42
0 0 45
0 0 44
0 0 39
0 0 42
0 0 49
0 0 45
0 0 33
20 23 21
45 56 20
61 69 55
165 173 176
125 123 117
97 85 51
81 70 43
79 74 50
82 79 52
81 73 47
87 77 50
75 69 39
78 80 46
68 75 38
65 73 37
55 65 30
48 58 19
51 60 21
51 59 21
54 62 24
54 60 23
49 61 17
46 58 27
52 56 50
0 0 35
0 0 42
0 0 41
0 0 41
0 0 40
0 0 42
0 0 44
0 0 42
0 0 42
0 0 42
0 0 42
0 0 42
0 0 42
0 0 42
0 0 42
0 0 42
0 0 42
0 0 42
0 0 42
0 0 42
0 0 42
0 0 42
0 0 42
0 0 42
0 0 42
0 0 42
0 0 42
45 47 65
206 218 235
225 238 255
225 238 255
225 238 255
225 238 255
225 238 255
225 238 255
225 238 255
225 238 255
225 238 255
225 238 255
225 238 255
225 238 255
225 238 255
225 238 255
225 238 255
225 238 255
225 238 255
225 238 255
225 238 255
225 238 255
225 238 255
225 238 255
225 238 255
225 238 255
225 238 255
225 238 255
225 238 255
225 238 255
225 238 255
225 238 255
225 238 255
225 238 255
225 238 255
225 238 255
225 238 255
225 238 255
225 238 255
225 238 255
225 238 255
225 238 255
225 238 255
225 238 255
225 238 255
225 238 255
225 238 255
225 238 255
225 238 255
225 238 255
225 238 255
225 238 255
225 238 255
225 238 255
225 238 255
225 238 255
225 238 255
225 238 255
225 238 255
225 238 255
225 238 255
225 238 255
225 238 255
225 238 255
225 238 255
225 238 255
225 238 255
225 238 255
225 238 255
225 238 255
225 238 255
225 238 255
225 238 255
225 238 255
225 238 255
225 238 255
225 238 255
225 238 255
225 238 255
225 238 255
225 238 255
225 238 255
225 238 255
225 238 255
225 238 255
225 238 255
225 238 255
225 238 255
225 238 255
225 238 255
225 238 255
225 238 255
225 238 255
225 238 255
225 238 255
225 238 255
225 238 255
225 238 255
225 238 255
225 238 255
225 238 255
225 238 255
225 238 255
225 238 255
225 238 255
225 238 255
225 238 255
225 238 255
225 238 255
225 238 255
225 238 255
225 238 255
225 238 255
225 238 255
225 238 255
225 238 255
225 238 255
225 238 255
225 238 255
225 238 255
225 238 255
225 238 255
225 238 255
225 238 255
225 238 255
225 238 255
225 238 255
225 238 255
225 238 255
225 238 255
225 238 255
225 238 255
225 238 255
225 238 255
225 238 255
225 238 255
225 238 255
225 238 255
225 238 255
225 238 255
225 238 255
225 238 255
225 238 255
225 238 255
225 238 255
225 238 255
225 238 255
225 238 255
225 238 255
225 238 255
225 238 255
225 238 255
225 238 255
225 238 255
225 238 255
225 238 255
225 238 255
225 238 255
225 238 255
225 238 255
225 238 255
225 238 255
225 238 255
225 238 255
225 238 255
225 238 255
225 238 255
225 238 255
225 238 255
225 238 255
225 238 255
225 238 255
225 238 255
225 238 255
225 238 255
225 238 255
225 238 255
225 238 255
225 238 255
225 238 255
225 238 255
225 238 255
225 238 255
225 238 255
225 238 255
225 238 255
225 238 255
225 238 255
225 238 255
225 238 255
225 238 255
225 238 255
225 238 255
225 238 255
225 238 255
225 238 255
225 238 255
225 238 255
225 238 255
225 238 255
225 238 255
225 238 255
225 238 255
225 238 255
225 238 255
225 238 255
225 238 255
225 238 255
225 238 255
225 238 255
225 238 255
225 238 255
225 238 255
225 238 255
225 238 255
225 238 255
225 238 255
225 238 255
225 238 255
225 238 255
225 238 255
225 238 255
225 238 255
225 238 255
225 238 255
225 238 255
225 238 255
225 238 255
225 238 255
225 238 255
225 238 255
225 238 255
225 238 255
225 238 255
225 238 255
225 238 255
225 238 255
190 200 216
45 47 65
0 0 42
0 0 42
0 0 42
0 0 42
0 0 42
0 0 42
0 0 42
0 0 42
0 0 42
0 0 42
0 0 42
0 0 42
0 0 42
0 0 42
0 0 42
0 0 42
0 0 42
0 0 42
0 0 42
0 0 42
0 0 42
0 0 42
0 0 42
0 0 42
0 0 42
0 0 42
0 0 42
0 0 42
0 0 42
0 0 42
0 0 42
0 0 42
0 0 42
0 0 42
0 0 42
0 0 42
0 0 42
0 0 42
0 0 42
0 0 42
0 0 42
0 0 42
0 0 42
0 0 42
0 0 42
0 0 42
0 0 42
0 0 42
0 0 42
0 0 42
0 0 42
0 0 42
0 0 42
0 0 42
0 0 42
0 0 42
0 0 42
0 0 42
0 0 42
0 0 42
0 0 42
0 0 42
0 0 42
0 0 42
0 0 42
0 0 42
0 0 42
0 0 42
0 0 42
0 0 42
0 0 42
0 0 42
0 0 42
0 0 42
0 0 42
0 0 42
0 0 42
0 0 42
0 0 42
0 0 42
0 0 42
0 0 42
0 0 42
0 0 42
0 0 42
0 0 42
0 0 42
0 0 42
0 0 42
0 0 42
0 0 42
0 0 42
0 0 42
0 0 42
0 0 42
0 0 42
0 0 42
0 0 42
0 0 42
0 0 42
0 0 42
0 0 42
0 0 42
0 0 42
0 0 39
0 0 37
0 0 41
0 0 49
0 0 36
12 18 21
35 44 21
42 51 19
133 140 138
194 199 204
106 98 79
110 96 61
88 76 53
78 72 49
95 89 63
89 80 53
75 66 39
73 71 41
71 74 40
71 78 43
73 82 43
59 68 28
54 60 22
43 51 16
39 48 12
43 53 18
41 50 20
46 62 24
49 64 37
8 11 29
0 0 43
0 0 40
0 0 42
0 0 42
0 0 42
0 0 42
0 0 42
0 0 42
0 0 42
0 0 42
0 0 42
0 0 42
0 0 42
0 0 42
0 0 42
0 0 42
0 0 42
0 0 42
0 0 42
0 0 42
0 0 42
0 0 42
0 0 42
0 0 42
0 0 42
0 0 42
22 23 49
198 209 225
225 238 255
225 238 255
225 238 255
225 238 255
225 238 255
225 238 255
225 238 255
225 238 255
225 238 255
225 238 255
225 238 255
225 238 255
225 238 255
225 238 255
225 238 255
225 238 255
225 238 255
225 238 255
225 238 255
225 238 255
225 238 255
225 238 255
225 238 255
225 238 255
225 238 255
225 238 255
225 238 255
225 238 255
225 238 255
225 238 255
225 238 255
225 238 255
225 238 255
225 238 255
225 238 255
225 238 255
225 238 255
225 238 255
225 238 255
225 238 255
225 238 255
225 238 255
225 238 255
225 238 255
225 238 255
225 238 255
225 238 255
225 238 255
225 238 255
225 238 255
225 238 255
225 238 255
225 238 255
225 238 255
225 238 255
225 238 255
225 238 255
225 238 255
225 238 255
225 238 255
225 238 255
225 238 255
225 238 255
225 238 255
225 238 255
225 238 255
225 238 255
225 238 255
225 238 255
225 238 255
225 238 255
225 238 255
225 238 255
225 238 255
225 238 255
225 238 255
225 238 255
225 238 255
225 238 255
225 238 255
225 238 255
225 238 255
225 238 255
225 238 255
225 238 255
225 238 255
225 238 255
225 238 255
225 238 255
225 238 255
225 238 255
225 238 255
225 238 255
225 238 255
225 238 255
225 238 255
225 238 255
225 238 255
225 238 255
225 238 255
225 238 255
225 238 255
225 238 255
225 238 255
225 238 255
225 238 255
225 238 255
225 238 255
225 238 255
225 238 255
225 238 255
225 238 255
225 238 255
225 238 255
225 238 255
225 238 255
225 238 255
225 238 255
225 238 255
225 238 255
225 238 255
225 238 255
225 238 255
225 238 255
225 238 255
225 238 255
225 238 255
225 238 255
225 238 255
225 238 255
225 238 255
225 238 255
225 238 255
225 238 255
225 238 255
225 238 255
225 238 255
225 238 255
225 238 255
225 238 255
225 238 255
225 238 255
225 238 255
225 238 255
225 238 255
225 238 255
225 238 255
225 238 255
225 238 255
225 238 255
225 238 255
225 238 255
225 238 255
225 238 255
225 238 255
225 238 255
225 238 255
225 238 255
225 238 255
225 238 255
225 238 255
225 238 255
225 238 255
225 238 255
225 238 255
225 238 255
225 238 255
225 238 255
225 238 255
225 238 255
225 238 255
225 238 255
225 238 255
225 238 255
225 238 255
225 238 255
225 238 255
225 238 255
225 238 255
225 238 255
225 238 255
225 238 255
225 238 255
225 238 255
225 238 255
225 238 255
225 238 255
225 238 255
225 238 255
225 238 255
225 238 255
225 238 255
225 238 255
225 238 255
225 238 255
225 238 255
225 238 255
225 238 255
225 238 255
225 238 255
225 238 255
225 238 255
225 238 255
225 238 255
225 238 255
225 238 255
225 238 255
225 238 255
225 238 255
225 238 255
225 238 255
225 238 255
225 238 255
225 238 255
225 238 255
225 238 255
225 238 255
225 238 255
225 238 255
225 238 255
225 238 255
225 238 255
225 238 255
225 238 255
225 238 255
225 238 255
225 238 255
225 238 255
225 238 255
225 238 255
225 238 255
225 238 255
225 238 255
225 238 255
225 238 255
225 238 255
225 238 255
174 184 200
22 23 49
0 0 42
0 0 42
0 0 42
0 0 42
0 0 42
0 0 42
0 0 42
0 0 42
0 0 42
0 0 42
0 0 42
0 0 42
0 0 42
0 0 42
0 0 42
0 0 42
0 0 42
0 0 42
0 0 42
0 0 42
0 0 42
0 0 42
0 0 42
0 0 42
0 0 42
0 0 42
0 0 42
0 0 42
0 0 42
0 0 42
0 0 42
0 0 42
0 0 42
0 0 42
0 0 42
0 0 42
0 0 42
0 0 42
0 0 42
0 0 42
0 0 42
0 0 42
0 0 42
0 0 42
0 0 42
0 0 42
0 0 42
0 0 42
0 0 42
0 0 42
0 0 42
0 0 42
0 0 42
0 0 42
0 0 42
0 0 42
0 0 42
0 0 42
0 0 42
0 0 42
0 0 42
0 0 42
0 0 42
0 0 42
0 0 42
0 0 42
0 0 42
0 0 42
0 0 42
0 0 42
0 0 42
0 0 42
0 0 42
0 0 42
0 0 42
0 0 42
0 0 42
0 0 42
0 0 42
0 0 42
0 0 42
0 0 42
0 0 42
0 0 42
0 0 42
0 0 42
0 0 42
0 0 42
0 0 42
0 0 42
0 0 42
0 0 42
0 0 42
0 0 42
0 0 42
0 0 42
0 0 42
0 0 42
0 0 42
0 0 42
0 0 42
0 0 42
0 0 40
0 0 44
0 0 36
0 0 40
0 0 47
2 7 30
30 41 14
47 58 27
91 97 89
177 179 177
168 164 159
92 81 56
97 86 56
96 86 61
85 78 54
86 79 54
76 69 43
66 60 34
66 64 35
73 74 41
75 77 41
71 78 36
72 78 39
72 76 38
57 67 30
54 65 26
52 63 24
49 64 21
46 61 26
35 45 44
0 0 45
0 0 41
0 0 39
0 0 41
0 0 42
0 0 42
0 0 42
0 0 42
0 0 42
0 0 42
0 0 42
0 0 42
0 0 42
0 0 42
0 0 42
0 0 42
0 0 42
0 0 42
0 0 42
0 0 42
0 0 42
0 0 42
0 0 42
0 0 42
0 0 42
0 0 42
31 33 55
192 203 219
225 238 255
225 238 255
225 238 255
225 238 255
225 238 255
225 238 255
225 238 255
225 238 255
225 238 255
225 238 255
225 238 255
225 238 255
225 238 255
225 238 255
225 238 255
225 238 255
225 238 255
225 238 255
225 238 255
225 238 255
225 238 255
225 238 255
225 238 255
225 238 255
225 238 255
225 238 255
225 238 255
225 238 255
225 238 255
225 238 255
225 238 255
225 238 255
225 238 255
225 238 255
225 238 255
225 238 255
225 238 255
225 238 255
225 238 255
225 238 255
225 238 255
225 238 255
225 238 255
225 238 255
225 238 255
225 238 255
225 238 255
225 238 255
225 238 255
225 238 255
225 238 255
225 238 255
225 238 255
225 238 255
225 238 255
225 238 255
225 238 255
225 238 255
225 238 255
225 238 255
225 238 255
225 238 255
225 238 255
225 238 255
225 238 255
225 238 255
225 238 255
225 238 255
225 238 255
225 238 255
225 238 255
225 238 255
225 238 255
225 238 255
225 238 255
225 238 255
225 238 255
225 238 255
225 238 255
225 238 255
225 238 255
225 238 255
225 238 255
225 238 255
225 238 255
225 238 255
225 238 255
225 238 255
225 238 255
225 238 255
225 238 255
225 238 255
225 238 255
225 238 255
225 238 255
225 238 255
225 238 255
225 238 255
225 238 255
225 238 255
225 238 255
225 238 255
225 238 255
225 238 255
225 238 255
225 238 255
225 238 255
225 238 255
225 238 255
225 238 255
225 238 255
225 238 255
225 238 255
225 238 255
225 238 255
225 238 255
225 238 255
225 238 255
225 238 255
225 238 255
225 238 255
225 238 255
225 238 255
225 238 255
225 238 255
225 238 255
225 238 255
225 238 255
225 238 255
225 238 255
225 238 255
225 238 255
225 238 255
225 238 255
225 238 255
225 238 255
225 238 255
225 238 255
225 238 255
225 238 255
225 238 255
225 238 255
225 238 255
225 238 255
225 238 255
225 238 255
225 238 255
225 238 255
225 238 255
225 238 255
225 238 255
225 238 255
225 238 255
225 238 255
225 238 255
225 238 255
225 238 255
225 238 255
225 238 255
225 238 255
225 238 255
225 238 255
225 238 255
225 238 255
225 238 255
225 238 255
225 238 255
225 238 255
225 238 255
225 238 255
225 238 255
225 238 255
225 238 255
225 238 255
225 238 255
225 238 255
225 238 255
225 238 255
225 238 255
225 238 255
225 238 255
225 238 255
225 238 255
225 238 255
225 238 255
225 238 255
225 238 255
225 238 255
225 238 255
225 238 255
225 238 255
225 238 255
225 238 255
225 238 255
225 238 255
225 238 255
225 238 255
225 238 255
225 238 255
225 238 255
225 238 255
225 238 255
225 238 255
225 238 255
225 238 255
225 238 255
225 238 255
225 238 255
225 238 255
225 238 255
225 238 255
225 238 255
225 238 255
225 238 255
225 238 255
225 238 255
225 238 255
225 238 255
225 238 255
225 238 255
225 238 255
225 238 255
225 238 255
225 238 255
225 238 255
225 238 255
225 238 255
225 238 255
225 238 255
225 238 255
225 238 255
225 238 255
225 238 255
225 238 255
225 238 255
225 238 255
225 238 255
225 238 255
225 238 255
173 183 198
0 0 42
0 0 42
0 0 42
0 0 42
0 0 42
0 0 42
0 0 42
0 0 42
0 0 42
0 0 42
0 0 42
0 0 42
0 0 42
0 0 42
0 0 42
0 0 42
0 0 42
0 0 42
0 0 42
0 0 42
0 0 42
0 0 42
0 0 42
0 0 42
0 0 42
0 0 42
0 0 42
0 0 42
0 0 42
0 0 42
0 0 42
0 0 42
0 0 42
0 0 42
0 0 42
0 0 42
0 0 42
0 0 42
0 0 42
0 0 42
0 0 42
0 0 42
0 0 42
0 0 42
0 0 42
0 0 42
0 0 42
0 0 42
0 0 42
0 0 42
0 0 42
0 0 42
0 0 42
0 0 42
0 0 42
0 0 42
0 0 42
0 0 42
0 0 42
0 0 42
0 0 42
0 0 42
0 0 42
0 0 42
0 0 42
0 0 42
0 0 42
0 0 42
0 0 42
0 0 42
0 0 42
0 0 42
0 0 42
0 0 42
0 0 42
0 0 42
0 0 42
0 0 42
0 0 42
0 0 42
0 0 42
0 0 42
0 0 42
0 0 42
0 0 42
0 0 42
0 0 42
0 0 42
0 0 42
0 0 42
0 0 42
0 0 42
0 0 42
0 0 42
0 0 42
0 0 42
0 0 42
0 0 42
0 0 42
0 0 42
0 0 42
0 0 40
0 0 40
0 0 43
0 0 38
0 0 42
3 6 37
22 30 22
41 53 20
53 59 43
164 169 161
149 145 137
106 96 81
89 77 48
92 80 50
84 73 47
69 62 36
90 83 57
76 71 45
66 64 37
68 68 38
67 69 36
65 68 36
67 70 40
74 78 46
65 70 36
59 67 30
62 72 34
57 68 27
47 63 26
31 39 35
0 3 42
0 0 44
0 0 39
0 0 41
0 0 42
0 0 42
0 0 42
0 0 42
0 0 42
0 0 42
0 0 42
0 0 42
0 0 42
0 0 42
0 0 42
0 0 42
0 0 42
0 0 42
0 0 42
0 0 42
0 0 42
0 0 42
0 0 42
0 0 42
0 0 42
0 0 42
0 0 42
161 170 185
225 238 255
225 238 255
225 238 255
225 238 255
225 238 255
225 238 255
225 238 255
225 238 255
225 238 255
225 238 255
225 238 255
225 238 255
225 238 255
225 238 255
225 238 255
225 238 255
225 238 255
225 238 255
225 238 255
225 238 255
225 238 255
225 238 255
225 238 255
225 238 255
225 238 255
225 238 255
225 238 255
225 238 255
225 238 255
225 238 255
225 238 255
225 238 255
225 238 255
225 238 255
225 238 255
225 238 255
225 238 255
225 238 255
225 238 255
225 238 255
225 238 255
225 238 255
225 238 255
225 238 255
225 238 255
225 238 255
225 238 255
225 238 255
225 238 255
225 238 255
225 238 255
225 238 255
225 238 255
225 238 255
225 238 255
225 238 255
225 238 255
225 238 255
225 238 255
225 238 255
225 238 255
225 238 255
225 238 255
225 238 255
225 238 255
225 238 255
225 238 255
225 238 255
225 238 255
225 238 255
225 238 255
225 238 255
225 238 255
225 238 255
225 238 255
225 238 255
225 238 255
225 238 255
225 238 255
225 238 255
225 238 255
225 238 255
225 238 255
225 238 255
225 238 255
225 238 255
225 238 255
225 238 255
225 238 255
225 238 255
225 238 255
225 238 255
225 238 255
225 238 255
225 238 255
225 238 255
225 238 255
225 238 255
225 238 255
225 238 255
225 238 255
225 238 255
225 238 255
225 238 255
225 238 255
225 238 255
225 238 255
225 238 255
225 238 255
225 238 255
225 238 255
225 238 255
225 238 255
225 238 255
225 238 255
225 238 255
225 238 255
225 238 255
225 238 255
225 238 255
225 238 255
225 238 255
225 238 255
225 238 255
225 238 255
225 238 255
225 238 255
225 238 255
225 238 255
225 238 255
225 238 255
225 238 255
225 238 255
225 238 255
225 238 255
225 238 255
225 238 255
225 238 255
225 238 255
225 238 255
225 238 255
225 238 255
225 238 255
225 238 255
225 238 255
225 238 255
225 238 255
225 238 255
225 238 255
225 238 255
225 238 255
225 238 255
225 238 255
225 238 255
225 238 255
225 238 255
225 238 255
225 238 255
225 238 255
225 238 255
225 238 255
225 238 255
225 238 255
225 238 255
225 238 255
225 238 255
225 238 255
225 238 255
225 238 255
225 238 255
225 238 255
225 238 255
225 238 255
225 238 255
225 238 255
225 238 255
225 238 255
225 238 255
225 238 255
225 238 255
225 238 255
225 238 255
225 238 255
225 238 255
225 238 255
225 238 255
225 238 255
225 238 255
225 238 255
225 238 255
225 238 255
225 238 255
225 238 255
225 238 255
225 238 255
225 238 255
225 238 255
225 238 255
225 238 255
225 238 255
225 238 255
225 238 255
225 238 255
225 238 255
225 238 255
225 238 255
225 238 255
225 238 255
225 238 255
225 238 255
225 238 255
225 238 255
225 238 255
225 238 255
225 238 255
225 238 255
225 238 255
225 238 255
225 238 255
225 238 255
225 238 255
225 238 255
225 238 255
225 238 255
225 238 255
225 238 255
225 238 255
225 238 255
225 238 255
225 238 255
225 238 255
225 238 255
225 238 255
225 238 255
225 238 255
225 238 255
225 238 255
225 238 255
225 238 255
225 238 255
225 238 255
156 165 179
0 0 42
0 0 42
0 0 42
0 0 42
0 0 42
0 0 42
0 0 42
0 0 42
0 0 42
0 0 42
0 0 42
0 0 42
0 0 42
0 0 42
0 0 42
0 0 42
0 0 42
0 0 42
0 0 42
0 0 42
0 0 42
0 0 42
0 0 42
0 0 42
0 0 42
0 0 42
0 0 42
0 0 42
0 0 42
0 0 42
0 0 42
0 0 42
0 0 42
0 0 42
0 0 42
0 0 42
0 0 42
0 0 42
0 0 42
0 0 42
0 0 42
0 0 42
0 0 42
0 0 42
0 0 42
0 0 42
0 0 42
0 0 42
0 0 42
0 0 42
0 0 42
0 0 42
0 0 42
0 0 42
0 0 42
0 0 42
0 0 42
0 0 42
0 0 42
0 0 42
0 0 42
0 0 42
0 0 42
0 0 42
0 0 42
0 0 42
0 0 42
0 0 42
0 0 42
0 0 42
0 0 42
0 0 42
0 0 42
0 0 42
0 0 42
0 0 42
0 0 42
0 0 42
0 0 42
0 0 42
0 0 42
0 0 42
0 0 42
0 0 42
0 0 42
0 0 42
0 0 42
0 0 42
0 0 42
0 0 42
0 0 42
0 0 42
0 0 42
0 0 42
0 0 42
0 0 42
0 0 42
0 0 42
0 0 42
0 0 42
0 0 39
0 0 37
0 0 39
0 0 42
0 0 41
19 25 31
26 39 3
35 46 17
73 76 66
152 153 142
83 74 61
91 79 56
103 89 60
95 82 53
83 73 45
79 75 47
74 71 43
65 63 36
58 58 30
63 67 36
67 73 40
74 77 42
73 79 39
66 75 37
58 65 29
61 66 36
61 69 42
50 61 39
24 30 32
0 0 40
0 0 39
0 0 40
0 0 44
0 0 42
0 0 42
0 0 42
0 0 42
0 0 42
0 0 42
0 0 42
0 0 42
0 0 42
0 0 42
0 0 42
0 0 42
0 0 42
0 0 42
0 0 42
0 0 42
0 0 42
0 0 42
0 0 42
0 0 42
0 0 42
0 0 42
0 0 42
164 173 188
225 238 255
225 238 255
225 238 255
225 238 255
225 238 255
225 238 255
225 238 255
225 238 255
225 238 255
225 238 255
225 238 255
225 238 255
225 238 255
225 238 255
225 238 255
225 238 255
225 238 255
225 238 255
225 238 255
225 238 255
225 238 255
225 238 255
225 238 255
225 238 255
225 238 255
225 238 255
225 238 255
225 238 255
225 238 255
225 238 255
225 238 255
225 238 255
225 238 255
225 238 255
225 238 255
225 238 255
225 238 255
225 238 255
225 238 255
225 238 255
225 238 255
225 238 255
225 238 255
225 238 255
225 238 255
225 238 255
225 238 255
225 238 255
225 238 255
225 238 255
225 238 255
225 238 255
225 238 255
225 238 255
225 238 255
225 238 255
225 238 255
225 238 255
225 238 255
225 238 255
225 238 255
225 238 255
225 238 255
225 238 255
225 238 255
225 238 255
225 238 255
225 238 255
225 238 255
225 238 255
225 238 255
225 238 255
225 238 255
225 238 255
225 238 255
225 238 255
225 238 255
225 238 255
225 238 255
225 238 255
225 238 255
225 238 255
225 238 255
225 238 255
225 238 255
225 238 255
225 238 255
225 238 255
225 238 255
225 238 255
225 238 255
225 238 255
225 238 255
225 238 255
225 238 255
225 238 255
225 238 255
225 238 255
225 238 255
225 238 255
225 238 255
225 238 255
225 238 255
225 238 255
225 238 255
225 238 255
225 238 255
225 238 255
225 238 255
225 238 255
225 238 255
225 238 255
225 238 255
225 238 255
225 238 255
225 238 255
225 238 255
225 238 255
225 238 255
225 238 255
225 238 255
225 238 255
225 238 255
225 238 255
225 238 255
225 238 255
225 238 255
225 238 255
225 238 255
225 238 255
225 238 255
225 238 255
225 238 255
225 238 255
225 238 255
225 238 255
225 238 255
225 238 255
225 238 255
225 238 255
225 238 255
225 238 255
225 238 255
225 238 255
225 238 255
225 238 255
225 238 255
225 238 255
225 238 255
225 238 255
225 238 255
225 238 255
225 238 255
225 238 255
225 238 255
225 238 255
225 238 255
225 238 255
225 238 255
225 238 255
225 238 255
225 238 255
225 238 255
225 238 255
225 238 255
225 238 255
225 238 255
225 238 255
225 238 255
225 238 255
225 238 255
225 238 255
225 238 255
225 238 255
225 238 255
225 238 255
225 238 255
225 238 255
225 238 255
225 238 255
225 238 255
225 238 255
225 238 255
225 238 255
225 238 255
225 238 255
225 238 255
225 238 255
225 238 255
225 238 255
225 238 255
225 238 255
225 238 255
225 238 255
225 238 255
225 238 255
225 238 255
225 238 255
225 238 255
225 238 255
225 238 255
225 238 255
225 238 255
225 238 255
225 238 255
225 238 255
225 238 255
225 238 255
225 238 255
225 238 255
225 238 255
225 238 255
225 238 255
225 238 255
225 238 255
225 238 255
225 238 255
225 238 255
225 238 255
225 238 255
225 238 255
225 238 255
225 238 255
225 238 255
225 238 255
225 238 255
225 238 255
225 238 255
225 238 255
225 238 255
225 238 255
225 238 255
225 238 255
225 238 255
225 238 255
225 238 255
225 238 255
225 238 255
225 238 255
225 238 255
225 238 255
225 238 255
225 238 255
158 166 181
0 0 42
0 0 42
0 0 42
0 0 42
0 0 42
0 0 42
0 0 42
0 0 42
0 0 42
0 0 42
0 0 42
0 0 42
0 0 42
0 0 42
0 0 42
0 0 42
0 0 42
0 0 42
0 0 42
0 0 42
0 0 42
0 0 42
0 0 42
0 0 42
0 0 42
0 0 42
0 0 42
0 0 42
0 0 42
0 0 42
0 0 42
0 0 42
0 0 42
0 0 42
0 0 42
0 0 42
0 0 42
0 0 42
0 0 42
0 0 42
0 0 42
0 0 42
0 0 42
0 0 42
0 0 42
0 0 42
0 0 42
0 0 42
0 0 42
0 0 42
0 0 42
0 0 42
0 0 42
0 0 42
0 0 42
0 0 42
0 0 42
0 0 42
0 0 42
0 0 42
0 0 42
0 0 42
0 0 42
0 0 42
0 0 42
0 0 42
0 0 42
0 0 42
0 0 42
0 0 42
0 0 42
0 0 42
0 0 42
0 0 42
0 0 42
0 0 42
0 0 42
0 0 42
0 0 42
0 0 42
0 0 42
0 0 42
0 0 42
0 0 42
0 0 42
0 0 42
0 0 42
0 0 42
0 0 42
0 0 42
0 0 42
0 0 42
0 0 42
0 0 42
0 0 42
0 0 42
0 0 42
0 0 42
0 0 42
0 0 40
0 0 40
0 0 38
0 0 42
4 4 39
21 30 23
37 49 12
43 50 34
102 104 92
126 125 114
97 85 62
96 80 54
111 97 69
95 81 51
78 70 40
73 68 40
72 70 44
68 68 41
57 61 33
48 54 23
65 72 33
71 77 28
70 85 40
61 73 47
54 57 45
46 49 39
25 28 25
0 0 38
0 0 46
0 0 35
0 0 38
0 0 44
0 0 42
0 0 42
0 0 42
0 0 42
0 0 42
0 0 42
0 0 42
0 0 42
0 0 42
0 0 42
0 0 42
0 0 42
0 0 42
0 0 42
0 0 42
0 0 42
0 0 42
0 0 42
0 0 42
0 0 42
0 0 42
0 0 42
0 0 42
167 176 191
225 238 255
225 238 255
225 238 255
225 238 255
225 238 255
225 238 255
225 238 255
225 238 255
225 238 255
225 238 255
225 238 255
225 238 255
225 238 255
225 238 255
225 238 255
225 238 255
225 238 255
225 238 255
225 238 255
225 238 255
225 238 255
225 238 255
225 238 255
225 238 255
225 238 255
225 238 255
225 238 255
225 238 255
225 238 255
225 238 255
225 238 255
225 238 255
225 238 255
225 238 255
225 238 255
225 238 255
225 238 255
225 238 255
225 238 255
225 238 255
225 238 255
225 238 255
225 238 255
225 238 255
225 238 255
225 238 255
225 238 255
225 238 255
225 238 255
225 238 255
225 238 255
225 238 255
225 238 255
225 238 255
225 238 255
225 238 255
225 238 255
225 238 255
225 238 255
225 238 255
225 238 255
225 238 255
225 238 255
225 238 255
225 238 255
225 238 255
225 238 255
225 238 255
225 238 255
225 238 255
225 238 255
225 238 255
225 238 255
225 238 255
225 238 255
225 238 255
225 238 255
225 238 255
225 238 255
225 238 255
225 238 255
225 238 255
225 238 255
225 238 255
225 238 255
225 238 255
225 238 255
225 238 255
225 238 255
225 238 255
225 238 255
225 238 255
225 238 255
225 238 255
225 238 255
225 238 255
225 238 255
225 238 255
225 238 255
225 238 255
225 238 255
225 238 255
225 238 255
225 238 255
225 238 255
225 238 255
225 238 255
225 238 255
225 238 255
225 238 255
225 238 255
225 238 255
225 238 255
225 238 255
225 238 255
225 238 255
225 238 255
225 238 255
225 238 255
225 238 255
225 238 255
225 238 255
225 238 255
225 238 255
225 238 255
225 238 255
225 238 255
225 238 255
225 238 255
225 238 255
225 238 255
225 238 255
225 238 255
225 238 255
225 238 255
225 238 255
225 238 255
225 238 255
225 238 255
225 238 255
225 238 255
225 238 255
225 238 255
225 238 255
225 238 255
225 238 255
225 238 255
225 238 255
225 238 255
225 238 255
225 238 255
225 238 255
225 238 255
225 238 255
225 238 255
225 238 255
225 238 255
225 238 255
225 238 255
225 238 255
225 238 255
225 238 255
225 238 255
225 238 255
225 238 255
225 238 255
225 238 255
225 238 255
225 238 255
225 238 255
225 238 255
225 238 255
225 238 255
225 238 255
225 238 255
225 238 255
225 238 255
225 238 255
225 238 255
225 238 255
225 238 255
225 238 255
225 238 255
225 238 255
225 238 255
225 238 255
225 238 255
225 238 255
225 238 255
225 238 255
225 238 255
225 238 255
225 238 255
225 238 255
225 238 255
225 238 255
225 238 255
225 238 255
225 238 255
225 238 255
225 238 255
225 238 255
225 238 255
225 238 255
225 238 255
225 238 255
225 238 255
225 238 255
225 238 255
225 238 255
225 238 255
225 238 255
225 238 255
225 238 255
225 238 255
225 238 255
225 238 255
225 238 255
225 238 255
225 238 255
225 238 255
225 238 255
225 238 255
225 238 255
225 238 255
225 238 255
225 238 255
225 238 255
225 238 255
225 238 255
225 238 255
225 238 255
225 238 255
225 238 255
225 238 255
225 238 255
225 238 255
225 238 255
225 238 255
225 238 255
225 238 255
225 238 255
225 238 255
225 238 255
226 238 255
169 178 193
0 0 42
0 0 42
0 0 42
0 0 42
0 0 42
0 0 42
0 0 42
0 0 42
0 0 42
0 0 42
0 0 42
0 0 42
0 0 42
0 0 42
0 0 42
0 0 42
0 0 42
0 0 42
0 0 42
0 0 42
0 0 42
0 0 42
0 0 42
0 0 42
0 0 42
0 0 42
0 0 42
0 0 42
0 0 42
0 0 42
0 0 42
0 0 42
0 0 42
0 0 42
0 0 42
0 0 42
0 0 42
0 0 42
0 0 42
0 0 42
0 0 42
0 0 42
0 0 42
0 0 42
0 0 42
0 0 42
0 0 42
0 0 42
0 0 42
0 0 42
0 0 42
0 0 42
0 0 42
0 0 42
0 0 42
0 0 42
0 0 42
0 0 42
0 0 42
0 0 42
0 0 42
0 0 42
0 0 42
0 0 42
0 0 42
0 0 42
0 0 42
0 0 42
0 0 42
0 0 42
0 0 42
0 0 42
0 0 42
0 0 42
0 0 42
0 0 42
0 0 42
0 0 42
0 0 42
0 0 42
0 0 42
0 0 42
0 0 42
0 0 42
0 0 42
0 0 42
0 0 42
0 0 42
0 0 42
0 0 42
0 0 42
0 0 42
0 0 42
0 0 42
0 0 42
0 0 42
0 0 42
0 0 42
0 0 46
0 0 46
0 0 38
0 0 42
4 4 34
37 45 36
48 61 26
62 68 55
150 151 137
138 135 118
97 84 57
111 94 67
101 86 59
88 76 45
74 66 38
72 66 40
63 61 34
60 62 35
56 61 33
48 56 26
74 78 46
65 78 54
36 49 38
18 22 38
0 0 40
0 0 44
0 0 43
0 0 51
0 0 39
0 0 38
0 0 44
0 0 39
0 0 42
0 0 42
0 0 42
0 0 42
0 0 42
0 0 42
0 0 42
0 0 42
0 0 42
0 0 42
0 0 42
0 0 42
0 0 42
0 0 42
0 0 42
0 0 42
0 0 42
0 0 42
0 0 42
0 0 42
0 0 42
0 0 42
166 175 190
226 238 255
225 238 255
225 238 255
225 238 255
225 238 255
225 238 255
225 238 255
225 238 255
225 238 255
225 238 255
225 238 255
225 238 255
225 238 255
225 238 255
225 238 255
225 238 255
225 238 255
225 238 255
225 238 255
225 238 255
225 238 255
225 238 255
225 238 255
225 238 255
225 238 255
225 238 255
225 238 255
225 238 255
225 238 255
225 238 255
225 238 255
225 238 255
225 238 255
225 238 255
225 238 255
225 238 255
225 238 255
225 238 255
225 238 255
225 238 255
225 238 255
225 238 255
225 238 255
225 238 255
225 238 255
225 238 255
225 238 255
225 238 255
225 238 255
225 238 255
225 238 255
225 238 255
225 238 255
225 238 255
225 238 255
225 238 255
225 238 255
225 238 255
225 238 255
225 238 255
225 238 255
225 238 255
225 238 255
225 238 255
225 238 255
225 238 255
225 238 255
225 238 255
225 238 255
225 238 255
225 238 255
225 238 255
225 238 255
225 238 255
225 238 255
225 238 255
225 238 255
225 238 255
225 238 255
225 238 255
225 238 255
225 238 255
225 238 255
225 238 255
225 238 255
225 238 255
225 238 255
225 238 255
225 238 255
225 238 255
225 238 255
225 238 255
225 238 255
225 238 255
225 238 255
225 238 255
225 238 255
225 238 255
225 238 255
225 238 255
225 238 255
225 238 255
225 238 255
225 238 255
225 238 255
225 238 255
225 238 255
225 238 255
225 238 255
225 238 255
225 238 255
225 238 255
225 238 255
225 238 255
225 238 255
225 238 255
225 238 255
225 238 255
225 238 255
225 238 255
225 238 255
225 238 255
225 238 255
225 238 255
225 238 255
225 238 255
225 238 255
225 238 255
225 238 255
225 238 255
225 238 255
225 238 255
225 238 255
225 238 255
225 238 255
225 238 255
225 238 255
225 238 255
225 238 255
225 238 255
225 238 255
225 238 255
225 238 255
225 238 255
225 238 255
225 238 255
225 238 255
225 238 255
225 238 255
225 238 255
225 238 255
225 238 255
225 238 255
225 238 255
225 238 255
225 238 255
225 238 255
225 238 255
225 238 255
225 238 255
225 238 255
225 238 255
225 238 255
225 238 255
225 238 255
225 238 255
225 238 255
225 238 255
225 238 255
225 238 255
225 238 255
225 238 255
225 238 255
225 238 255
225 238 255
225 238 255
225 238 255
225 238 255
225 238 255
225 238 255
225 238 255
225 238 255
225 238 255
225 238 255
225 238 255
225 238 255
225 238 255
225 238 255
225 238 255
225 238 255
225 238 255
225 238 255
226 238 255
226 238 255
226 238 255
226 238 255
226 238 255
226 238 255
226 238 255
226 238 255
226 238 255
226 238 255
226 238 255
226 238 255
226 238 255
226 238 255
226 238 255
226 238 255
226 238 255
226 238 255
226 238 255
226 238 255
226 238 255
226 238 255
226 238 255
226 238 255
226 238 255
226 238 255
226 238 255
226 238 255
226 238 255
226 238 255
226 238 255
226 238 255
226 238 255
226 238 255
226 238 255
226 238 255
226 238 255
226 238 255
226 238 255
226 238 255
226 238 255
226 238 255
226 238 255
226 238 255
226 238 255
226 238 255
226 238 255
226 238 255
226 238 255
226 238 255
226 238 255
226 238 255
226 238 255
226 238 255
226 238 255
179 189 204
0 0 42
0 0 42
0 0 42
0 0 42
0 0 42
0 0 42
0 0 42
0 0 42
0 0 42
0 0 42
0 0 42
0 0 42
0 0 42
0 0 42
0 0 42
0 0 42
0 0 42
0 0 42
0 0 42
0 0 42
0 0 42
0 0 42
0 0 42
0 0 42
0 0 42
0 0 42
0 0 42
0 0 42
0 0 42
0 0 42
0 0 42
0 0 42
0 0 42
0 0 42
0 0 42
0 0 42
0 0 42
0 0 42
0 0 42
0 0 42
0 0 42
0 0 42
0 0 42
0 0 42
0 0 42
0 0 42
0 0 42
0 0 42
0 0 42
0 0 42
0 0 42
0 0 42
0 0 42
0 0 42
0 0 42
0 0 42
0 0 42
0 0 42
0 0 42
0 0 42
0 0 42
0 0 42
0 0 42
0 0 42
0 0 42
0 0 42
0 0 42
0 0 42
0 0 42
0 0 42
0 0 42
0 0 42
0 0 42
0 0 42
0 0 42
0 0 42
0 0 42
0 0 42
0 0 42
0 0 42
0 0 42
0 0 42
0 0 42
0 0 42
0 0 42
0 0 42
0 0 42
0 0 42
0 0 42
0 0 42
0 0 42
0 0 42
0 0 42
0 0 42
0 0 42
0 0 42
0 0 42
0 0 48
0 0 44
0 0 39
0 0 44
5 10 25
31 41 17
43 53 29
74 78 71
78 77 60
79 71 44
93 78 51
93 77 54
102 88 60
93 83 54
83 74 46
75 68 43
66 63 38
59 61 34
52 57 27
56 61 31
67 77 52
35 50 43
0 6 35
0 0 45
0 0 42
0 0 38
0 0 40
0 0 42
0 0 38
0 0 46
0 0 39
0 0 41
0 0 42
0 0 42
0 0 42
0 0 42
0 0 42
0 0 42
0 0 42
0 0 42
0 0 42
0 0 42
0 0 42
0 0 42
0 0 42
0 0 42
0 0 42
0 0 42
0 0 42
0 0 42
0 0 42
0 0 42
0 0 42
158 166 181
226 238 255
226 238 255
226 238 255
226 238 255
226 238 255
226 238 255
226 238 255
226 238 255
226 238 255
226 238 255
226 238 255
226 238 255
226 238 255
226 238 255
226 238 255
226 238 255
226 238 255
226 238 255
226 238 255
226 238 255
226 238 255
226 238 255
226 238 255
226 238 255
226 238 255
226 238 255
226 238 255
226 238 255
226 238 255
226 238 255
226 238 255
226 238 255
226 238 255
226 238 255
226 238 255
226 238 255
226 238 255
226 238 255
226 238 255
226 238 255
226 238 255
226 238 255
226 238 255
226 238 255
226 238 255
226 238 255
226 238 255
226 238 255
226 238 255
226 238 255
226 238 255
226 238 255
226 238 255
225 238 255
225 238 255
225 238 255
225 238 255
225 238 255
225 238 255
225 238 255
225 238 255
225 238 255
225 238 255
225 238 255
225 238 255
225 238 255
225 238 255
225 238 255
225 238 255
225 238 255
225 238 255
225 238 255
225 238 255
225 238 255
225 238 255
225 238 255
225 238 255
225 238 255
225 238 255
225 238 255
225 238 255
225 238 255
225 238 255
225 238 255
225 238 255
225 238 255
225 238 255
225 238 255
225 238 255
225 238 255
225 238 255
225 238 255
225 238 255
225 238 255
225 238 255
225 238 255
225 238 255
225 238 255
225 238 255
225 238 255
225 238 255
225 238 255
225 238 255
225 238 255
225 238 255
225 238 255
225 238 255
225 238 255
225 238 255
225 238 255
225 238 255
225 238 255
225 238 255
225 238 255
225 238 255
225 238 255
225 238 255
225 238 255
225 238 255
225 238 255
225 238 255
225 238 255
225 238 255
225 238 255
225 238 255
225 238 255
225 238 255
225 238 255
225 238 255
225 238 255
225 238 255
225 238 255
225 238 255
225 238 255
225 238 255
225 238 255
225 238 255
225 238 255
225 238 255
225 238 255
225 238 255
225 238 255
225 238 255
225 238 255
225 238 255
225 238 255
225 238 255
225 238 255
225 238 255
225 238 255
225 238 255
225 238 255
225 238 255
225 238 255
225 238 255
225 238 255
225 238 255
226 238 255
226 238 255
226 238 255
226 238 255
226 238 255
226 238 255
226 238 255
226 238 255
226 238 255
226 238 255
226 238 255
226 238 255
226 238 255
226 238 255
226 238 255
226 238 255
226 238 255
226 238 255
226 238 255
226 238 255
226 238 255
226 238 255
226 238 255
226 238 255
226 238 255
226 238 255
226 238 255
226 238 255
226 238 255
226 238 255
226 238 255
226 238 255
226 238 255
226 238 255
226 238 255
226 238 255
226 238 255
226 238 255
226 238 255
226 238 255
226 238 255
226 238 255
226 238 255
226 238 255
226 238 255
226 238 255
226 238 255
226 238 255
226 238 255
226 238 255
226 238 255
226 238 255
226 238 255
226 238 255
226 238 255
226 238 255
226 238 255
226 238 255
226 238 255
226 238 255
226 238 255
226 238 255
226 238 255
226 238 255
226 238 255
226 238 255
226 238 255
226 238 255
226 238 255
226 238 255
226 238 255
226 238 255
226 238 255
226 238 255
226 238 255
226 238 255
226 238 255
226 238 255
226 238 255
226 238 255
226 238 255
226 238 255
226 238 255
226 238 255
226 238 255
226 238 255
226 238 255
226 238 255
226 238 255
226 238 255
226 238 255
226 238 255
175 184 200
0 0 42
0 0 42
0 0 42
0 0 42
0 0 42
0 0 42
0 0 42
0 0 42
0 0 42
0 0 42
0 0 42
0 0 42
0 0 42
0 0 42
0 0 42
0 0 42
0 0 42
0 0 42
0 0 42
0 0 42
0 0 42
0 0 42
0 0 42
0 0 42
0 0 42
0 0 42
0 0 42
0 0 42
0 0 42
0 0 42
0 0 42
0 0 42
0 0 42
0 0 42
0 0 42
0 0 42
0 0 42
0 0 42
0 0 42
0 0 42
0 0 42
0 0 42
0 0 42
0 0 42
0 0 42
0 0 42
0 0 42
0 0 42
0 0 42
0 0 42
0 0 42
0 0 42
0 0 42
0 0 42
0 0 42
0 0 42
0 0 42
0 0 42
0 0 42
0 0 42
0 0 42
0 0 42
0 0 42
0 0 42
0 0 42
0 0 42
0 0 42
0 0 42
0 0 42
0 0 42
0 0 42
0 0 42
0 0 42
0 0 42
0 0 42
0 0 42
0 0 42
0 0 42
0 0 42
0 0 42
0 0 42
0 0 42
0 0 42
0 0 42
0 0 42
0 0 42
0 0 42
0 0 42
0 0 42
0 0 42
0 0 42
0 0 42
0 0 42
0 0 42
0 0 42
0 0 42
0 0 39
0 0 36
0 0 47
2 4 43
21 31 11
45 58 25
61 65 64
99 102 96
64 60 36
83 73 45
88 74 50
88 74 51
93 80 51
89 80 54
85 76 49
83 76 45
71 68 49
67 70 49
65 72 47
67 75 54
52 61 51
0 10 30
0 2 43
0 0 45
0 0 40
0 0 40
0 0 42
0 0 42
0 0 42
0 0 42
0 0 42
0 0 42
0 0 42
0 0 42
0 0 42
0 0 42
0 0 42
0 0 42
0 0 42
0 0 42
0 0 42
0 0 42
0 0 42
0 0 42
0 0 42
0 0 42
0 0 42
0 0 42
0 0 42
0 0 42
0 0 42
22 23 49
158 166 181
226 238 255
226 238 255
226 238 255
226 238 255
226 238 255
226 238 255
226 238 255
226 238 255
226 238 255
226 238 255
226 238 255
226 238 255
226 238 255
226 238 255
226 238 255
226 238 255
226 238 255
226 238 255
226 238 255
226 238 255
226 238 255
226 238 255
226 238 255
226 238 255
226 238 255
226 238 255
226 238 255
226 238 255
226 238 255
226 238 255
226 238 255
226 238 255
226 238 255
226 238 255
226 238 255
226 238 255
226 238 255
226 238 255
226 238 255
226 238 255
226 238 255
226 238 255
226 238 255
226 238 255
226 238 255
226 238 255
226 238 255
226 238 255
226 238 255
226 238 255
226 238 255
226 238 255
226 238 255
226 238 255
226 238 255
226 238 255
226 238 255
226 238 255
226 238 255
226 238 255
226 238 255
226 238 255
226 238 255
226 238 255
226 238 255
226 238 255
226 238 255
226 238 255
226 238 255
226 238 255
226 238 255
226 238 255
226 238 255
226 238 255
226 238 255
226 238 255
226 238 255
226 238 255
226 238 255
226 238 255
226 238 255
226 238 255
226 238 255
226 238 255
226 238 255
226 238 255
226 238 255
226 238 255
226 238 255
226 238 255
226 238 255
226 238 255
225 238 255
225 238 255
225 238 255
225 238 255
225 238 255
225 238 255
225 238 255
225 238 255
225 238 255
225 238 255
225 238 255
225 238 255
225 238 255
225 238 255
225 238 255
225 238 255
225 238 255
225 238 255
225 238 255
225 238 255
225 238 255
225 238 255
225 238 255
225 238 255
225 238 255
225 238 255
225 238 255
225 238 255
225 238 255
225 238 255
225 238 255
225 238 255
225 238 255
225 238 255
225 238 255
226 238 255
226 238 255
226 238 255
226 238 255
226 238 255
226 238 255
226 238 255
226 238 255
226 238 255
226 238 255
226 238 255
226 238 255
226 238 255
226 238 255
226 238 255
226 238 255
226 238 255
226 238 255
226 238 255
226 238 255
226 238 255
226 238 255
226 238 255
226 238 255
226 238 255
226 238 255
226 238 255
226 238 255
226 238 255
226 238 255
226 238 255
226 238 255
226 238 255
226 238 255
226 238 255
226 238 255
226 238 255
226 238 255
226 238 255
226 238 255
226 238 255
226 238 255
226 238 255
226 238 255
226 238 255
226 238 255
226 238 255
226 238 255
226 238 255
226 238 255
226 238 255
226 238 255
226 238 255
226 238 255
226 238 255
226 238 255
226 238 255
226 238 255
226 238 255
226 238 255
226 238 255
226 238 255
226 238 255
226 238 255
226 238 255
226 238 255
226 238 255
226 238 255
226 238 255
226 238 255
226 238 255
226 238 255
226 238 255
226 238 255
226 238 255
226 238 255
226 238 255
226 238 255
226 238 255
226 238 255
226 238 255
226 238 255
226 238 255
226 238 255
226 238 255
226 238 255
226 238 255
226 238 255
226 238 255
226 238 255
226 238 255
226 238 255
226 238 255
226 238 255
226 238 255
226 238 255
226 238 255
226 238 255
226 238 255
226 238 255
226 238 255
226 238 255
226 238 255
226 238 255
226 238 255
226 238 255
226 238 255
226 238 255
226 238 255
226 238 255
226 238 255
226 238 255
226 238 255
226 238 255
226 238 255
226 238 255
226 238 255
226 238 255
226 238 255
226 238 255
226 238 255
226 238 255
226 238 255
226 238 255
173 183 198
31 33 55
0 0 42
0 0 42
0 0 42
0 0 42
0 0 42
0 0 42
0 0 42
0 0 42
0 0 42
0 0 42
0 0 42
0 0 42
0 0 42
0 0 42
0 0 42
0 0 42
0 0 42
0 0 42
0 0 42
0 0 42
0 0 42
0 0 42
0 0 42
0 0 42
0 0 42
0 0 42
0 0 42
0 0 42
0 0 42
0 0 42
0 0 42
0 0 42
0 0 42
0 0 42
0 0 42
0 0 42
0 0 42
0 0 42
0 0 42
0 0 42
0 0 42
0 0 42
0 0 42
0 0 42
0 0 42
0 0 42
0 0 42
0 0 42
0 0 42
0 0 42
0 0 42
0 0 42
0 0 42
0 0 42
0 0 42
0 0 42
0 0 42
0 0 42
0 0 42
0 0 42
0 0 42
0 0 42
0 0 42
0 0 42
0 0 42
0 0 42
0 0 42
0 0 42
0 0 42
0 0 42
0 0 42
0 0 42
0 0 42
0 0 42
0 0 42
0 0 42
0 0 42
0 0 42
0 0 42
0 0 42
0 0 42
0 0 42
0 0 42
0 0 42
0 0 42
0 0 42
0 0 42
0 0 42
0 0 42
0 0 42
0 0 42
0 0 42
0 0 42
0 0 37
0 0 42
0 0 37
0 0 47
15 22 36
47 64 18
38 51 26
108 114 115
98 98 88
74 64 37
79 65 39
88 75 53
91 77 52
85 71 46
79 69 47
85 75 42
87 79 60
18 14 31
30 30 39
38 41 42
27 30 37
7 8 34
0 0 43
0 0 45
0 0 41
0 0 39
0 0 42
0 0 42
0 0 42
0 0 42
0 0 42
0 0 42
0 0 42
0 0 42
0 0 42
0 0 42
0 0 42
0 0 42
0 0 42
0 0 42
0 0 42
0 0 42
0 0 42
0 0 42
0 0 42
0 0 42
0 0 42
0 0 42
0 0 42
0 0 42
0 0 42
0 0 42
180 190 206
226 238 255
226 238 255
226 238 255
226 238 255
226 238 255
226 238 255
226 238 255
226 238 255
226 238 255
226 238 255
226 238 255
226 238 255
226 238 255
226 238 255
226 238 255
226 238 255
226 238 255
226 238 255
226 238 255
226 238 255
226 238 255
226 238 255
226 238 255
226 238 255
226 238 255
226 238 255
226 238 255
226 238 255
226 238 255
226 238 255
226 238 255
226 238 255
226 238 255
226 238 255
226 238 255
226 238 255
226 238 255
226 238 255
226 238 255
226 238 255
226 238 255
226 238 255
226 238 255
226 238 255
226 238 255
226 238 255
226 238 255
226 238 255
226 238 255
226 238 255
226 238 255
226 238 255
226 238 255
226 238 255
226 238 255
226 238 255
226 238 255
226 238 255
226 238 255
226 238 255
226 238 255
226 238 255
226 238 255
226 238 255
226 238 255
226 238 255
226 238 255
226 238 255
226 238 255
226 238 255
226 238 255
226 238 255
226 238 255
226 238 255
226 238 255
226 238 255
226 238 255
226 238 255
226 238 255
226 238 255
226 238 255
226 238 255
226 238 255
226 238 255
226 238 255
226 238 255
226 238 255
226 238 255
226 238 255
226 238 255
226 238 255
226 238 255
226 238 255
226 238 255
226 238 255
226 238 255
226 238 255
226 238 255
226 238 255
226 238 255
226 238 255
226 238 255
226 238 255
226 238 255
226 238 255
226 238 255
226 238 255
226 238 255
226 238 255
226 238 255
226 238 255
226 238 255
226 238 255
226 238 255
226 238 255
226 238 255
226 238 255
226 238 255
226 238 255
226 238 255
226 238 255
226 238 255
226 238 255
226 238 255
225 238 255
225 238 255
226 238 255
226 238 255
226 238 255
226 238 255
226 238 255
226 238 255
226 238 255
226 238 255
226 238 255
226 238 255
226 238 255
226 238 255
226 238 255
226 238 255
226 238 255
226 238 255
226 238 255
226 238 255
226 238 255
226 238 255
226 238 255
226 238 255
226 238 255
226 238 255
226 238 255
226 238 255
226 238 255
226 238 255
226 238 255
226 238 255
226 238 255
226 238 255
226 238 255
226 238 255
226 238 255
226 238 255
226 238 255
226 238 255
226 238 255
226 238 255
226 238 255
226 238 255
226 238 255
226 238 255
226 238 255
226 238 255
226 238 255
226 238 255
226 238 255
226 238 255
226 238 255
226 238 255
226 238 255
226 238 255
226 238 255
226 238 255
226 238 255
226 238 255
226 238 255
226 238 255
226 238 255
226 238 255
226 238 255
226 238 255
226 238 255
226 238 255
226 238 255
226 238 255
226 238 255
226 238 255
226 238 255
226 238 255
226 238 255
226 238 255
226 238 255
226 238 255
226 238 255
226 238 255
226 238 255
226 238 255
226 238 255
226 238 255
226 238 255
226 238 255
226 238 255
226 238 255
226 238 255
226 238 255
226 238 255
226 238 255
226 238 255
226 238 255
226 238 255
226 238 255
226 238 255
226 238 255
226 238 255
226 238 255
226 238 255
226 238 255
226 238 255
226 238 255
226 238 255
226 238 255
226 238 255
226 238 255
226 238 255
226 238 255
226 238 255
226 238 255
226 238 255
226 238 255
226 238 255
226 238 255
226 238 255
226 238 255
226 238 255
226 238 255
226 238 255
226 238 255
226 238 255
226 238 255
226 238 255
226 238 255
226 238 255
226 238 255
226 238 255
173 183 198
22 23 49
0 0 42
0 0 42
0 0 42
0 0 42
0 0 42
0 0 42
0 0 42
0 0 42
0 0 42
0 0 42
0 0 42
0 0 42
0 0 42
0 0 42
0 0 42
0 0 42
0 0 42
0 0 42
0 0 42
0 0 42
0 0 42
0 0 42
0 0 42
0 0 42
0 0 42
0 0 42
0 0 42
0 0 42
0 0 42
0 0 42
0 0 42
0 0 42
0 0 42
0 0 42
0 0 42
0 0 42
0 0 42
0 0 42
0 0 42
0 0 42
0 0 42
0 0 42
0 0 42
0 0 42
0 0 42
0 0 42
0 0 42
0 0 42
0 0 42
0 0 42
0 0 42
0 0 42
0 0 42
0 0 42
0 0 42
0 0 42
0 0 42
0 0 42
0 0 42
0 0 42
0 0 42
0 0 42
0 0 42
0 0 42
0 0 42
0 0 42
0 0 42
0 0 42
0 0 42
0 0 42
0 0 42
0 0 42
0 0 42
0 0 42
0 0 42
0 0 42
0 0 42
0 0 42
0 0 42
0 0 42
0 0 42
0 0 42
0 0 42
0 0 42
0 0 42
0 0 42
0 0 42
0 0 42
0 0 42
0 0 42
0 0 42
0 0 42
0 0 42
0 0 43
0 0 39
2 5 31
22 34 19
29 41 22
46 53 52
92 95 91
113 109 95
98 84 57
93 79 53
118 107 88
94 81 57
78 65 41
83 72 39
96 85 54
76 71 59
19 21 35
27 32 37
0 0 44
0 0 46
0 0 44
0 0 43
0 0 42
0 0 41
0 0 42
0 0 42
0 0 42
0 0 42
0 0 42
0 0 42
0 0 42
0 0 42
0 0 42
0 0 42
0 0 42
0 0 42
0 0 42
0 0 42
0 0 42
0 0 42
0 0 42
0 0 42
0 0 42
0 0 42
0 0 42
0 0 42
0 0 42
0 0 42
0 0 42
45 47 65
193 203 219
226 238 255
226 238 255
226 238 255
226 238 255
226 238 255
226 238 255
226 238 255
226 238 255
226 238 255
226 238 255
226 238 255
226 238 255
226 238 255
226 238 255
226 238 255
226 238 255
226 238 255
226 238 255
226 238 255
226 238 255
226 238 255
226 238 255
226 238 255
226 238 255
226 238 255
226 238 255
226 238 255
226 238 255
226 238 255
226 238 255
226 238 255
226 238 255
226 238 255
226 238 255
226 238 255
226 238 255
226 238 255
226 238 255
226 238 255
226 238 255
226 238 255
226 238 255
226 238 255
226 238 255
226 238 255
226 238 255
226 238 255
226 238 255
226 238 255
226 238 255
226 238 255
226 238 255
226 238 255
226 238 255
226 238 255
226 238 255
226 238 255
226 238 255
226 238 255
226 238 255
226 238 255
226 238 255
226 238 255
226 238 255
226 238 255
226 238 255
226 238 255
226 238 255
226 238 255
226 238 255
226 238 255
226 238 255
226 238 255
226 238 255
226 238 255
226 238 255
226 238 255
226 238 255
226 238 255
226 238 255
226 238 255
226 238 255
226 238 255
226 238 255
226 238 255
226 238 255
226 238 255
226 238 255
226 238 255
226 238 255
226 238 255
226 238 255
226 238 255
226 238 255
226 238 255
226 238 255
226 238 255
226 238 255
226 238 255
226 238 255
226 238 255
226 238 255
226 238 255
226 238 255
226 238 255
226 238 255
226 238 255
226 238 255
226 238 255
226 238 255
226 238 255
226 238 255
226 238 255
226 238 255
226 238 255
226 238 255
226 238 255
226 238 255
226 238 255
226 238 255
226 238 255
226 238 255
226 238 255
226 238 255
226 238 255
226 238 255
226 238 255
226 238 255
226 238 255
226 238 255
226 238 255
226 238 255
226 238 255
226 238 255
226 238 255
226 238 255
226 238 255
226 238 255
226 238 255
226 238 255
226 238 255
226 238 255
226 238 255
226 238 255
226 238 255
226 238 255
226 238 255
226 238 255
226 238 255
226 238 255
226 238 255
226 238 255
226 238 255
226 238 255
226 238 255
226 238 255
226 238 255
226 238 255
226 238 255
226 238 255
226 238 255
226 238 255
226 238 255
226 238 255
226 238 255
226 238 255
226 238 255
226 238 255
226 238 255
226 238 255
226 238 255
226 238 255
226 238 255
226 238 255
226 238 255
226 238 255
226 238 255
226 238 255
226 238 255
226 238 255
226 238 255
226 238 255
226 238 255
226 238 255
226 238 255
226 238 255
226 238 255
226 238 255
226 238 255
226 238 255
226 238 255
226 238 255
226 238 255
226 238 255
226 238 255
226 238 255
226 238 255
226 238 255
226 238 255
226 238 255
226 238 255
226 238 255
226 238 255
226 238 255
226 238 255
226 238 255
226 238 255
226 238 255
226 238 255
226 238 255
226 238 255
226 238 255
226 238 255
226 238 255
226 238 255
226 238 255
226 238 255
226 238 255
226 238 255
226 238 255
226 238 255
226 238 255
226 238 255
226 238 255
226 238 255
226 238 255
226 238 255
226 238 255
226 238 255
226 238 255
226 238 255
226 238 255
226 238 255
226 238 255
226 238 255
226 238 255
226 238 255
226 238 255
226 238 255
226 238 255
226 238 255
226 238 255
226 238 255
226 238 255
226 238 255
226 238 255
226 238 255
226 238 255
226 238 255
226 238 255
226 238 255
226 238 255
226 238 255
226 238 255
226 238 255
185 195 210
39 41 60
0 0 42
0 0 42
0 0 42
0 0 42
0 0 42
0 0 42
0 0 42
0 0 42
0 0 42
0 0 42
0 0 42
0 0 42
0 0 42
0 0 42
0 0 42
0 0 42
0 0 42
0 0 42
0 0 42
0 0 42
0 0 42
0 0 42
0 0 42
0 0 42
0 0 42
0 0 42
0 0 42
0 0 42
0 0 42
0 0 42
0 0 42
0 0 42
0 0 42
0 0 42
0 0 42
0 0 42
0 0 42
0 0 42
0 0 42
0 0 42
0 0 42
0 0 42
0 0 42
0 0 42
0 0 42
0 0 42
0 0 42
0 0 42
0 0 42
0 0 42
0 0 42
0 0 42
0 0 42
0 0 42
0 0 42
0 0 42
0 0 42
0 0 42
0 0 42
0 0 42
0 0 42
0 0 42
0 0 42
0 0 42
0 0 42
0 0 42
0 0 42
0 0 42
0 0 42
0 0 42
0 0 42
0 0 42
0 0 42
0 0 42
0 0 42
0 0 42
0 0 42
0 0 42
0 0 42
0 0 42
0 0 42
0 0 42
0 0 42
0 0 42
0 0 42
0 0 42
0 0 42
0 0 42
0 0 42
0 0 42
0 0 42
0 0 45
0 0 42
0 0 41
14 24 19
19 31 24
18 24 26
114 123 123
71 70 60
90 79 52
97 82 53
99 85 60
134 121 99
89 74 44
93 78 47
88 73 50
84 77 54
54 57 42
61 72 62
34 40 48
0 0 47
0 0 43
0 0 39
0 0 39
0 0 44
0 0 43
0 0 42
0 0 42
0 0 42
0 0 42
0 0 42
0 0 42
0 0 42
0 0 42
0 0 42
0 0 42
0 0 42
0 0 42
0 0 42
0 0 42
0 0 42
0 0 42
0 0 42
0 0 42
0 0 42
0 0 42
0 0 42
0 0 42
0 0 42
0 0 42
71 75 90
186 196 212
226 238 255
226 238 255
226 238 255
226 238 255
226 238 255
226 238 255
226 238 255
226 238 255
226 238 255
226 238 255
226 238 255
226 238 255
226 238 255
226 238 255
226 238 255
226 238 255
226 238 255
226 238 255
226 238 255
226 238 255
226 238 255
226 238 255
226 238 255
226 238 255
226 238 255
226 238 255
226 238 255
226 238 255
226 238 255
226 238 255
226 238 255
226 238 255
226 238 255
226 238 255
226 238 255
226 238 255
226 238 255
226 238 255
226 238 255
226 238 255
226 238 255
226 238 255
226 238 255
226 238 255
226 238 255
226 238 255
226 238 255
226 238 255
226 238 255
226 238 255
226 238 255
226 238 255
226 238 255
226 238 255
226 238 255
226 238 255
226 238 255
226 238 255
226 238 255
226 238 255
226 238 255
226 238 255
226 238 255
226 238 255
226 238 255
226 238 255
226 238 255
226 238 255
226 238 255
226 238 255
226 238 255
226 238 255
226 238 255
226 238 255
226 238 255
226 238 255
226 238 255
226 238 255
226 238 255
226 238 255
226 238 255
226 238 255
226 238 255
226 238 255
226 238 255
226 238 255
226 238 255
226 238 255
226 238 255
226 238 255
226 238 255
226 238 255
226 238 255
226 238 255
226 238 255
226 238 255
226 238 255
226 238 255
226 238 255
226 238 255
226 238 255
226 238 255
226 238 255
226 238 255
226 238 255
226 238 255
226 238 255
226 238 255
226 238 255
226 238 255
226 238 255
226 238 255
226 238 255
226 238 255
226 238 255
226 238 255
226 238 255
226 238 255
226 238 255
226 238 255
226 238 255
226 238 255
226 238 255
226 238 255
226 238 255
226 238 255
226 238 255
226 238 255
226 238 255
226 238 255
226 238 255
226 238 255
226 238 255
226 238 255
226 238 255
226 238 255
226 238 255
226 238 255
226 238 255
226 238 255
226 238 255
226 238 255
226 238 255
226 238 255
226 238 255
226 238 255
226 238 255
226 238 255
226 238 255
226 238 255
226 238 255
226 238 255
226 238 255
226 238 255
226 238 255
226 238 255
226 238 255
226 238 255
226 238 255
226 238 255
226 238 255
226 238 255
226 238 255
226 238 255
226 238 255
226 238 255
226 238 255
226 238 255
226 238 255
226 238 255
226 238 255
226 238 255
226 238 255
226 238 255
226 238 255
226 238 255
226 238 255
226 238 255
226 238 255
226 238 255
226 238 255
226 238 255
226 238 255
226 238 255
226 238 255
226 238 255
226 238 255
226 238 255
226 238 255
226 238 255
226 238 255
226 238 255
226 238 255
226 238 255
226 238 255
226 238 255
226 238 255
226 238 255
226 238 255
226 238 255
226 238 255
226 238 255
226 238 255
226 238 255
226 238 255
226 238 255
226 238 255
226 238 255
226 238 255
226 238 255
226 238 255
226 238 255
226 238 255
226 238 255
226 238 255
226 238 255
226 238 255
226 238 255
226 238 255
226 238 255
226 238 255
226 238 255
226 238 255
226 238 255
226 238 255
226 238 255
226 238 255
226 238 255
226 238 255
226 238 255
226 238 255
226 238 255
226 238 255
226 238 255
226 238 255
226 238 255
226 238 255
226 238 255
226 238 255
226 238 255
226 238 255
226 238 255
226 238 255
226 238 255
226 238 255
226 238 255
226 238 255
226 238 255
226 238 255
226 238 255
226 238 255
226 238 255
226 238 255
226 238 255
226 238 255
226 238 255
226 238 255
202 213 229
87 92 106
0 0 42
0 0 42
0 0 42
0 0 42
0 0 42
0 0 42
0 0 42
0 0 42
0 0 42
0 0 42
0 0 42
0 0 42
0 0 42
0 0 42
0 0 42
0 0 42
0 0 42
0 0 42
0 0 42
0 0 42
0 0 42
0 0 42
0 0 42
0 0 42
0 0 42
0 0 42
0 0 42
0 0 42
0 0 42
0 0 42
0 0 42
0 0 42
0 0 42
0 0 42
0 0 42
0 0 42
0 0 42
0 0 42
0 0 42
0 0 42
0 0 42
0 0 42
0 0 42
0 0 42
0 0 42
0 0 42
0 0 42
0 0 42
0 0 42
0 0 42
0 0 42
0 0 42
0 0 42
0 0 42
0 0 42
0 0 42
0 0 42
0 0 42
0 0 42
0 0 42
0 0 42
0 0 42
0 0 42
0 0 42
0 0 42
0 0 42
0 0 42
0 0 42
0 0 42
0 0 42
0 0 42
0 0 42
0 0 42
0 0 42
0 0 42
0 0 42
0 0 42
0 0 42
0 0 42
0 0 42
0 0 42
0 0 42
0 0 42
0 0 42
0 0 42
0 0 42
0 0 42
0 0 42
0 0 42
0 0 38
0 0 39
0 0 47
5 9 40
16 26 30
14 19 27
79 89 85
94 100 94
77 72 52
95 81 50
91 75 45
100 85 59
98 82 54
107 91 60
106 91 60
89 79 56
68 67 55
22 24 41
1 5 34
0 0 43
0 0 38
0 0 36
0 0 38
0 0 42
0 0 44
0 0 42
0 0 42
0 0 42
0 0 42
0 0 42
0 0 42
0 0 42
0 0 42
0 0 42
0 0 42
0 0 42
0 0 42
0 0 42
0 0 42
0 0 42
0 0 42
0 0 42
0 0 42
0 0 42
0 0 42
0 0 42
0 0 42
0 0 42
0 0 42
78 82 97
209 221 237
226 238 255
226 238 255
226 238 255
226 238 255
226 238 255
226 238 255
226 238 255
226 238 255
226 238 255
226 238 255
226 238 255
226 238 255
226 238 255
226 238 255
226 238 255
226 238 255
226 238 255
226 238 255
226 238 255
226 238 255
226 238 255
226 238 255
226 238 255
226 238 255
226 238 255
226 238 255
226 238 255
226 238 255
226 238 255
226 238 255
226 238 255
226 238 255
226 238 255
226 238 255
226 238 255
226 238 255
226 238 255
226 238 255
226 238 255
226 238 255
226 238 255
226 238 255
226 238 255
226 238 255
226 238 255
226 238 255
226 238 255
226 238 255
226 238 255
226 238 255
226 238 255
226 238 255
226 238 255
226 238 255
226 238 255
226 238 255
226 238 255
226 238 255
226 238 255
226 238 255
226 238 255
226 238 255
226 238 255
226 238 255
226 238 255
226 238 255
226 238 255
226 238 255
226 238 255
226 238 255
226 238 255
226 238 255
226 238 255
226 238 255
226 238 255
226 238 255
226 238 255
226 238 255
226 238 255
226 238 255
226 238 255
226 238 255
226 238 255
226 238 255
226 238 255
226 238 255
226 238 255
226 238 255
226 238 255
226 238 255
226 238 255
226 238 255
226 238 255
226 238 255
226 238 255
226 238 255
226 238 255
226 238 255
226 238 255
226 238 255
226 238 255
226 238 255
226 238 255
226 238 255
226 238 255
226 238 255
226 238 255
226 238 255
226 238 255
226 238 255
226 238 255
226 238 255
226 238 255
226 238 255
226 238 255
226 238 255
226 238 255
226 238 255
226 238 255
226 238 255
226 238 255
226 238 255
226 238 255
226 238 255
226 238 255
226 238 255
226 238 255
226 238 255
226 238 255
226 238 255
226 238 255
226 238 255
226 238 255
226 238 255
226 238 255
226 238 255
226 238 255
226 238 255
226 238 255
226 238 255
226 238 255
226 238 255
226 238 255
226 238 255
226 238 255
226 238 255
226 238 255
226 238 255
226 238 255
226 238 255
226 238 255
226 238 255
226 238 255
226 238 255
226 238 255
226 238 255
226 238 255
226 238 255
226 238 255
226 238 255
226 238 255
226 238 255
226 238 255
226 238 255
226 238 255
226 238 255
226 238 255
226 238 255
226 238 255
226 238 255
226 238 255
226 238 255
226 238 255
226 238 255
226 238 255
226 238 255
226 238 255
226 238 255
226 238 255
226 238 255
226 238 255
226 238 255
226 238 255
226 238 255
226 238 255
226 238 255
226 238 255
226 238 255
226 238 255
226 238 255
226 238 255
226 238 255
226 238 255
226 238 255
226 238 255
226 238 255
226 238 255
226 238 255
226 238 255
226 238 255
226 238 255
226 238 255
226 238 255
226 238 255
226 238 255
226 238 255
226 238 255
226 238 255
226 238 255
226 238 255
226 238 255
226 238 255
226 238 255
226 238 255
226 238 255
226 238 255
226 238 255
226 238 255
226 238 255
226 238 255
226 238 255
226 238 255
226 238 255
226 238 255
226 238 255
226 238 255
226 238 255
226 238 255
226 238 255
226 238 255
226 238 255
226 238 255
226 238 255
226 238 255
226 238 255
226 238 255
226 238 255
226 238 255
226 238 255
226 238 255
226 238 255
226 238 255
226 238 255
226 238 255
226 238 255
226 238 255
226 238 255
226 238 255
226 238 255
226 238 255
226 238 255
226 238 255
226 238 255
226 238 255
226 238 255
226 238 255
226 238 255
226 238 255
226 238 255
211 222 239
108 114 128
0 0 42
0 0 42
0 0 42
0 0 42
0 0 42
0 0 42
0 0 42
0 0 42
0 0 42
0 0 42
0 0 42
0 0 42
0 0 42
0 0 42
0 0 42
0 0 42
0 0 42
0 0 42
0 0 42
0 0 42
0 0 42
0 0 42
0 0 42
0 0 42
0 0 42
0 0 42
0 0 42
0 0 42
0 0 42
0 0 42
0 0 42
0 0 42
0 0 42
0 0 42
0 0 42
0 0 42
0 0 42
0 0 42
0 0 42
0 0 42
0 0 42
0 0 42
0 0 42
0 0 42
0 0 42
0 0 42
0 0 42
0 0 42
0 0 42
0 0 42
0 0 42
0 0 42
0 0 42
0 0 42
0 0 42
0 0 42
0 0 42
0 0 42
0 0 42
0 0 42
0 0 42
0 0 42
0 0 42
0 0 42
0 0 42
0 0 42
0 0 42
0 0 42
0 0 42
0 0 42
0 0 42
0 0 42
0 0 42
0 0 42
0 0 42
0 0 42
0 0 42
0 0 42
0 0 42
0 0 42
0 0 42
0 0 42
0 0 42
0 0 42
0 0 42
0 0 42
0 0 42
0 0 42
0 0 31
0 0 43
0 0 43
2 5 31
7 12 28
63 74 65
116 126 122
109 109 100
86 76 50
97 81 48
96 80 49
110 95 68
117 101 69
103 89 59
90 80 42
77 74 50
7 6 38
0 0 41
0 0 34
0 0 40
0 0 41
0 0 41
0 0 41
0 0 39
0 0 41
0 0 42
0 0 42
0 0 42
0 0 42
0 0 42
0 0 42
0 0 42
0 0 42
0 0 42
0 0 42
0 0 42
0 0 42
0 0 42
0 0 42
0 0 42
0 0 42
0 0 42
0 0 42
0 0 42
0 0 42
0 0 42
0 0 42
0 0 42
110 116 130
208 220 236
226 238 255
226 238 255
226 238 255
226 238 255
226 238 255
226 238 255
226 238 255
226 238 255
226 238 255
226 238 255
226 238 255
226 238 255
226 238 255
226 238 255
226 238 255
226 238 255
226 238 255
226 238 255
226 238 255
226 238 255
226 238 255
226 238 255
226 238 255
226 238 255
226 238 255
226 238 255
226 238 255
226 238 255
226 238 255
226 238 255
226 238 255
226 238 255
226 238 255
226 238 255
226 238 255
226 238 255
226 238 255
226 238 255
226 238 255
226 238 255
226 238 255
226 238 255
226 238 255
226 238 255
226 238 255
226 238 255
226 238 255
226 238 255
226 238 255
226 238 255
226 238 255
226 238 255
226 238 255
226 238 255
226 238 255
226 238 255
226 238 255
226 238 255
226 238 255
226 238 255
226 238 255
226 238 255
226 238 255
226 238 255
226 238 255
226 238 255
226 238 255
226 238 255
226 238 255
226 238 255
226 238 255
226 238 255
226 238 255
226 238 255
226 238 255
226 238 255
226 238 255
226 238 255
226 238 255
226 238 255
226 238 255
226 238 255
226 238 255
226 238 255
226 238 255
226 238 255
226 238 255
226 238 255
226 238 255
226 238 255
226 238 255
226 238 255
226 238 255
226 238 255
226 238 255
226 238 255
226 238 255
226 238 255
226 238 255
226 238 255
226 238 255
226 238 255
226 238 255
226 238 255
226 238 255
226 238 255
226 238 255
226 238 255
226 238 255
226 238 255
226 238 255
226 238 255
226 238 255
226 238 255
226 238 255
226 238 255
226 238 255
226 238 255
226 238 255
226 238 255
226 238 255
226 238 255
226 238 255
226 238 255
226 238 255
226 238 255
226 238 255
226 238 255
226 238 255
226 238 255
226 238 255
226 238 255
226 238 255
226 238 255
226 238 255
226 238 255
226 238 255
226 238 255
226 238 255
226 238 255
226 238 255
226 238 255
226 238 255
226 238 255
226 238 255
226 238 255
226 238 255
226 238 255
226 238 255
226 238 255
226 238 255
226 238 255
226 238 255
226 238 255
226 238 255
226 238 255
226 238 255
226 238 255
226 238 255
226 238 255
226 238 255
226 238 255
226 238 255
226 238 255
226 238 255
226 238 255
226 238 255
226 238 255
226 238 255
226 238 255
226 238 255
226 238 255
226 238 255
226 238 255
226 238 255
226 238 255
226 238 255
226 238 255
226 238 255
226 238 255
226 238 255
226 238 255
226 238 255
226 238 255
226 238 255
226 238 255
226 238 255
226 238 255
226 238 255
226 238 255
226 238 255
226 238 255
226 238 255
226 238 255
226 238 255
226 238 255
226 238 255
226 238 255
226 238 255
226 238 255
226 238 255
226 238 255
226 238 255
226 238 255
226 238 255
226 238 255
226 238 255
226 238 255
226 238 255
226 238 255
226 238 255
226 238 255
226 238 255
226 238 255
226 238 255
226 238 255
226 238 255
226 238 255
226 238 255
226 238 255
226 238 255
226 238 255
226 238 255
226 238 255
226 238 255
226 238 255
226 238 255
226 238 255
226 238 255
226 238 255
226 238 255
226 238 255
226 238 255
226 238 255
226 238 255
226 238 255
226 238 255
226 238 255
226 238 255
226 238 255
226 238 255
226 238 255
226 238 255
226 238 255
226 238 255
226 238 255
226 238 255
226 238 255
226 238 255
226 238 255
226 238 255
226 238 255
226 238 255
226 238 255
226 238 255
226 238 255
226 238 255
226 238 255
226 238 255
226 238 255
226 238 255
221 233 250
143 150 165
0 0 42
0 0 42
0 0 42
0 0 42
0 0 42
0 0 42
0 0 42
0 0 42
0 0 42
0 0 42
0 0 42
0 0 42
0 0 42
0 0 42
0 0 42
0 0 42
0 0 42
0 0 42
0 0 42
0 0 42
0 0 42
0 0 42
0 0 42
0 0 42
0 0 42
0 0 42
0 0 42
0 0 42
0 0 42
0 0 42
0 0 42
0 0 42
0 0 42
0 0 42
0 0 42
0 0 42
0 0 42
0 0 42
0 0 42
0 0 42
0 0 42
0 0 42
0 0 42
0 0 42
0 0 42
0 0 42
0 0 42
0 0 42
0 0 42
0 0 42
0 0 42
0 0 42
0 0 42
0 0 42
0 0 42
0 0 42
0 0 42
0 0 42
0 0 42
0 0 42
0 0 42
0 0 42
0 0 42
0 0 42
0 0 42
0 0 42
0 0 42
0 0 42
0 0 42
0 0 42
0 0 42
0 0 42
0 0 42
0 0 42
0 0 42
0 0 42
0 0 42
0 0 42
0 0 42
0 0 42
0 0 42
0 0 42
0 0 42
0 0 42
0 0 42
0 0 42
0 0 42
0 0 43
0 0 44
5 8 32
12 24 23
17 24 27
98 110 104
155 163 162
113 109 95
91 76 44
90 73 41
100 84 56
101 85 54
119 106 67
90 82 55
74 69 55
30 29 34
0 0 44
5 0 44
0 0 43
0 0 43
0 0 43
0 0 42
0 0 41
0 0 41
0 0 42
0 0 42
0 0 42
0 0 42
0 0 42
0 0 42
0 0 42
0 0 42
0 0 42
0 0 42
0 0 42
0 0 42
0 0 42
0 0 42
0 0 42
0 0 42
0 0 42
0 0 42
0 0 42
0 0 42
0 0 42
0 0 42
0 0 42
148 156 170
223 235 252
226 238 255
226 238 255
226 238 255
226 238 255
226 238 255
226 238 255
226 238 255
226 238 255
226 238 255
226 238 255
226 238 255
226 238 255
226 238 255
226 238 255
226 238 255
226 238 255
226 238 255
226 238 255
226 238 255
226 238 255
226 238 255
226 238 255
226 238 255
226 238 255
226 238 255
226 238 255
226 238 255
226 238 255
226 238 255
226 238 255
226 238 255
226 238 255
226 238 255
226 238 255
226 238 255
226 238 255
226 238 255
226 238 255
226 238 255
226 238 255
226 238 255
226 238 255
226 238 255
226 238 255
226 238 255
226 238 255
226 238 255
226 238 255
226 238 255
226 238 255
226 238 255
226 238 255
226 238 255
226 238 255
226 238 255
226 238 255
226 238 255
226 238 255
226 238 255
226 238 255
226 238 255
226 238 255
226 238 255
226 238 255
226 238 255
226 238 255
226 238 255
226 238 255
226 238 255
226 238 255
226 238 255
226 238 255
226 238 255
226 238 255
226 238 255
226 238 255
226 238 255
226 238 255
226 238 255
226 238 255
226 238 255
226 238 255
226 238 255
226 238 255
226 238 255
226 238 255
226 238 255
226 238 255
226 238 255
226 238 255
226 238 255
226 238 255
226 238 255
226 238 255
226 238 255
226 238 255
226 238 255
226 238 255
226 238 255
226 238 255
226 238 255
226 238 255
226 238 255
226 238 255
226 238 255
226 238 255
226 238 255
226 238 255
226 238 255
226 238 255
226 238 255
226 238 255
226 238 255
226 238 255
226 238 255
226 238 255
226 238 255
226 238 255
226 238 255
226 238 255
226 238 255
226 238 255
226 238 255
226 238 255
226 238 255
226 238 255
226 238 255
226 238 255
226 238 255
226 238 255
226 238 255
226 238 255
226 238 255
226 238 255
226 238 255
226 238 255
226 238 255
226 238 255
226 238 255
226 238 255
226 238 255
226 238 255
226 238 255
226 238 255
226 238 255
226 238 255
226 238 255
226 238 255
226 238 255
226 238 255
226 238 255
226 238 255
226 238 255
226 238 255
226 238 255
226 238 255
226 238 255
226 238 255
226 238 255
226 238 255
226 238 255
226 238 255
226 238 255
226 238 255
226 238 255
226 238 255
226 238 255
226 238 255
226 238 255
226 238 255
226 238 255
226 238 255
226 238 255
226 238 255
226 238 255
226 238 255
226 238 255
226 238 255
226 238 255
226 238 255
226 238 255
226 238 255
226 238 255
226 238 255
226 238 255
226 238 255
226 238 255
226 238 255
226 238 255
226 238 255
226 238 255
226 238 255
226 238 255
226 238 255
226 238 255
226 238 255
226 238 255
226 238 255
226 238 255
226 238 255
226 238 255
226 238 255
226 238 255
226 238 255
226 238 255
226 238 255
226 238 255
226 238 255
226 238 255
226 238 255
226 238 255
226 238 255
226 238 255
226 238 255
226 238 255
226 238 255
226 238 255
226 238 255
226 238 255
226 238 255
226 238 255
226 238 255
226 238 255
226 238 255
226 238 255
226 238 255
226 238 255
226 238 255
226 238 255
226 238 255
226 238 255
226 238 255
226 238 255
226 238 255
226 238 255
226 238 255
226 238 255
226 238 255
226 238 255
226 238 255
226 238 255
226 238 255
226 238 255
226 238 255
226 238 255
226 238 255
226 238 255
226 238 255
226 238 255
226 238 255
226 238 255
226 238 255
226 238 255
226 238 255
226 238 255
226 238 255
226 238 255
226 238 255
226 238 255
226 238 255
226 238 255
226 238 255
226 238 255
226 238 255
182 192 207
50 53 70
0 0 42
0 0 42
0 0 42
0 0 42
0 0 42
0 0 42
0 0 42
0 0 42
0 0 42
0 0 42
0 0 42
0 0 42
0 0 42
0 0 42
0 0 42
0 0 42
0 0 42
0 0 42
0 0 42
0 0 42
0 0 42
0 0 42
0 0 42
0 0 42
0 0 42
0 0 42
0 0 42
0 0 42
0 0 42
0 0 42
0 0 42
0 0 42
0 0 42
0 0 42
0 0 42
0 0 42
0 0 42
0 0 42
0 0 42
0 0 42
0 0 42
0 0 42
0 0 42
0 0 42
0 0 42
0 0 42
0 0 42
0 0 42
0 0 42
0 0 42
0 0 42
0 0 42
0 0 42
0 0 42
0 0 42
0 0 42
0 0 42
0 0 42
0 0 42
0 0 42
0 0 42
0 0 42
0 0 42
0 0 42
0 0 42
0 0 42
0 0 42
0 0 42
0 0 42
0 0 42
0 0 42
0 0 42
0 0 42
0 0 42
0 0 42
0 0 42
0 0 42
0 0 42
0 0 42
0 0 42
0 0 42
0 0 42
0 0 42
0 0 42
0 0 42
0 0 46
0 0 45
11 19 28
20 31 17
83 94 87
94 104 94
88 87 73
93 82 60
100 82 47
95 80 47
99 87 55
103 91 62
61 56 41
16 15 36
3 4 49
0 0 45
0 0 38
0 0 41
0 0 42
0 0 42
0 0 42
0 0 42
0 0 42
0 0 42
0 0 42
0 0 42
0 0 42
0 0 42
0 0 42
0 0 42
0 0 42
0 0 42
0 0 42
0 0 42
0 0 42
0 0 42
0 0 42
0 0 42
0 0 42
0 0 42
0 0 42
0 0 42
0 0 42
0 0 42
0 0 42
0 0 42
178 187 203
226 238 255
226 238 255
226 238 255
226 238 255
226 238 255
226 238 255
226 238 255
226 238 255
226 238 255
226 238 255
226 238 255
226 238 255
226 238 255
226 238 255
226 238 255
226 238 255
226 238 255
226 238 255
226 238 255
226 238 255
226 238 255
226 238 255
226 238 255
226 238 255
226 238 255
226 238 255
226 238 255
226 238 255
226 238 255
226 238 255
226 238 255
226 238 255
226 238 255
226 238 255
226 238 255
226 238 255
226 238 255
226 238 255
226 238 255
226 238 255
226 238 255
226 238 255
226 238 255
226 238 255
226 238 255
226 238 255
226 238 255
226 238 255
226 238 255
226 238 255
226 238 255
226 238 255
226 238 255
226 238 255
226 238 255
226 238 255
226 238 255
226 238 255
226 238 255
226 238 255
226 238 255
226 238 255
226 238 255
226 238 255
226 238 255
226 238 255
226 238 255
226 238 255
226 238 255
226 238 255
226 238 255
226 238 255
226 238 255
226 238 255
226 238 255
226 238 255
226 238 255
226 238 255
226 238 255
226 238 255
226 238 255
226 238 255
226 238 255
226 238 255
226 238 255
226 238 255
226 238 255
226 238 255
226 238 255
226 238 255
226 238 255
226 238 255
226 238 255
226 238 255
226 238 255
226 238 255
226 238 255
226 238 255
226 238 255
226 238 255
226 238 255
226 238 255
226 238 255
226 238 255
226 238 255
226 238 255
226 238 255
226 238 255
226 238 255
226 238 255
226 238 255
226 238 255
226 238 255
226 238 255
226 238 255
226 238 255
226 238 255
226 238 255
226 238 255
226 238 255
226 238 255
226 238 255
226 238 255
226 238 255
226 238 255
226 238 255
226 238 255
226 238 255
226 238 255
226 238 255
226 238 255
226 238 255
226 238 255
226 238 255
226 238 255
226 238 255
226 238 255
226 238 255
226 238 255
226 238 255
226 238 255
226 238 255
226 238 255
226 238 255
226 238 255
226 238 255
226 238 255
226 238 255
226 238 255
226 238 255
226 238 255
226 238 255
226 238 255
226 238 255
226 238 255
226 238 255
226 238 255
226 238 255
226 238 255
226 238 255
226 238 255
226 238 255
226 238 255
226 238 255
226 238 255
226 238 255
226 238 255
226 238 255
226 238 255
226 238 255
226 238 255
226 238 255
226 238 255
226 238 255
226 238 255
226 238 255
226 238 255
226 238 255
226 238 255
226 238 255
226 238 255
226 238 255
226 238 255
226 238 255
226 238 255
226 238 255
226 238 255
226 238 255
226 238 255
226 238 255
226 238 255
226 238 255
226 238 255
226 238 255
226 238 255
226 238 255
226 238 255
226 238 255
226 238 255
226 238 255
226 238 255
226 238 255
226 238 255
226 238 255
226 238 255
226 238 255
226 238 255
226 238 255
226 238 255
226 238 255
226 238 255
226 238 255
226 238 255
226 238 255
226 238 255
226 238 255
226 238 255
226 238 255
226 238 255
226 238 255
226 238 255
226 238 255
226 238 255
226 238 255
226 238 255
226 238 255
226 238 255
226 238 255
226 238 255
226 238 255
226 238 255
226 238 255
226 238 255
226 238 255
226 238 255
226 238 255
226 238 255
226 238 255
226 238 255
226 238 255
226 238 255
226 238 255
226 238 255
226 238 255
226 238 255
226 238 255
226 238 255
226 238 255
226 238 255
226 238 255
226 238 255
226 238 255
226 238 255
226 238 255
226 238 255
226 238 255
226 238 255
226 238 255
226 238 255
226 238 255
226 238 255
226 238 255
226 238 255
226 238 255
226 238 255
226 238 255
226 238 255
202 213 229
87 92 106
0 0 42
0 0 42
0 0 42
0 0 42
0 0 42
0 0 42
0 0 42
0 0 42
0 0 42
0 0 42
0 0 42
0 0 42
0 0 42
0 0 42
0 0 42
0 0 42
0 0 42
0 0 42
0 0 42
0 0 42
0 0 42
0 0 42
0 0 42
0 0 42
0 0 42
0 0 42
0 0 42
0 0 42
0 0 42
0 0 42
0 0 42
0 0 42
0 0 42
0 0 42
0 0 42
0 0 42
0 0 42
0 0 42
0 0 42
0 0 42
0 0 42
0 0 42
0 0 42
0 0 42
0 0 42
0 0 42
0 0 42
0 0 42
0 0 42
0 0 42
0 0 42
0 0 42
0 0 42
0 0 42
0 0 42
0 0 42
0 0 42
0 0 42
0 0 42
0 0 42
0 0 42
0 0 42
0 0 42
0 0 42
0 0 42
0 0 42
0 0 42
0 0 42
0 0 42
0 0 42
0 0 42
0 0 42
0 0 42
0 0 42
0 0 42
0 0 42
0 0 42
0 0 42
0 0 42
0 0 42
0 0 42
0 0 42
0 0 42
0 0 42
0 0 39
13 18 25
34 45 31
49 56 60
155 166 181
144 151 150
96 93 76
85 73 42
94 81 46
101 92 59
87 78 42
53 47 34
4 6 35
0 4 38
0 1 42
0 0 45
0 0 45
0 0 42
0 0 42
0 0 42
0 0 42
0 0 42
0 0 42
0 0 42
0 0 42
0 0 42
0 0 42
0 0 42
0 0 42
0 0 42
0 0 42
0 0 42
0 0 42
0 0 42
0 0 42
0 0 42
0 0 42
0 0 42
0 0 42
0 0 42
0 0 42
0 0 42
0 0 42
0 0 42
101 106 120
200 210 226
226 238 255
226 238 255
226 238 255
226 238 255
226 238 255
226 238 255
226 238 255
226 238 255
226 238 255
226 238 255
226 238 255
226 238 255
226 238 255
226 238 255
226 238 255
226 238 255
226 238 255
226 238 255
226 238 255
226 238 255
226 238 255
226 238 255
226 238 255
226 238 255
226 238 255
226 238 255
226 238 255
226 238 255
226 238 255
226 238 255
226 238 255
226 238 255
226 238 255
226 238 255
226 238 255
226 238 255
226 238 255
226 238 255
226 238 255
226 238 255
226 238 255
226 238 255
226 238 255
226 238 255
226 238 255
226 238 255
226 238 255
226 238 255
226 238 255
226 238 255
226 238 255
226 238 255
226 238 255
226 238 255
226 238 255
226 238 255
226 238 255
226 238 255
226 238 255
226 238 255
226 238 255
226 238 255
226 238 255
226 238 255
226 238 255
226 238 255
226 238 255
226 238 255
226 238 255
226 238 255
226 238 255
226 238 255
226 238 255
226 238 255
226 238 255
226 238 255
226 238 255
226 238 255
226 238 255
226 238 255
226 238 255
226 238 255
226 238 255
226 238 255
226 238 255
226 238 255
226 238 255
226 238 255
226 238 255
226 238 255
226 238 255
226 238 255
226 238 255
226 238 255
226 238 255
226 238 255
226 238 255
226 238 255
226 238 255
226 238 255
226 238 255
226 238 255
226 238 255
226 238 255
226 238 255
226 238 255
226 238 255
226 238 255
226 238 255
226 238 255
226 238 255
226 238 255
226 238 255
226 238 255
226 238 255
226 238 255
226 238 255
226 238 255
226 238 255
226 238 255
226 238 255
226 238 255
226 238 255
226 238 255
226 238 255
226 238 255
226 238 255
226 238 255
226 238 255
226 238 255
226 238 255
226 238 255
226 238 255
226 238 255
226 238 255
226 238 255
226 238 255
226 238 255
226 238 255
226 238 255
226 238 255
226 238 255
226 238 255
226 238 255
226 238 255
226 238 255
226 238 255
226 238 255
226 238 255
226 238 255
226 238 255
226 238 255
226 238 255
226 238 255
226 238 255
226 238 255
226 238 255
226 238 255
226 238 255
226 238 255
226 238 255
226 238 255
226 238 255
226 238 255
226 238 255
226 238 255
226 238 255
226 238 255
226 238 255
226 238 255
226 238 255
226 238 255
226 238 255
226 238 255
226 238 255
226 238 255
226 238 255
226 238 255
226 238 255
226 238 255
226 238 255
226 238 255
226 238 255
226 238 255
226 238 255
226 238 255
226 238 255
226 238 255
226 238 255
226 238 255
226 238 255
226 238 255
226 238 255
226 238 255
226 238 255
226 238 255
226 238 255
226 238 255
226 238 255
226 238 255
226 238 255
226 238 255
226 238 255
226 238 255
226 238 255
226 238 255
226 238 255
226 238 255
226 238 255
226 238 255
226 238 255
226 238 255
226 238 255
226 238 255
226 238 255
226 238 255
226 238 255
226 238 255
226 238 255
226 238 255
226 238 255
226 238 255
226 238 255
226 238 255
226 238 255
226 238 255
226 238 255
226 238 255
226 238 255
226 238 255
226 238 255
226 238 255
226 238 255
226 238 255
226 238 255
226 238 255
226 238 255
226 238 255
226 238 255
226 238 255
226 238 255
226 238 255
226 238 255
226 238 255
226 238 255
226 238 255
226 238 255
226 238 255
226 238 255
226 238 255
226 238 255
226 238 255
226 238 255
226 238 255
226 238 255
226 238 255
226 238 255
226 238 255
226 238 255
226 238 255
226 238 255
226 238 255
226 238 255
226 238 255
226 238 255
226 238 255
226 238 255
226 238 255
226 238 255
220 232 249
119 126 140
0 0 42
0 0 42
0 0 42
0 0 42
0 0 42
0 0 42
0 0 42
0 0 42
0 0 42
0 0 42
0 0 42
0 0 42
0 0 42
0 0 42
0 0 42
0 0 42
0 0 42
0 0 42
0 0 42
0 0 42
0 0 42
0 0 42
0 0 42
0 0 42
0 0 42
0 0 42
0 0 42
0 0 42
0 0 42
0 0 42
0 0 42
0 0 42
0 0 42
0 0 42
0 0 42
0 0 42
0 0 42
0 0 42
0 0 42
0 0 42
0 0 42
0 0 42
0 0 42
0 0 42
0 0 42
0 0 42
0 0 42
0 0 42
0 0 42
0 0 42
0 0 42
0 0 42
0 0 42
0 0 42
0 0 42
0 0 42
0 0 42
0 0 42
0 0 42
0 0 42
0 0 42
0 0 42
0 0 42
0 0 42
0 0 42
0 0 42
0 0 42
0 0 42
0 0 42
0 0 42
0 0 42
0 0 42
0 0 42
0 0 42
0 0 42
0 0 42
0 0 42
0 0 42
0 0 42
0 0 42
0 0 42
0 0 41
0 0 37
7 10 35
13 20 23
100 109 109
177 190 193
110 120 122
182 186 180
113 108 94
104 88 58
102 87 53
101 88 53
96 83 46
84 79 47
61 69 47
21 31 39
0 4 41
0 0 42
0 0 40
0 0 42
0 0 42
0 0 42
0 0 42
0 0 42
0 0 42
0 0 42
0 0 42
0 0 42
0 0 42
0 0 42
0 0 42
0 0 42
0 0 42
0 0 42
0 0 42
0 0 42
0 0 42
0 0 42
0 0 42
0 0 42
0 0 42
0 0 42
0 0 42
0 0 42
0 0 42
117 124 137
222 233 250
226 238 255
226 238 255
226 238 255
226 238 255
226 238 255
226 238 255
226 238 255
226 238 255
226 238 255
226 238 255
226 238 255
226 238 255
226 238 255
226 238 255
226 238 255
226 238 255
226 238 255
226 238 255
226 238 255
226 238 255
226 238 255
226 238 255
226 238 255
226 238 255
226 238 255
226 238 255
226 238 255
226 238 255
226 238 255
226 238 255
226 238 255
226 238 255
226 238 255
226 238 255
226 238 255
226 238 255
226 238 255
226 238 255
226 238 255
226 238 255
226 238 255
226 238 255
226 238 255
226 238 255
226 238 255
226 238 255
226 238 255
226 238 255
226 238 255
226 238 255
226 238 255
226 238 255
226 238 255
226 238 255
226 238 255
226 238 255
226 238 255
226 238 255
226 238 255
226 238 255
226 238 255
226 238 255
226 238 255
226 238 255
226 238 255
226 238 255
226 238 255
226 238 255
226 238 255
226 238 255
226 238 255
226 238 255
226 238 255
226 238 255
226 238 255
226 238 255
226 238 255
226 238 255
226 238 255
226 238 255
226 238 255
226 238 255
226 238 255
226 238 255
226 238 255
226 238 255
226 238 255
226 238 255
226 238 255
226 238 255
226 238 255
226 238 255
226 238 255
226 238 255
226 238 255
226 238 255
226 238 255
226 238 255
226 238 255
226 238 255
226 238 255
226 238 255
226 238 255
226 238 255
226 238 255
226 238 255
226 238 255
226 238 255
226 238 255
226 238 255
226 238 255
226 238 255
226 238 255
226 238 255
226 238 255
226 238 255
226 238 255
226 238 255
226 238 255
226 238 255
226 238 255
226 238 255
226 238 255
226 238 255
226 238 255
226 238 255
226 238 255
226 238 255
226 238 255
226 238 255
226 238 255
226 238 255
226 238 255
226 238 255
226 238 255
226 238 255
226 238 255
226 238 255
226 238 255
226 238 255
226 238 255
226 238 255
226 238 255
226 238 255
226 238 255
226 238 255
226 238 255
226 238 255
226 238 255
226 238 255
226 238 255
226 238 255
226 238 255
226 238 255
226 238 255
226 238 255
226 238 255
226 238 255
226 238 255
226 238 255
226 238 255
226 238 255
226 238 255
226 238 255
226 238 255
226 238 255
226 238 255
226 238 255
226 238 255
226 238 255
226 238 255
226 238 255
226 238 255
226 238 255
226 238 255
226 238 255
226 238 255
226 238 255
226 238 255
226 238 255
226 238 255
226 238 255
226 238 255
226 238 255
226 238 255
226 238 255
226 238 255
226 238 255
226 238 255
226 238 255
226 238 255
226 238 255
226 238 255
226 238 255
226 238 255
226 238 255
226 238 255
226 238 255
226 238 255
226 238 255
226 238 255
226 238 255
226 238 255
226 238 255
226 238 255
226 238 255
226 238 255
226 238 255
226 238 255
226 238 255
226 238 255
226 238 255
226 238 255
226 238 255
226 238 255
226 238 255
226 238 255
226 238 255
226 238 255
226 238 255
226 238 255
226 238 255
226 238 255
226 238 255
226 238 255
226 238 255
226 238 255
226 238 255
226 238 255
226 238 255
226 238 255
226 238 255
226 238 255
226 238 255
226 238 255
226 238 255
226 238 255
226 238 255
226 238 255
226 238 255
226 238 255
226 238 255
226 238 255
226 238 255
226 238 255
226 238 255
226 238 255
226 238 255
226 238 255
226 238 255
226 238 255
226 238 255
226 238 255
226 238 255
226 238 255
226 238 255
226 238 255
226 238 255
226 238 255
226 238 255
226 238 255
226 238 255
226 238 255
226 238 255
226 238 255
226 238 255
226 238 255
226 238 255
226 238 255
226 238 255
226 238 255
226 238 255
174 183 198
32 33 55
0 0 42
0 0 42
0 0 42
0 0 42
0 0 42
0 0 42
0 0 42
0 0 42
0 0 42
0 0 42
0 0 42
0 0 42
0 0 42
0 0 42
0 0 42
0 0 42
0 0 42
0 0 42
0 0 42
0 0 42
0 0 42
0 0 42
0 0 42
0 0 42
0 0 42
0 0 42
0 0 42
0 0 42
0 0 42
0 0 42
0 0 42
0 0 42
0 0 42
0 0 42
0 0 42
0 0 42
0 0 42
0 0 42
0 0 42
0 0 42
0 0 42
0 0 42
0 0 42
0 0 42
0 0 42
0 0 42
0 0 42
0 0 42
0 0 42
0 0 42
0 0 42
0 0 42
0 0 42
0 0 42
0 0 42
0 0 42
0 0 42
0 0 42
0 0 42
0 0 42
0 0 42
0 0 42
0 0 42
0 0 42
0 0 42
0 0 42
0 0 42
0 0 42
0 0 42
0 0 42
0 0 42
0 0 42
0 0 42
0 0 42
0 0 42
0 0 42
0 0 42
0 0 42
0 0 42
0 0 42
0 0 34
4 6 28
42 48 57
142 154 163
176 189 198
200 207 212
145 137 122
116 98 70
114 92 58
110 91 56
108 90 55
110 89 53
83 75 49
43 53 48
5 11 41
0 0 43
0 0 38
0 0 42
0 0 42
0 0 42
0 0 42
0 0 42
0 0 42
0 0 42
0 0 42
0 0 42
0 0 42
0 0 42
0 0 42
0 0 42
0 0 42
0 0 42
0 0 42
0 0 42
0 0 42
0 0 42
0 0 42
0 0 42
0 0 42
0 0 42
0 0 42
0 0 42
55 58 74
172 181 196
226 238 255
226 238 255
226 238 255
226 238 255
226 238 255
226 238 255
226 238 255
226 238 255
226 238 255
226 238 255
226 238 255
226 238 255
226 238 255
226 238 255
226 238 255
226 238 255
226 238 255
226 238 255
226 238 255
226 238 255
226 238 255
226 238 255
226 238 255
226 238 255
226 238 255
226 238 255
226 238 255
226 238 255
226 238 255
226 238 255
226 238 255
226 238 255
226 238 255
226 238 255
226 238 255
226 238 255
226 238 255
226 238 255
226 238 255
226 238 255
226 238 255
226 238 255
226 238 255
226 238 255
226 238 255
226 238 255
226 238 255
226 238 255
226 238 255
226 238 255
226 238 255
226 238 255
226 238 255
226 238 255
226 238 255
226 238 255
226 238 255
226 238 255
226 238 255
226 238 255
226 238 255
226 238 255
226 238 255
226 238 255
226 238 255
226 238 255
226 238 255
226 238 255
226 238 255
226 238 255
226 238 255
226 238 255
226 238 255
226 238 255
226 238 255
226 238 255
226 238 255
226 238 255
226 238 255
226 238 255
226 238 255
226 238 255
226 238 255
226 238 255
226 238 255
226 238 255
226 238 255
226 238 255
226 238 255
226 238 255
226 238 255
226 238 255
226 238 255
226 238 255
226 238 255
226 238 255
226 238 255
226 238 255
226 238 255
226 238 255
226 238 255
226 238 255
226 238 255
226 238 255
226 238 255
226 238 255
226 238 255
226 238 255
226 238 255
226 238 255
226 238 255
226 238 255
226 238 255
226 238 255
226 238 255
226 238 255
226 238 255
226 238 255
226 238 255
226 238 255
226 238 255
226 238 255
226 238 255
226 238 255
226 238 255
226 238 255
226 238 255
226 238 255
226 238 255
226 238 255
226 238 255
226 238 255
226 238 255
226 238 255
226 238 255
226 238 255
226 238 255
226 238 255
226 238 255
226 238 255
226 238 255
226 238 255
226 238 255
226 238 255
226 238 255
226 238 255
226 238 255
226 238 255
226 238 255
226 238 255
226 238 255
226 238 255
226 238 255
226 238 255
226 238 255
226 238 255
226 238 255
226 238 255
226 238 255
226 238 255
226 238 255
226 238 255
226 238 255
226 238 255
226 238 255
226 238 255
226 238 255
226 238 255
226 238 255
226 238 255
226 238 255
226 238 255
226 238 255
226 238 255
226 238 255
226 238 255
226 238 255
226 238 255
226 238 255
226 238 255
226 238 255
226 238 255
226 238 255
226 238 255
226 238 255
226 238 255
226 238 255
226 238 255
226 238 255
226 238 255
226 238 255
226 238 255
226 238 255
226 238 255
226 238 255
226 238 255
226 238 255
226 238 255
226 238 255
226 238 255
226 238 255
226 238 255
226 238 255
226 238 255
226 238 255
226 238 255
226 238 255
226 238 255
226 238 255
226 238 255
226 238 255
226 238 255
226 238 255
226 238 255
226 238 255
226 238 255
226 238 255
226 238 255
226 238 255
226 238 255
226 238 255
226 238 255
226 238 255
226 238 255
226 238 255
226 238 255
226 238 255
226 238 255
226 238 255
226 238 255
226 238 255
226 238 255
226 238 255
226 238 255
226 238 255
226 238 255
226 238 255
226 238 255
226 238 255
226 238 255
226 238 255
226 238 255
226 238 255
226 238 255
226 238 255
226 238 255
226 238 255
226 238 255
226 238 255
226 238 255
226 238 255
226 238 255
226 238 255
226 238 255
226 238 255
226 238 255
226 238 255
226 238 255
226 238 255
226 238 255
226 238 255
226 238 255
226 238 255
226 238 255
226 238 255
226 238 255
226 238 255
226 238 255
226 238 255
226 238 255
226 238 255
226 238 255
226 238 255
226 238 255
226 238 255
212 224 240
117 124 137
0 0 42
0 0 42
0 0 42
0 0 42
0 0 42
0 0 42
0 0 42
0 0 42
0 0 42
0 0 42
0 0 42
0 0 42
0 0 42
0 0 42
0 0 42
0 0 42
0 0 42
0 0 42
0 0 42
0 0 42
0 0 42
0 0 42
0 0 42
0 0 42
0 0 42
0 0 42
0 0 42
0 0 42
0 0 42
0 0 42
0 0 42
0 0 42
0 0 42
0 0 42
0 0 42
0 0 42
0 0 42
0 0 42
0 0 42
0 0 42
0 0 42
0 0 42
0 0 42
0 0 42
0 0 42
0 0 42
0 0 42
0 0 42
0 0 42
0 0 42
0 0 42
0 0 42
0 0 42
0 0 42
0 0 42
0 0 42
0 0 42
0 0 42
0 0 42
0 0 42
0 0 42
0 0 42
0 0 42
0 0 42
0 0 42
0 0 42
0 0 42
0 0 42
0 0 42
0 0 42
0 0 42
0 0 42
0 0 42
0 0 42
0 0 42
0 0 42
0 0 42
0 0 42
2 0 46
14 18 32
40 51 41
101 111 119
161 172 187
167 176 194
179 181 172
109 95 64
110 89 49
109 91 53
108 95 57
92 81 49
63 59 46
8 8 41
0 3 41
0 0 36
0 0 46
0 0 42
0 0 42
0 0 42
0 0 42
0 0 43
0 0 44
0 0 41
0 0 40
0 0 42
0 0 42
0 0 42
0 0 42
0 0 42
0 0 42
0 0 42
0 0 42
0 0 42
0 0 42
0 0 42
0 0 42
0 0 42
0 0 42
0 0 42
0 0 42
0 0 42
103 109 123
209 220 236
226 238 255
226 238 255
226 238 255
226 238 255
226 238 255
226 238 255
226 238 255
226 238 255
226 238 255
226 238 255
226 238 255
226 238 255
226 238 255
226 238 255
226 238 255
226 238 255
226 238 255
226 238 255
226 238 255
226 238 255
226 238 255
226 238 255
226 238 255
226 238 255
226 238 255
226 238 255
226 238 255
226 238 255
226 238 255
226 238 255
226 238 255
226 238 255
226 238 255
226 238 255
226 238 255
226 238 255
226 238 255
226 238 255
226 238 255
226 238 255
226 238 255
226 238 255
226 238 255
226 238 255
226 238 255
226 238 255
226 238 255
226 238 255
226 238 255
226 238 255
226 238 255
226 238 255
226 238 255
226 238 255
226 238 255
226 238 255
226 238 255
226 238 255
226 238 255
226 238 255
226 238 255
226 238 255
226 238 255
226 238 255
226 238 255
226 238 255
226 238 255
226 238 255
226 238 255
226 238 255
226 238 255
226 238 255
226 238 255
226 238 255
226 238 255
226 238 255
226 238 255
226 238 255
226 238 255
226 238 255
226 238 255
226 238 255
226 238 255
226 238 255
226 238 255
226 238 255
226 238 255
226 238 255
226 238 255
226 238 255
226 238 255
226 238 255
226 238 255
226 238 255
226 238 255
226 238 255
226 238 255
226 238 255
226 238 255
226 238 255
226 238 255
226 238 255
226 238 255
226 238 255
226 238 255
226 238 255
226 238 255
226 238 255
226 238 255
226 238 255
226 238 255
226 238 255
226 238 255
226 238 255
226 238 255
226 238 255
226 238 255
226 238 255
226 238 255
226 238 255
226 238 255
226 238 255
226 238 255
226 238 255
226 238 255
226 238 255
226 238 255
226 238 255
226 238 255
226 238 255
226 238 255
226 238 255
226 238 255
226 238 255
226 238 255
226 238 255
226 238 255
226 238 255
226 238 255
226 238 255
226 238 255
226 238 255
226 238 255
226 238 255
226 238 255
226 238 255
226 238 255
226 238 255
226 238 255
226 238 255
226 238 255
226 238 255
226 238 255
226 238 255
226 238 255
226 238 255
226 238 255
226 238 255
226 238 255
226 238 255
226 238 255
226 238 255
226 238 255
226 238 255
226 238 255
226 238 255
226 238 255
226 238 255
226 238 255
226 238 255
226 238 255
226 238 255
226 238 255
226 238 255
226 238 255
226 238 255
226 238 255
226 238 255
226 238 255
226 238 255
226 238 255
226 238 255
226 238 255
226 238 255
226 238 255
226 238 255
226 238 255
226 238 255
226 238 255
226 238 255
226 238 255
226 238 255
226 238 255
226 238 255
226 238 255
226 238 255
226 238 255
226 238 255
226 238 255
226 238 255
226 238 255
226 238 255
226 238 255
226 238 255
226 238 255
226 238 255
226 238 255
226 238 255
226 238 255
226 238 255
226 238 255
226 238 255
226 238 255
226 238 255
226 238 255
226 238 255
226 238 255
226 238 255
226 238 255
226 238 255
226 238 255
226 238 255
226 238 255
226 238 255
226 238 255
226 238 255
226 238 255
226 238 255
226 238 255
226 238 255
226 238 255
226 238 255
226 238 255
226 238 255
226 238 255
226 238 255
226 238 255
226 238 255
226 238 255
226 238 255
226 238 255
226 238 255
226 238 255
226 238 255
226 238 255
226 238 255
226 238 255
226 238 255
226 238 255
226 238 255
226 238 255
226 238 255
226 238 255
226 238 255
226 238 255
226 238 255
226 238 255
226 238 255
226 238 255
226 238 255
226 238 255
226 238 255
226 238 255
226 238 255
226 238 255
226 238 255
226 238 255
226 238 255
226 238 255
226 238 255
226 238 255
226 238 255
226 238 255
226 238 255
226 238 255
226 238 255
226 238 255
225 237 254
163 172 186
45 47 65
0 0 42
0 0 42
0 0 42
0 0 42
0 0 42
0 0 42
0 0 42
0 0 42
0 0 42
0 0 42
0 0 42
0 0 42
0 0 42
0 0 42
0 0 42
0 0 42
0 0 42
0 0 42
0 0 42
0 0 42
0 0 42
0 0 42
0 0 42
0 0 42
0 0 42
0 0 42
0 0 42
0 0 42
0 0 42
0 0 42
0 0 42
0 0 42
0 0 42
0 0 42
0 0 42
0 0 42
0 0 42
0 0 42
0 0 42
0 0 42
0 0 42
0 0 42
0 0 42
0 0 42
0 0 42
0 0 42
0 0 42
0 0 42
0 0 42
0 0 42
0 0 42
0 0 42
0 0 42
0 0 42
0 0 42
0 0 42
0 0 42
0 0 42
0 0 42
0 0 42
0 0 42
0 0 42
0 0 42
0 0 42
0 0 42
0 0 42
0 0 42
0 0 42
0 0 42
0 0 42
0 0 42
0 0 42
0 0 42
0 0 42
0 0 42
0 0 42
0 0 41
49 55 60
120 131 143
173 186 198
183 199 198
144 155 146
108 99 68
115 99 57
107 89 46
98 83 49
89 79 51
39 40 39
0 5 36
0 0 42
0 0 42
0 0 41
0 0 43
0 0 42
0 0 43
0 0 38
0 0 38
0 0 40
0 0 41
0 0 42
0 0 42
0 0 42
0 0 42
0 0 42
0 0 42
0 0 42
0 0 42
0 0 42
0 0 42
0 0 42
0 0 42
0 0 42
0 0 41
0 0 42
0 0 42
0 0 42
50 53 70
184 194 209
226 238 255
226 238 255
226 238 255
226 238 255
226 238 255
226 238 255
226 238 255
226 238 255
226 238 255
226 238 255
226 238 255
226 238 255
226 238 255
226 238 255
226 238 255
226 238 255
226 238 255
226 238 255
226 238 255
226 238 255
226 238 255
226 238 255
226 238 255
226 238 255
226 238 255
226 238 255
226 238 255
226 238 255
226 238 255
226 238 255
226 238 255
226 238 255
226 238 255
226 238 255
226 238 255
226 238 255
226 238 255
226 238 255
226 238 255
226 238 255
226 238 255
226 238 255
226 238 255
226 238 255
226 238 255
226 238 255
226 238 255
226 238 255
226 238 255
226 238 255
226 238 255
226 238 255
226 238 255
226 238 255
226 238 255
226 238 255
226 238 255
226 238 255
226 238 255
226 238 255
226 238 255
226 238 255
226 238 255
226 238 255
226 238 255
226 238 255
226 238 255
226 238 255
226 238 255
226 238 255
226 238 255
226 238 255
226 238 255
226 238 255
226 238 255
226 238 255
226 238 255
226 238 255
226 238 255
226 238 255
226 238 255
226 238 255
226 238 255
226 238 255
226 238 255
226 238 255
226 238 255
226 238 255
226 238 255
226 238 255
226 238 255
226 238 255
226 238 255
226 238 255
226 238 255
226 238 255
226 238 255
226 238 255
226 238 255
226 238 255
226 238 255
226 238 255
226 238 255
226 238 255
226 238 255
226 238 255
226 238 255
226 238 255
226 238 255
226 238 255
226 238 255
226 238 255
226 238 255
226 238 255
226 238 255
226 238 255
226 238 255
226 238 255
226 238 255
226 238 255
226 238 255
226 238 255
226 238 255
226 238 255
226 238 255
226 238 255
226 238 255
226 238 255
226 238 255
226 238 255
226 238 255
226 238 255
226 238 255
226 238 255
226 238 255
226 238 255
226 238 255
226 238 255
226 238 255
226 238 255
226 238 255
226 238 255
226 238 255
226 238 255
226 238 255
226 238 255
226 238 255
226 238 255
226 238 255
226 238 255
226 238 255
226 238 255
226 238 255
226 238 255
226 238 255
226 238 255
226 238 255
226 238 255
226 238 255
226 238 255
226 238 255
226 238 255
226 238 255
226 238 255
226 238 255
226 238 255
226 238 255
226 238 255
226 238 255
226 238 255
226 238 255
226 238 255
226 238 255
226 238 255
226 238 255
226 238 255
226 238 255
226 238 255
226 238 255
226 238 255
226 238 255
226 238 255
226 238 255
226 238 255
226 238 255
226 238 255
226 238 255
226 238 255
226 238 255
226 238 255
226 238 255
226 238 255
226 238 255
226 238 255
226 238 255
226 238 255
226 238 255
226 238 255
226 238 255
226 238 255
226 238 255
226 238 255
226 238 255
226 238 255
226 238 255
226 238 255
226 238 255
226 238 255
226 238 255
226 238 255
226 238 255
226 238 255
226 238 255
226 238 255
226 238 255
226 238 255
226 238 255
226 238 255
226 238 255
226 238 255
226 238 255
226 238 255
226 238 255
226 238 255
226 238 255
226 238 255
226 238 255
226 238 255
226 238 255
226 238 255
226 238 255
226 238 255
226 238 255
226 238 255
226 238 255
226 238 255
226 238 255
226 238 255
226 238 255
226 238 255
226 238 255
226 238 255
226 238 255
226 238 255
226 238 255
226 238 255
226 238 255
226 238 255
226 238 255
226 238 255
226 238 255
226 238 255
226 238 255
226 238 255
226 238 255
226 238 255
226 238 255
226 238 255
226 238 255
226 238 255
226 238 255
226 238 255
226 238 255
226 238 255
226 238 255
226 238 255
226 238 255
226 238 255
226 238 255
226 238 255
226 238 255
226 238 255
226 238 255
226 238 255
226 238 255
226 238 255
226 238 255
226 238 255
226 238 255
226 238 255
226 238 255
205 216 232
103 109 123
0 0 42
0 0 42
0 0 42
0 0 42
0 0 42
0 0 42
0 0 42
0 0 42
0 0 42
0 0 42
0 0 42
0 0 42
0 0 42
0 0 42
0 0 42
0 0 42
0 0 42
0 0 42
0 0 42
0 0 42
0 0 42
0 0 42
0 0 42
0 0 42
0 0 42
0 0 42
0 0 42
0 0 42
0 0 42
0 0 42
0 0 42
0 0 42
0 0 42
0 0 42
0 0 42
0 0 42
0 0 42
0 0 42
0 0 42
0 0 42
0 0 42
0 0 42
0 0 42
0 0 42
0 0 42
0 0 42
0 0 42
0 0 42
0 0 42
0 0 42
0 0 42
0 0 42
0 0 42
0 0 42
0 0 42
0 0 42
0 0 42
0 0 42
0 0 42
0 0 42
0 0 42
0 0 42
0 0 42
0 0 42
0 0 42
0 0 42
0 0 42
0 0 42
0 0 42
0 0 42
0 0 42
0 0 42
0 0 42
0 0 42
0 0 44
0 0 36
47 53 61
113 123 134
182 193 203
159 171 166
116 109 86
121 111 76
100 87 46
82 82 48
41 46 36
19 25 40
0 0 38
0 0 42
0 0 42
0 0 40
0 0 41
0 0 40
6 7 35
33 36 43
36 39 41
25 27 43
0 0 38
0 0 46
0 0 44
0 0 41
0 0 42
0 0 42
0 0 42
0 0 42
0 0 42
0 0 42
0 0 42
0 0 42
0 0 42
44 46 65
2 2 39
0 0 42
0 0 42
0 0 42
108 114 128
204 215 231
226 238 255
226 238 255
226 238 255
226 238 255
226 238 255
226 238 255
226 238 255
226 238 255
226 238 255
226 238 255
226 238 255
226 238 255
226 238 255
226 238 255
226 238 255
226 238 255
226 238 255
226 238 255
226 238 255
226 238 255
226 238 255
226 238 255
226 238 255
226 238 255
226 238 255
226 238 255
226 238 255
226 238 255
226 238 255
226 238 255
226 238 255
226 238 255
226 238 255
226 238 255
226 238 255
226 238 255
226 238 255
226 238 255
226 238 255
226 238 255
226 238 255
226 238 255
226 238 255
226 238 255
226 238 255
226 238 255
226 238 255
226 238 255
226 238 255
226 238 255
226 238 255
226 238 255
226 238 255
226 238 255
226 238 255
226 238 255
226 238 255
226 238 255
226 238 255
226 238 255
226 238 255
226 238 255
226 238 255
226 238 255
226 238 255
226 238 255
226 238 255
226 238 255
226 238 255
226 238 255
226 238 255
226 238 255
226 238 255
226 238 255
226 238 255
226 238 255
226 238 255
226 238 255
226 238 255
226 238 255
226 238 255
226 238 255
226 238 255
226 238 255
226 238 255
226 238 255
226 238 255
226 238 255
226 238 255
226 238 255
226 238 255
226 238 255
226 238 255
226 238 255
226 238 255
226 238 255
226 238 255
226 238 255
226 238 255
226 238 255
226 238 255
226 238 255
226 238 255
226 238 255
226 238 255
226 238 255
226 238 255
226 238 255
226 238 255
226 238 255
226 238 255
226 238 255
226 238 255
226 238 255
226 238 255
226 238 255
226 238 255
226 238 255
226 238 255
226 238 255
226 238 255
226 238 255
226 238 255
226 238 255
226 238 255
226 238 255
226 238 255
226 238 255
226 238 255
226 238 255
226 238 255
226 238 255
226 238 255
226 238 255
226 238 255
226 238 255
226 238 255
226 238 255
226 238 255
226 238 255
226 238 255
226 238 255
226 238 255
226 238 255
226 238 255
226 238 255
226 238 255
226 238 255
226 238 255
226 238 255
226 238 255
226 238 255
226 238 255
226 238 255
226 238 255
226 238 255
226 238 255
226 238 255
226 238 255
226 238 255
226 238 255
226 238 255
226 238 255
226 238 255
226 238 255
226 238 255
226 238 255
226 238 255
226 238 255
226 238 255
226 238 255
226 238 255
226 238 255
226 238 255
226 238 255
226 238 255
226 238 255
226 238 255
226 238 255
226 238 255
226 238 255
226 238 255
226 238 255
226 238 255
226 238 255
226 238 255
226 238 255
226 238 255
226 238 255
226 238 255
226 238 255
226 238 255
226 238 255
226 238 255
226 238 255
226 238 255
226 238 255
226 238 255
226 238 255
226 238 255
226 238 255
226 238 255
226 238 255
226 238 255
226 238 255
226 238 255
226 238 255
226 238 255
226 238 255
226 238 255
226 238 255
226 238 255
226 238 255
226 238 255
226 238 255
226 238 255
226 238 255
226 238 255
226 238 255
226 238 255
226 238 255
226 238 255
226 238 255
226 238 255
226 238 255
226 238 255
226 238 255
226 238 255
226 238 255
226 238 255
226 238 255
226 238 255
226 238 255
226 238 255
226 238 255
226 238 255
226 238 255
226 238 255
226 238 255
226 238 255
226 238 255
226 238 255
226 238 255
226 238 255
226 238 255
226 238 255
226 238 255
226 238 255
226 238 255
226 238 255
226 238 255
226 238 255
226 238 255
226 238 255
226 238 255
226 238 255
226 238 255
226 238 255
226 238 255
226 238 255
226 238 255
226 238 255
226 238 255
226 238 255
226 238 255
226 238 255
226 238 255
226 238 255
226 238 255
226 238 255
226 238 255
226 238 255
226 238 255
226 238 255
226 238 255
226 238 255
226 238 255
226 238 255
226 238 255
226 238 255
226 238 255
226 238 255
226 238 255
226 238 255
188 198 213
68 71 86
0 0 42
0 0 42
0 0 42
0 0 42
0 0 42
0 0 42
0 0 42
0 0 42
0 0 42
0 0 42
0 0 42
0 0 42
0 0 42
0 0 42
0 0 42
0 0 42
0 0 42
0 0 42
0 0 42
0 0 42
0 0 42
0 0 42
0 0 42
0 0 42
0 0 42
0 0 42
0 0 42
0 0 42
0 0 42
0 0 42
0 0 42
0 0 42
0 0 42
0 0 42
0 0 42
0 0 42
0 0 42
0 0 42
0 0 42
0 0 42
0 0 42
0 0 42
0 0 42
0 0 42
0 0 42
0 0 42
0 0 42
0 0 42
0 0 42
0 0 42
0 0 42
0 0 42
0 0 42
0 0 42
0 0 42
0 0 42
0 0 42
0 0 42
0 0 42
0 0 42
0 0 42
0 0 42
0 0 42
0 0 42
0 0 42
0 0 42
0 0 42
0 0 42
0 0 42
0 0 42
0 0 42
0 0 42
0 0 43
2 3 34
67 77 83
115 127 129
162 172 177
100 101 81
106 93 55
88 77 35
73 64 31
54 72 58
0 8 39
0 0 41
0 0 40
0 0 42
0 0 40
0 0 41
0 0 43
6 7 35
30 34 38
55 60 51
44 48 42
3 3 36
0 0 44
0 0 43
0 0 42
0 0 42
0 0 42
0 0 42
0 0 42
0 0 42
0 0 42
0 0 42
0 0 42
0 0 41
0 0 40
91 93 112
37 39 60
1 1 42
60 63 78
181 191 206
226 238 255
226 238 255
226 238 255
226 238 255
226 238 255
226 238 255
226 238 255
226 238 255
226 238 255
226 238 255
226 238 255
226 238 255
226 238 255
226 238 255
226 238 255
226 238 255
226 238 255
226 238 255
226 238 255
226 238 255
226 238 255
226 238 255
226 238 255
226 238 255
226 238 255
226 238 255
226 238 255
226 238 255
226 238 255
226 238 255
226 238 255
226 238 255
226 238 255
226 238 255
226 238 255
226 238 255
226 238 255
226 238 255
226 238 255
226 238 255
226 238 255
226 238 255
226 238 255
226 238 255
226 238 255
226 238 255
226 238 255
226 238 255
226 238 255
226 238 255
226 238 255
226 238 255
226 238 255
226 238 255
226 238 255
226 238 255
226 238 255
226 238 255
226 238 255
226 238 255
226 238 255
226 238 255
226 238 255
226 238 255
226 238 255
226 238 255
226 238 255
226 238 255
226 238 255
226 238 255
226 238 255
226 238 255
226 238 255
226 238 255
226 238 255
226 238 255
226 238 255
226 238 255
226 238 255
226 238 255
226 238 255
226 238 255
226 238 255
226 238 255
226 238 255
226 238 255
226 238 255
226 238 255
226 238 255
226 238 255
226 238 255
226 238 255
226 238 255
226 238 255
226 238 255
226 238 255
226 238 255
226 238 255
226 238 255
226 238 255
226 238 255
226 238 255
226 238 255
226 238 255
226 238 255
226 238 255
226 238 255
226 238 255
226 238 255
226 238 255
226 238 255
226 238 255
226 238 255
226 238 255
226 238 255
226 238 255
226 238 255
226 238 255
226 238 255
226 238 255
226 238 255
226 238 255
226 238 255
226 238 255
226 238 255
226 238 255
226 238 255
226 238 255
226 238 255
226 238 255
226 238 255
226 238 255
226 238 255
226 238 255
226 238 255
226 238 255
226 238 255
226 238 255
226 238 255
226 238 255
226 238 255
226 238 255
226 238 255
226 238 255
226 238 255
226 238 255
226 238 255
226 238 255
226 238 255
226 238 255
226 238 255
226 238 255
226 238 255
226 238 255
226 238 255
226 238 255
226 238 255
226 238 255
226 238 255
226 238 255
226 238 255
226 238 255
226 238 255
226 238 255
226 238 255
226 238 255
226 238 255
226 238 255
226 238 255
226 238 255
226 238 255
226 238 255
226 238 255
226 238 255
226 238 255
226 238 255
226 238 255
226 238 255
226 238 255
226 238 255
226 238 255
226 238 255
226 238 255
226 238 255
226 238 255
226 238 255
226 238 255
226 238 255
226 238 255
226 238 255
226 238 255
226 238 255
226 238 255
226 238 255
226 238 255
226 238 255
226 238 255
226 238 255
226 238 255
226 238 255
226 238 255
226 238 255
226 238 255
226 238 255
226 238 255
226 238 255
226 238 255
226 238 255
226 238 255
226 238 255
226 238 255
226 238 255
226 238 255
226 238 255
226 238 255
226 238 255
226 238 255
226 238 255
226 238 255
226 238 255
226 238 255
226 238 255
226 238 255
226 238 255
226 238 255
226 238 255
226 238 255
226 238 255
226 238 255
226 238 255
226 238 255
226 238 255
226 238 255
226 238 255
226 238 255
226 238 255
226 238 255
226 238 255
226 238 255
226 238 255
226 238 255
226 238 255
226 238 255
226 238 255
226 238 255
226 238 255
226 238 255
226 238 255
226 238 255
226 238 255
226 238 255
226 238 255
226 238 255
226 238 255
226 238 255
226 238 255
226 238 255
226 238 255
226 238 255
226 238 255
226 238 255
226 238 255
226 238 255
226 238 255
226 238 255
226 238 255
226 238 255
226 238 255
226 238 255
226 238 255
226 238 255
226 238 255
226 238 255
226 238 255
226 238 255
226 238 255
226 238 255
226 238 255
226 238 255
226 238 255
226 238 255
226 238 255
226 238 255
226 238 255
226 238 255
226 238 255
226 238 255
221 232 249
141 149 163
0 0 42
0 0 42
0 0 42
0 0 42
0 0 42
0 0 42
0 0 42
0 0 42
0 0 42
0 0 42
0 0 42
0 0 42
0 0 42
0 0 42
0 0 42
0 0 42
0 0 42
0 0 42
0 0 42
0 0 42
0 0 42
0 0 42
0 0 42
0 0 42
0 0 42
0 0 42
0 0 42
0 0 42
0 0 42
0 0 42
0 0 42
0 0 42
0 0 42
0 0 42
0 0 42
0 0 42
0 0 42
0 0 42
0 0 42
0 0 42
0 0 42
0 0 42
0 0 42
0 0 42
0 0 42
0 0 42
0 0 42
0 0 42
0 0 42
0 0 42
0 0 42
0 0 42
0 0 42
0 0 42
0 0 42
0 0 42
0 0 42
0 0 42
0 0 42
0 0 42
0 0 42
0 0 42
0 0 42
0 0 42
0 0 42
0 0 42
0 0 42
0 0 42
0 0 42
0 0 42
0 0 41
0 0 40
25 29 49
54 65 72
89 99 103
86 91 89
119 119 102
82 72 48
74 70 38
60 64 32
36 65 54
8 20 40
0 0 39
0 0 41
0 0 42
0 0 42
0 0 41
0 0 40
0 0 40
4 4 38
1 1 42
0 0 40
0 0 41
0 0 42
0 0 42
0 0 42
0 0 42
0 0 42
0 0 42
0 0 42
0 0 42
0 0 42
0 0 42
0 0 41
0 0 41
3 3 39
3 3 42
40 42 61
147 155 170
216 227 244
226 238 255
226 238 255
226 238 255
226 238 255
226 238 255
226 238 255
226 238 255
226 238 255
226 238 255
226 238 255
226 238 255
226 238 255
226 238 255
226 238 255
226 238 255
226 238 255
226 238 255
226 238 255
226 238 255
226 238 255
226 238 255
226 238 255
226 238 255
226 238 255
226 238 255
226 238 255
226 238 255
226 238 255
226 238 255
226 238 255
226 238 255
226 238 255
226 238 255
226 238 255
226 238 255
226 238 255
226 238 255
226 238 255
226 238 255
226 238 255
226 238 255
226 238 255
226 238 255
226 238 255
226 238 255
226 238 255
226 238 255
226 238 255
226 238 255
226 238 255
226 238 255
226 238 255
226 238 255
226 238 255
226 238 255
226 238 255
226 238 255
226 238 255
226 238 255
226 238 255
226 238 255
226 238 255
226 238 255
226 238 255
226 238 255
226 238 255
226 238 255
226 238 255
226 238 255
226 238 255
226 238 255
226 238 255
226 238 255
226 238 255
226 238 255
226 238 255
226 238 255
226 238 255
226 238 255
226 238 255
226 238 255
226 238 255
226 238 255
226 238 255
226 238 255
226 238 255
226 238 255
226 238 255
226 238 255
226 238 255
226 238 255
226 238 255
226 238 255
226 238 255
226 238 255
226 238 255
226 238 255
226 238 255
226 238 255
226 238 255
226 238 255
226 238 255
226 238 255
226 238 255
226 238 255
226 238 255
226 238 255
226 238 255
226 238 255
226 238 255
226 238 255
226 238 255
226 238 255
226 238 255
226 238 255
226 238 255
226 238 255
226 238 255
226 238 255
226 238 255
226 238 255
226 238 255
226 238 255
226 238 255
226 238 255
226 238 255
226 238 255
226 238 255
226 238 255
226 238 255
226 238 255
226 238 255
226 238 255
226 238 255
226 238 255
226 238 255
226 238 255
226 238 255
226 238 255
226 238 255
226 238 255
226 238 255
226 238 255
226 238 255
226 238 255
226 238 255
226 238 255
226 238 255
226 238 255
226 238 255
226 238 255
226 238 255
226 238 255
226 238 255
226 238 255
226 238 255
226 238 255
226 238 255
226 238 255
226 238 255
226 238 255
226 238 255
226 238 255
226 238 255
226 238 255
226 238 255
226 238 255
226 238 255
226 238 255
226 238 255
226 238 255
226 238 255
226 238 255
226 238 255
226 238 255
226 238 255
226 238 255
226 238 255
226 238 255
226 238 255
226 238 255
226 238 255
226 238 255
226 238 255
226 238 255
226 238 255
226 238 255
226 238 255
226 238 255
226 238 255
226 238 255
226 238 255
226 238 255
226 238 255
226 238 255
226 238 255
226 238 255
226 238 255
226 238 255
226 238 255
226 238 255
226 238 255
226 238 255
226 238 255
226 238 255
226 238 255
226 238 255
226 238 255
226 238 255
226 238 255
226 238 255
226 238 255
226 238 255
226 238 255
226 238 255
226 238 255
226 238 255
226 238 255
226 238 255
226 238 255
226 238 255
226 238 255
226 238 255
226 238 255
226 238 255
226 238 255
226 238 255
226 238 255
226 238 255
226 238 255
226 238 255
226 238 255
226 238 255
226 238 255
226 238 255
226 238 255
226 238 255
226 238 255
226 238 255
226 238 255
226 238 255
226 238 255
226 238 255
226 239 255
226 239 255
226 239 255
226 239 255
226 239 255
226 239 255
226 239 255
226 239 255
226 239 255
226 239 255
226 239 255
226 239 255
226 239 255
226 239 255
226 239 255
226 239 255
226 239 255
226 239 255
226 239 255
226 239 255
226 239 255
226 239 255
226 239 255
226 239 255
226 239 255
226 239 255
226 239 255
226 239 255
226 239 255
226 239 255
226 239 255
226 239 255
226 239 255
226 239 255
226 239 255
226 239 255
226 239 255
226 239 255
226 239 255
227 239 255
227 239 255
227 239 255
227 239 255
227 239 255
227 239 255
227 239 255
227 239 255
209 220 236
130 137 151
0 0 42
0 0 42
0 0 42
0 0 42
0 0 42
0 0 42
0 0 42
0 0 42
0 0 42
0 0 42
0 0 42
0 0 42
0 0 42
0 0 42
0 0 42
0 0 42
0 0 42
0 0 42
0 0 42
0 0 42
0 0 42
0 0 42
0 0 42
0 0 42
0 0 42
0 0 42
0 0 42
0 0 42
0 0 42
0 0 42
0 0 42
0 0 42
0 0 42
0 0 42
0 0 42
0 0 42
0 0 42
0 0 42
0 0 42
0 0 42
0 0 42
0 0 42
0 0 42
0 0 42
0 0 42
0 0 42
0 0 42
0 0 42
0 0 42
0 0 42
0 0 42
0 0 42
0 0 42
0 0 42
0 0 42
0 0 42
0 0 42
0 0 42
0 0 42
0 0 42
0 0 42
0 0 42
0 0 42
0 0 42
0 0 42
0 0 42
0 0 42
0 0 42
0 0 42
0 0 40
21 24 46
43 48 62
117 130 138
107 118 124
101 103 103
46 50 41
65 68 39
86 83 50
47 72 62
0 3 31
0 0 39
0 0 45
0 0 45
0 0 43
0 0 42
0 0 43
0 0 42
0 0 43
0 0 43
0 0 42
0 0 42
0 0 42
0 0 42
0 0 42
0 0 42
0 0 42
0 0 42
0 0 42
0 0 42
0 0 42
0 0 42
0 0 43
0 0 42
7 8 43
135 142 157
211 222 239
227 239 255
227 239 255
227 239 255
227 239 255
227 239 255
227 239 255
227 239 255
227 239 255
227 239 255
226 239 255
226 239 255
226 239 255
226 239 255
226 239 255
226 239 255
226 239 255
226 239 255
226 239 255
226 239 255
226 239 255
226 239 255
226 239 255
226 239 255
226 239 255
226 239 255
226 239 255
226 239 255
226 239 255
226 239 255
226 239 255
226 239 255
226 239 255
226 239 255
226 239 255
226 239 255
226 239 255
226 239 255
226 239 255
226 239 255
226 239 255
226 239 255
226 239 255
226 239 255
226 239 255
226 239 255
226 239 255
226 239 255
226 238 255
226 238 255
226 238 255
226 238 255
226 238 255
226 238 255
226 238 255
226 238 255
226 238 255
226 238 255
226 238 255
226 238 255
226 238 255
226 238 255
226 238 255
226 238 255
226 238 255
226 238 255
226 238 255
226 238 255
226 238 255
226 238 255
226 238 255
226 238 255
226 238 255
226 238 255
226 238 255
226 238 255
226 238 255
226 238 255
226 238 255
226 238 255
226 238 255
226 238 255
226 238 255
226 238 255
226 238 255
226 238 255
226 238 255
226 238 255
226 238 255
226 238 255
226 238 255
226 238 255
226 238 255
226 238 255
226 238 255
226 238 255
226 238 255
226 238 255
226 238 255
226 238 255
226 238 255
226 238 255
226 238 255
226 238 255
226 238 255
226 238 255
226 238 255
226 238 255
226 238 255
226 238 255
226 238 255
226 238 255
226 238 255
226 238 255
226 238 255
226 238 255
226 238 255
226 238 255
226 238 255
226 238 255
226 238 255
226 238 255
226 238 255
226 238 255
226 238 255
226 238 255
226 238 255
226 238 255
226 238 255
226 238 255
226 238 255
226 238 255
226 238 255
226 238 255
226 238 255
226 238 255
226 238 255
226 238 255
226 238 255
226 238 255
226 238 255
226 238 255
226 238 255
226 238 255
226 238 255
226 238 255
226 238 255
226 238 255
226 238 255
226 238 255
226 238 255
226 238 255
226 238 255
226 238 255
226 238 255
226 238 255
226 238 255
226 238 255
226 238 255
226 238 255
226 238 255
226 238 255
226 238 255
226 238 255
226 238 255
226 238 255
226 238 255
226 238 255
226 238 255
226 238 255
226 238 255
226 238 255
226 238 255
226 238 255
226 238 255
226 238 255
226 238 255
226 238 255
226 238 255
226 238 255
226 238 255
226 238 255
226 238 255
226 238 255
226 238 255
226 238 255
226 238 255
226 238 255
226 238 255
226 238 255
226 238 255
226 238 255
226 238 255
226 238 255
226 238 255
226 238 255
226 238 255
226 238 255
226 238 255
226 238 255
226 238 255
226 238 255
226 238 255
226 238 255
226 238 255
226 238 255
226 238 255
226 238 255
226 239 255
226 239 255
226 239 255
226 239 255
226 239 255
226 239 255
226 239 255
226 239 255
226 239 255
226 239 255
226 239 255
226 239 255
226 239 255
226 239 255
226 239 255
226 239 255
226 239 255
226 239 255
226 239 255
226 239 255
226 239 255
226 239 255
226 239 255
226 239 255
226 239 255
226 239 255
227 239 255
226 239 255
227 239 255
227 239 255
227 239 255
227 239 255
227 239 255
227 239 255
227 239 255
227 239 255
227 239 255
227 239 255
227 239 255
227 239 255
227 239 255
227 239 255
227 239 255
227 239 255
227 239 255
227 239 255
227 239 255
227 239 255
227 239 255
227 239 255
227 239 255
227 239 255
227 239 255
227 239 255
227 239 255
227 239 255
227 239 255
227 239 255
227 239 255
227 239 255
227 239 255
227 239 255
227 239 255
227 239 255
227 239 255
227 239 255
227 239 255
227 239 255
227 239 255
227 239 255
227 239 255
227 239 255
227 239 255
227 239 255
227 239 255
227 239 255
227 239 255
227 239 255
227 239 255
227 239 255
227 239 255
227 239 255
227 239 255
227 239 255
227 239 255
227 239 255
227 239 255
183 192 207
111 117 130
0 0 42
0 0 42
0 0 42
0 0 42
0 0 42
0 0 42
0 0 42
0 0 42
0 0 42
0 0 42
0 0 42
0 0 42
0 0 42
0 0 42
0 0 42
0 0 42
0 0 42
0 0 42
0 0 42
0 0 42
0 0 42
0 0 42
0 0 42
0 0 42
0 0 42
0 0 42
0 0 42
0 0 42
0 0 42
0 0 42
0 0 42
0 0 42
0 0 42
0 0 42
0 0 42
0 0 42
0 0 42
0 0 42
0 0 42
0 0 42
0 0 42
0 0 42
0 0 42
0 0 42
0 0 42
0 0 42
0 0 42
0 0 42
0 0 42
0 0 42
0 0 42
0 0 42
0 0 42
0 0 42
0 0 42
0 0 42
0 0 42
0 0 42
0 0 42
0 0 42
0 0 42
0 0 42
0 0 42
0 0 42
0 0 42
0 0 42
0 0 43
1 0 40
3 0 40
15 18 35
90 101 112
105 119 135
135 150 159
124 137 134
109 115 101
83 86 59
60 73 52
36 41 44
11 13 37
8 9 41
0 0 39
0 0 42
0 0 42
0 0 42
0 0 42
0 0 42
0 0 42
0 0 42
0 0 42
0 0 42
0 0 42
0 0 42
0 0 42
0 0 42
0 0 42
0 0 42
0 0 42
0 0 42
0 0 42
0 0 41
115 121 135
202 213 229
227 239 255
227 239 255
227 239 255
227 239 255
227 239 255
227 239 255
227 239 255
227 239 255
227 239 255
227 239 255
227 239 255
227 239 255
227 239 255
227 239 255
227 239 255
227 239 255
227 239 255
227 239 255
227 239 255
227 239 255
227 239 255
227 239 255
227 239 255
227 239 255
227 239 255
227 239 255
227 239 255
227 239 255
227 239 255
227 239 255
227 239 255
227 239 255
227 239 255
227 239 255
227 239 255
227 239 255
227 239 255
227 239 255
227 239 255
227 239 255
227 239 255
227 239 255
227 239 255
227 239 255
227 239 255
227 239 255
227 239 255
227 239 255
227 239 255
227 239 255
227 239 255
227 239 255
227 239 255
227 239 255
227 239 255
227 239 255
227 239 255
227 239 255
227 239 255
226 239 255
226 239 255
227 239 255
226 239 255
226 239 255
226 239 255
226 239 255
226 239 255
226 239 255
226 239 255
226 239 255
226 239 255
226 239 255
226 239 255
226 239 255
226 239 255
226 239 255
226 239 255
226 239 255
226 239 255
226 239 255
226 239 255
226 239 255
226 239 255
226 239 255
226 239 255
226 239 255
226 239 255
226 238 255
226 238 255
226 238 255
226 238 255
226 238 255
226 238 255
226 238 255
226 238 255
226 238 255
226 238 255
226 238 255
226 238 255
226 238 255
226 238 255
226 238 255
226 238 255
226 238 255
226 238 255
226 238 255
226 238 255
226 238 255
226 238 255
226 238 255
226 238 255
226 238 255
226 238 255
226 238 255
226 238 255
226 238 255
226 238 255
226 238 255
226 238 255
226 238 255
226 238 255
226 238 255
226 238 255
226 238 255
226 238 255
226 238 255
226 238 255
226 238 255
226 238 255
226 238 255
226 238 255
226 238 255
226 238 255
226 238 255
226 238 255
226 238 255
226 238 255
226 238 255
226 238 255
226 238 255
226 238 255
226 238 255
226 238 255
226 238 255
226 238 255
226 238 255
226 238 255
226 238 255
226 238 255
226 238 255
226 238 255
226 238 255
226 238 255
226 238 255
226 238 255
226 238 255
226 238 255
226 238 255
226 238 255
226 238 255
226 238 255
226 238 255
226 238 255
226 238 255
226 238 255
226 238 255
226 238 255
226 238 255
226 238 255
226 238 255
226 238 255
226 238 255
226 238 255
226 238 255
226 238 255
226 238 255
226 238 255
226 238 255
226 238 255
226 238 255
226 239 255
226 239 255
226 239 255
226 239 255
226 239 255
226 239 255
226 239 255
226 239 255
226 239 255
226 239 255
226 239 255
226 239 255
226 239 255
226 239 255
226 239 255
226 239 255
226 239 255
226 239 255
226 239 255
226 239 255
227 239 255
227 239 255
227 239 255
227 239 255
227 239 255
227 239 255
227 239 255
227 239 255
227 239 255
227 239 255
227 239 255
227 239 255
227 239 255
227 239 255
227 239 255
227 239 255
227 239 255
227 239 255
227 239 255
227 239 255
227 239 255
227 239 255
227 239 255
227 239 255
227 239 255
227 239 255
227 239 255
227 239 255
227 239 255
227 239 255
227 239 255
227 239 255
227 239 255
227 239 255
227 239 255
227 239 255
227 239 255
227 239 255
227 239 255
227 239 255
227 239 255
227 239 255
227 239 255
227 239 255
227 239 255
227 239 255
227 239 255
227 239 255
227 239 255
227 239 255
227 239 255
227 239 255
227 239 255
227 239 255
227 239 255
227 239 255
227 239 255
227 239 255
227 239 255
227 239 255
227 239 255
227 239 255
227 239 255
227 239 255
227 239 255
227 239 255
227 239 255
227 239 255
227 239 255
227 239 255
227 239 255
227 239 255
227 239 255
227 239 255
227 239 255
227 239 255
227 239 255
227 239 255
227 239 255
227 239 255
227 239 255
227 239 255
227 239 255
227 239 255
227 239 255
227 239 255
227 239 255
227 239 255
227 239 255
227 239 255
227 239 255
227 239 255
227 239 255
227 239 255
227 239 255
227 239 255
227 239 255
227 239 255
188 198 213
93 98 112
0 0 42
0 0 42
0 0 42
0 0 42
0 0 42
0 0 42
0 0 42
0 0 42
0 0 42
0 0 42
0 0 42
0 0 42
0 0 42
0 0 42
0 0 42
0 0 42
0 0 42
0 0 42
0 0 42
0 0 42
0 0 42
0 0 42
0 0 42
0 0 42
0 0 42
0 0 42
0 0 42
0 0 42
0 0 42
0 0 42
0 0 42
0 0 42
0 0 42
0 0 42
0 0 42
0 0 42
0 0 42
0 0 42
0 0 42
0 0 42
0 0 42
0 0 42
0 0 42
0 0 42
0 0 42
0 0 42
0 0 42
0 0 42
0 0 42
0 0 42
0 0 42
0 0 42
0 0 42
0 0 42
0 0 42
0 0 42
0 0 42
0 0 42
0 0 42
0 0 42
0 0 42
0 0 42
0 0 42
0 0 41
0 0 42
0 0 43
0 0 42
0 3 36
0 3 31
39 45 61
71 80 91
83 91 100
52 57 62
40 43 48
10 12 33
4 4 39
0 0 43
0 0 44
0 0 42
0 0 42
0 0 42
0 0 42
0 0 42
0 0 42
0 0 42
0 0 42
0 0 42
0 0 42
0 0 42
0 0 42
0 0 42
0 0 42
0 0 42
0 0 42
0 0 42
0 0 42
96 101 115
187 197 212
227 239 255
227 239 255
227 239 255
227 239 255
227 239 255
227 239 255
227 239 255
227 239 255
227 239 255
227 239 255
227 239 255
227 239 255
227 239 255
227 239 255
227 239 255
227 239 255
227 239 255
227 239 255
227 239 255
227 239 255
227 239 255
227 239 255
227 239 255
227 239 255
227 239 255
227 239 255
227 239 255
227 239 255
227 239 255
227 239 255
227 239 255
227 239 255
227 239 255
227 239 255
227 239 255
227 239 255
227 239 255
227 239 255
227 239 255
227 239 255
227 239 255
227 239 255
227 239 255
227 239 255
227 239 255
227 239 255
227 239 255
227 239 255
227 239 255
227 239 255
227 239 255
227 239 255
227 239 255
227 239 255
227 239 255
227 239 255
227 239 255
227 239 255
227 239 255
227 239 255
227 239 255
227 239 255
227 239 255
227 239 255
227 239 255
227 239 255
227 239 255
227 239 255
227 239 255
227 239 255
227 239 255
227 239 255
227 239 255
227 239 255
227 239 255
227 239 255
227 239 255
227 239 255
227 239 255
227 239 255
227 239 255
227 239 255
227 239 255
227 239 255
227 239 255
227 239 255
227 239 255
227 239 255
227 239 255
227 239 255
227 239 255
227 239 255
227 239 255
227 239 255
227 239 255
227 239 255
226 239 255
226 239 255
226 239 255
226 239 255
226 239 255
226 239 255
226 239 255
226 239 255
226 239 255
226 239 255
226 239 255
226 239 255
226 239 255
226 239 255
226 239 255
226 239 255
226 239 255
226 239 255
226 239 255
226 239 255
226 239 255
226 238 255
226 239 255
226 238 255
226 238 255
226 238 255
226 238 255
226 238 255
226 238 255
226 238 255
226 238 255
226 238 255
226 238 255
226 238 255
226 238 255
226 238 255
226 238 255
226 238 255
226 238 255
226 238 255
226 238 255
226 238 255
226 238 255
226 238 255
226 238 255
226 238 255
226 238 255
226 238 255
226 238 255
226 238 255
226 238 255
226 238 255
226 238 255
226 238 255
226 238 255
226 238 255
226 238 255
226 238 255
226 238 255
226 238 255
226 238 255
226 239 255
226 239 255
226 239 255
226 239 255
226 239 255
226 239 255
226 239 255
226 239 255
226 239 255
226 239 255
226 239 255
226 239 255
226 239 255
226 239 255
226 239 255
226 239 255
226 239 255
226 239 255
227 239 255
227 239 255
227 239 255
227 239 255
227 239 255
227 239 255
227 239 255
227 239 255
227 239 255
227 239 255
227 239 255
227 239 255
227 239 255
227 239 255
227 239 255
227 239 255
227 239 255
227 239 255
227 239 255
227 239 255
227 239 255
227 239 255
227 239 255
227 239 255
227 239 255
227 239 255
227 239 255
227 239 255
227 239 255
227 239 255
227 239 255
227 239 255
227 239 255
227 239 255
227 239 255
227 239 255
227 239 255
227 239 255
227 239 255
227 239 255
227 239 255
227 239 255
227 239 255
227 239 255
227 239 255
227 239 255
227 239 255
227 239 255
227 239 255
227 239 255
227 239 255
227 239 255
227 239 255
227 239 255
227 239 255
227 239 255
227 239 255
227 239 255
227 239 255
227 239 255
227 239 255
227 239 255
227 239 255
227 239 255
227 239 255
227 239 255
227 239 255
227 239 255
227 239 255
227 239 255
227 239 255
227 239 255
227 239 255
227 239 255
227 239 255
227 239 255
227 239 255
227 239 255
227 239 255
227 239 255
227 239 255
227 239 255
227 239 255
227 239 255
227 239 255
227 239 255
227 239 255
227 239 255
227 239 255
227 239 255
227 239 255
227 239 255
227 239 255
227 239 255
227 239 255
227 239 255
227 239 255
227 239 255
227 239 255
227 239 255
227 239 255
227 239 255
227 239 255
227 239 255
227 239 255
227 239 255
227 239 255
227 239 255
227 239 255
227 239 255
227 239 255
227 239 255
227 239 255
227 239 255
227 239 255
227 239 255
227 239 255
227 239 255
227 239 255
227 239 255
227 239 255
227 239 255
227 239 255
227 239 255
227 239 255
227 239 255
226 237 254
196 207 222
99 104 117
0 0 42
0 0 42
0 0 42
0 0 42
0 0 42
0 0 42
0 0 42
0 0 42
0 0 42
0 0 42
0 0 42
0 0 42
0 0 42
0 0 42
0 0 42
0 0 42
0 0 42
0 0 42
0 0 42
0 0 42
0 0 42
0 0 42
0 0 42
0 0 42
0 0 42
0 0 42
0 0 42
0 0 42
0 0 42
0 0 42
0 0 42
0 0 42
0 0 42
0 0 42
0 0 42
0 0 42
0 0 42
0 0 42
0 0 42
0 0 42
0 0 42
0 0 42
0 0 42
0 0 42
0 0 42
0 0 42
0 0 42
0 0 42
0 0 42
0 0 42
0 0 42
0 0 42
0 0 42
0 0 42
0 0 42
0 0 42
0 0 42
0 0 42
0 0 42
0 0 42
0 0 42
0 0 40
0 0 42
0 0 44
0 0 43
0 0 40
0 0 39
0 0 39
0 0 40
0 0 40
0 0 43
0 0 42
0 0 39
0 0 40
0 0 40
0 0 42
0 0 42
0 0 42
0 0 42
0 0 42
0 0 42
0 0 42
0 0 42
0 0 42
0 0 42
0 0 42
0 0 41
0 0 41
0 0 41
0 0 42
0 0 42
0 0 42
99 104 117
181 191 206
224 236 253
227 239 255
227 239 255
227 239 255
227 239 255
227 239 255
227 239 255
227 239 255
227 239 255
227 239 255
227 239 255
227 239 255
227 239 255
227 239 255
227 239 255
227 239 255
227 239 255
227 239 255
227 239 255
227 239 255
227 239 255
227 239 255
227 239 255
227 239 255
227 239 255
227 239 255
227 239 255
227 239 255
227 239 255
227 239 255
227 239 255
227 239 255
227 239 255
227 239 255
227 239 255
227 239 255
227 239 255
227 239 255
227 239 255
227 239 255
227 239 255
227 239 255
227 239 255
227 239 255
227 239 255
227 239 255
227 239 255
227 239 255
227 239 255
227 239 255
227 239 255
227 239 255
227 239 255
227 239 255
227 239 255
227 239 255
227 239 255
227 239 255
227 239 255
227 239 255
227 239 255
227 239 255
227 239 255
227 239 255
227 239 255
227 239 255
227 239 255
227 239 255
227 239 255
227 239 255
227 239 255
227 239 255
227 239 255
227 239 255
227 239 255
227 239 255
227 239 255
227 239 255
227 239 255
227 239 255
227 239 255
227 239 255
227 239 255
227 239 255
227 239 255
227 239 255
227 239 255
227 239 255
227 239 255
227 239 255
227 239 255
227 239 255
227 239 255
227 239 255
227 239 255
227 239 255
227 239 255
227 239 255
227 239 255
227 239 255
227 239 255
227 239 255
227 239 255
227 239 255
227 239 255
227 239 255
227 239 255
227 239 255
227 239 255
227 239 255
227 239 255
227 239 255
227 239 255
227 239 255
227 239 255
227 239 255
227 239 255
227 239 255
227 239 255
227 239 255
227 239 255
227 239 255
227 239 255
227 239 255
227 239 255
227 239 255
226 239 255
226 239 255
226 239 255
226 239 255
226 239 255
226 239 255
226 239 255
226 239 255
226 239 255
226 239 255
226 239 255
226 239 255
226 239 255
226 239 255
226 239 255
226 239 255
226 239 255
226 239 255
226 239 255
226 238 255
226 238 255
226 238 255
226 238 255
226 238 255
226 238 255
226 238 255
226 239 255
227 239 255
227 239 255
227 239 255
227 239 255
227 239 255
227 239 255
227 239 255
227 239 255
227 239 255
227 239 255
227 239 255
227 239 255
227 239 255
227 239 255
227 239 255
227 239 255
227 239 255
227 239 255
227 239 255
227 239 255
227 239 255
227 239 255
227 239 255
227 239 255
227 239 255
227 239 255
227 239 255
227 239 255
227 239 255
227 239 255
227 239 255
227 239 255
227 239 255
227 239 255
227 239 255
227 239 255
227 239 255
227 239 255
227 239 255
227 239 255
227 239 255
227 239 255
227 239 255
227 239 255
227 239 255
227 239 255
227 239 255
227 239 255
227 239 255
227 239 255
227 239 255
227 239 255
227 239 255
227 239 255
227 239 255
227 239 255
227 239 255
227 239 255
227 239 255
227 239 255
227 239 255
227 239 255
227 239 255
227 239 255
227 239 255
227 239 255
227 239 255
227 239 255
227 239 255
227 239 255
227 239 255
227 239 255
227 239 255
227 239 255
227 239 255
227 239 255
227 239 255
227 239 255
227 239 255
227 239 255
227 239 255
227 239 255
227 239 255
227 239 255
227 239 255
227 239 255
227 239 255
227 239 255
227 239 255
227 239 255
227 239 255
227 239 255
227 239 255
227 239 255
227 239 255
227 239 255
227 239 255
227 239 255
227 239 255
227 239 255
227 239 255
227 239 255
227 239 255
227 239 255
227 239 255
227 239 255
227 239 255
227 239 255
227 239 255
227 239 255
227 239 255
227 239 255
227 239 255
227 239 255
227 239 255
227 239 255
227 239 255
227 239 255
227 239 255
227 239 255
227 239 255
227 239 255
227 239 255
227 239 255
227 239 255
227 239 255
227 239 255
227 239 255
227 239 255
227 239 255
227 239 255
227 239 255
227 239 255
227 239 255
227 239 255
227 239 255
227 239 255
227 239 255
227 239 255
227 239 255
227 239 255
227 239 255
227 239 255
227 239 255
227 239 255
227 239 255
227 239 255
227 239 255
227 239 255
227 239 255
227 239 255
227 239 255
227 239 255
196 207 222
99 104 117
0 0 42
0 0 42
0 0 42
0 0 42
0 0 42
0 0 42
0 0 42
0 0 42
0 0 42
0 0 42
0 0 42
0 0 42
0 0 42
0 0 42
0 0 42
0 0 42
0 0 42
0 0 42
0 0 42
0 0 42
0 0 42
0 0 42
0 0 42
0 0 42
0 0 42
0 0 42
0 0 42
0 0 42
0 0 42
0 0 42
0 0 42
0 0 42
0 0 42
0 0 42
0 0 42
0 0 42
0 0 42
0 0 42
0 0 42
0 0 42
0 0 42
0 0 42
0 0 42
0 0 42
0 0 42
0 0 42
0 0 42
0 0 42
0 0 42
0 0 42
0 0 42
0 0 42
0 0 42
0 0 42
0 0 42
0 0 42
0 0 42
0 0 42
0 0 42
0 0 40
0 0 41
0 0 42
0 0 42
0 0 41
0 0 40
0 0 41
0 0 42
0 0 41
0 0 43
0 0 45
0 0 43
0 0 40
0 0 41
0 0 41
0 0 42
0 0 42
0 0 42
0 0 42
0 0 42
0 0 42
0 0 42
0 0 42
9 9 44
5 5 43
0 0 41
0 0 42
0 0 42
0 0 42
118 124 137
177 186 201
227 239 255
227 239 255
227 239 255
227 239 255
227 239 255
227 239 255
227 239 255
227 239 255
227 239 255
227 239 255
227 239 255
227 239 255
227 239 255
227 239 255
227 239 255
227 239 255
227 239 255
227 239 255
227 239 255
227 239 255
227 239 255
227 239 255
227 239 255
227 239 255
227 239 255
227 239 255
227 239 255
227 239 255
227 239 255
227 239 255
227 239 255
227 239 255
227 239 255
227 239 255
227 239 255
227 239 255
227 239 255
227 239 255
227 239 255
227 239 255
227 239 255
227 239 255
227 239 255
227 239 255
227 239 255
227 239 255
227 239 255
227 239 255
227 239 255
227 239 255
227 239 255
227 239 255
227 239 255
227 239 255
227 239 255
227 239 255
227 239 255
227 239 255
227 239 255
227 239 255
227 239 255
227 239 255
227 239 255
227 239 255
227 239 255
227 239 255
227 239 255
227 239 255
227 239 255
227 239 255
227 239 255
227 239 255
227 239 255
227 239 255
227 239 255
227 239 255
227 239 255
227 239 255
227 239 255
227 239 255
227 239 255
227 239 255
227 239 255
227 239 255
227 239 255
227 239 255
227 239 255
227 239 255
227 239 255
227 239 255
227 239 255
227 239 255
227 239 255
227 239 255
227 239 255
227 239 255
227 239 255
227 239 255
227 239 255
227 239 255
227 239 255
227 239 255
227 239 255
227 239 255
227 239 255
227 239 255
227 239 255
227 239 255
227 239 255
227 239 255
227 239 255
227 239 255
227 239 255
227 239 255
227 239 255
227 239 255
227 239 255
227 239 255
227 239 255
227 239 255
227 239 255
227 239 255
227 239 255
227 239 255
227 239 255
227 239 255
227 239 255
227 239 255
227 239 255
227 239 255
227 239 255
227 239 255
227 239 255
227 239 255
227 239 255
227 239 255
227 239 255
227 239 255
227 239 255
227 239 255
227 239 255
227 239 255
227 239 255
227 239 255
227 239 255
227 239 255
227 239 255
227 239 255
227 239 255
227 239 255
227 239 255
227 239 255
227 239 255
226 239 255
227 239 255
227 239 255
227 239 255
227 239 255
227 239 255
227 239 255
227 239 255
227 239 255
227 239 255
227 239 255
227 239 255
227 239 255
227 239 255
227 239 255
227 239 255
227 239 255
227 239 255
227 239 255
227 239 255
227 239 255
227 239 255
227 239 255
227 239 255
227 239 255
227 239 255
227 239 255
227 239 255
227 239 255
227 239 255
227 239 255
227 239 255
227 239 255
227 239 255
227 239 255
227 239 255
227 239 255
227 239 255
227 239 255
227 239 255
227 239 255
227 239 255
227 239 255
227 239 255
227 239 255
227 239 255
227 239 255
227 239 255
227 239 255
227 239 255
227 239 255
227 239 255
227 239 255
227 239 255
227 239 255
227 239 255
227 239 255
227 239 255
227 239 255
227 239 255
227 239 255
227 239 255
227 239 255
227 239 255
227 239 255
227 239 255
227 239 255
227 239 255
227 239 255
227 239 255
227 239 255
227 239 255
227 239 255
227 239 255
227 239 255
227 239 255
227 239 255
227 239 255
227 239 255
227 239 255
227 239 255
227 239 255
227 239 255
227 239 255
227 239 255
227 239 255
227 239 255
227 239 255
227 239 255
227 239 255
227 239 255
227 239 255
227 239 255
227 239 255
227 239 255
227 239 255
227 239 255
227 239 255
227 239 255
227 239 255
227 239 255
227 239 255
227 239 255
227 239 255
227 239 255
227 239 255
227 239 255
227 239 255
227 239 255
227 239 255
227 239 255
227 239 255
227 239 255
227 239 255
227 239 255
227 239 255
227 239 255
227 239 255
227 239 255
227 239 255
227 239 255
227 239 255
227 239 255
227 239 255
227 239 255
227 239 255
227 239 255
227 239 255
227 239 255
227 239 255
227 239 255
227 239 255
227 239 255
227 239 255
227 239 255
227 239 255
227 239 255
227 239 255
227 239 255
227 239 255
227 239 255
227 239 255
227 239 255
227 239 255
227 239 255
227 239 255
227 239 255
227 239 255
227 239 255
227 239 255
227 239 255
227 239 255
227 239 255
227 239 255
227 239 255
227 239 255
227 239 255
208 219 235
152 160 174
39 41 60
0 0 42
0 0 42
0 0 42
0 0 42
0 0 42
0 0 42
0 0 42
0 0 42
0 0 42
0 0 42
0 0 42
0 0 42
0 0 42
0 0 42
0 0 42
0 0 42
0 0 42
0 0 42
0 0 42
0 0 42
0 0 42
0 0 42
0 0 42
0 0 42
0 0 42
0 0 42
0 0 42
0 0 42
0 0 42
0 0 42
0 0 42
0 0 42
0 0 42
0 0 42
0 0 42
0 0 42
0 0 42
0 0 42
0 0 42
0 0 42
0 0 42
0 0 42
0 0 42
0 0 42
0 0 42
0 0 42
0 0 42
0 0 42
0 0 42
0 0 42
0 0 42
0 0 42
0 0 42
0 0 42
0 0 42
0 0 42
0 0 41
0 0 40
0 0 41
0 0 42
0 0 42
0 0 42
0 0 42
0 0 42
0 0 41
0 0 42
0 0 42
0 0 42
0 0 41
0 0 41
0 0 42
0 0 42
0 0 41
0 0 41
0 0 42
0 0 42
0 0 42
0 0 42
0 0 40
0 0 40
0 0 42
0 0 42
45 47 65
140 147 161
208 219 235
227 239 255
227 239 255
227 239 255
227 239 255
227 239 255
227 239 255
227 239 255
227 239 255
227 239 255
227 239 255
227 239 255
227 239 255
227 239 255
227 239 255
227 239 255
227 239 255
227 239 255
227 239 255
227 239 255
227 239 255
227 239 255
227 239 255
227 239 255
227 239 255
227 239 255
227 239 255
227 239 255
227 239 255
227 239 255
227 239 255
227 239 255
227 239 255
227 239 255
227 239 255
227 239 255
227 239 255
227 239 255
227 239 255
227 239 255
227 239 255
227 239 255
227 239 255
227 239 255
227 239 255
227 239 255
227 239 255
227 239 255
227 239 255
227 239 255
227 239 255
227 239 255
227 239 255
227 239 255
227 239 255
227 239 255
227 239 255
227 239 255
227 239 255
227 239 255
227 239 255
227 239 255
227 239 255
227 239 255
227 239 255
227 239 255
227 239 255
227 239 255
227 239 255
227 239 255
227 239 255
227 239 255
227 239 255
227 239 255
227 239 255
227 239 255
227 239 255
227 239 255
227 239 255
227 239 255
227 239 255
227 239 255
227 239 255
227 239 255
227 239 255
227 239 255
227 239 255
227 239 255
227 239 255
227 239 255
227 239 255
227 239 255
227 239 255
227 239 255
227 239 255
227 239 255
227 239 255
227 239 255
227 239 255
227 239 255
227 239 255
227 239 255
227 239 255
227 239 255
227 239 255
227 239 255
227 239 255
227 239 255
227 239 255
227 239 255
227 239 255
227 239 255
227 239 255
227 239 255
227 239 255
227 239 255
227 239 255
227 239 255
227 239 255
227 239 255
227 239 255
227 239 255
227 239 255
227 239 255
227 239 255
227 239 255
227 239 255
227 239 255
227 239 255
227 239 255
227 239 255
227 239 255
227 239 255
227 239 255
227 239 255
227 239 255
227 239 255
227 239 255
227 239 255
227 239 255
227 239 255
227 239 255
227 239 255
227 239 255
227 239 255
227 239 255
227 239 255
227 239 255
227 239 255
227 239 255
227 239 255
227 239 255
227 239 255
227 239 255
227 239 255
227 239 255
227 239 255
227 239 255
227 239 255
227 239 255
227 239 255
227 239 255
227 239 255
227 239 255
227 239 255
227 239 255
227 239 255
227 239 255
227 239 255
227 239 255
227 239 255
227 239 255
227 239 255
227 239 255
227 239 255
227 239 255
227 239 255
227 239 255
227 239 255
227 239 255
227 239 255
227 239 255
227 239 255
227 239 255
227 239 255
227 239 255
227 239 255
227 239 255
227 239 255
227 239 255
227 239 255
227 239 255
227 239 255
227 239 255
227 239 255
227 239 255
227 239 255
227 239 255
227 239 255
227 239 255
227 239 255
227 239 255
227 239 255
227 239 255
227 239 255
227 239 255
227 239 255
227 239 255
227 239 255
227 239 255
227 239 255
227 239 255
227 239 255
227 239 255
227 239 255
227 239 255
227 239 255
227 239 255
227 239 255
227 239 255
227 239 255
227 239 255
227 239 255
227 239 255
227 239 255
227 239 255
227 239 255
227 239 255
227 239 255
227 239 255
227 239 255
227 239 255
227 239 255
227 239 255
227 239 255
227 239 255
227 239 255
227 239 255
227 239 255
227 239 255
227 239 255
227 239 255
227 239 255
227 239 255
227 239 255
227 239 255
227 239 255
227 239 255
227 239 255
227 239 255
227 239 255
227 239 255
227 239 255
227 239 255
227 239 255
227 239 255
227 239 255
227 239 255
227 239 255
227 239 255
227 239 255
227 239 255
227 239 255
227 239 255
227 239 255
227 239 255
227 239 255
227 239 255
227 239 255
227 239 255
227 239 255
227 239 255
227 239 255
227 239 255
227 239 255
227 239 255
227 239 255
227 239 255
227 239 255
227 239 255
227 239 255
227 239 255
227 239 255
227 239 255
227 239 255
227 239 255
227 239 255
227 239 255
227 239 255
227 239 255
227 239 255
227 239 255
227 239 255
227 239 255
227 239 255
227 239 255
227 239 255
227 239 255
227 239 255
227 239 255
227 239 255
227 239 255
227 239 255
227 239 255
227 239 255
227 239 255
227 239 255
227 239 255
227 239 255
227 239 255
227 239 255
227 239 255
227 239 255
227 239 255
227 239 255
214 225 241
174 183 198
64 67 83
0 0 42
0 0 42
0 0 42
0 0 42
0 0 42
0 0 42
0 0 42
0 0 42
0 0 42
0 0 42
0 0 42
0 0 42
0 0 42
0 0 42
0 0 42
0 0 42
0 0 42
0 0 42
0 0 42
0 0 42
0 0 42
0 0 42
0 0 42
0 0 42
0 0 42
0 0 42
0 0 42
0 0 42
0 0 42
0 0 42
0 0 42
0 0 42
0 0 42
0 0 42
0 0 42
0 0 42
0 0 42
0 0 42
0 0 42
0 0 42
0 0 42
0 0 42
0 0 42
0 0 42
0 0 42
0 0 42
0 0 42
0 0 42
0 0 42
0 0 42
0 0 42
0 0 42
0 0 42
0 0 42
0 0 42
0 0 42
0 0 42
0 0 42
0 0 42
0 0 42
0 0 42
0 0 42
0 0 42
0 0 42
0 0 42
0 0 42
2 2 41
8 8 43
0 0 39
0 0 40
17 17 48
7 8 43
0 0 42
0 0 42
0 0 42
0 0 41
0 0 41
0 0 42
81 86 100
174 183 198
222 234 250
227 239 255
227 239 255
227 239 255
227 239 255
227 239 255
227 239 255
227 239 255
227 239 255
227 239 255
227 239 255
227 239 255
227 239 255
227 239 255
227 239 255
227 239 255
227 239 255
227 239 255
227 239 255
227 239 255
227 239 255
227 239 255
227 239 255
227 239 255
227 239 255
227 239 255
227 239 255
227 239 255
227 239 255
227 239 255
227 239 255
227 239 255
227 239 255
227 239 255
227 239 255
227 239 255
227 239 255
227 239 255
227 239 255
227 239 255
227 239 255
227 239 255
227 239 255
227 239 255
227 239 255
227 239 255
227 239 255
227 239 255
227 239 255
227 239 255
227 239 255
227 239 255
227 239 255
227 239 255
227 239 255
227 239 255
227 239 255
227 239 255
227 239 255
227 239 255
227 239 255
227 239 255
227 239 255
227 239 255
227 239 255
227 239 255
227 239 255
227 239 255
227 239 255
227 239 255
227 239 255
227 239 255
227 239 255
227 239 255
227 239 255
227 239 255
227 239 255
227 239 255
227 239 255
227 239 255
227 239 255
227 239 255
227 239 255
227 239 255
227 239 255
227 239 255
227 239 255
227 239 255
227 239 255
227 239 255
227 239 255
227 239 255
227 239 255
227 239 255
227 239 255
227 239 255
227 239 255
227 239 255
227 239 255
227 239 255
227 239 255
227 239 255
227 239 255
227 239 255
227 239 255
227 239 255
227 239 255
227 239 255
227 239 255
227 239 255
227 239 255
227 239 255
227 239 255
227 239 255
227 239 255
227 239 255
227 239 255
227 239 255
227 239 255
227 239 255
227 239 255
227 239 255
227 239 255
227 239 255
227 239 255
227 239 255
227 239 255
227 239 255
227 239 255
227 239 255
227 239 255
227 239 255
227 239 255
227 239 255
227 239 255
227 239 255
227 239 255
227 239 255
227 239 255
227 239 255
227 239 255
227 239 255
227 239 255
227 239 255
227 239 255
227 239 255
227 239 255
227 239 255
227 239 255
227 239 255
227 239 255
227 239 255
227 239 255
227 239 255
227 239 255
227 239 255
227 239 255
227 239 255
227 239 255
227 239 255
227 239 255
227 239 255
227 239 255
227 239 255
227 239 255
227 239 255
227 239 255
227 239 255
227 239 255
227 239 255
227 239 255
227 239 255
227 239 255
227 239 255
227 239 255
227 239 255
227 239 255
227 239 255
227 239 255
227 239 255
227 239 255
227 239 255
227 239 255
227 239 255
227 239 255
227 239 255
227 239 255
227 239 255
227 239 255
227 239 255
227 239 255
227 239 255
227 239 255
227 239 255
227 239 255
227 239 255
227 239 255
227 239 255
227 239 255
227 239 255
227 239 255
227 239 255
227 239 255
227 239 255
227 239 255
227 239 255
227 239 255
227 239 255
227 239 255
227 239 255
227 239 255
227 239 255
227 239 255
227 239 255
227 239 255
227 239 255
227 239 255
227 239 255
227 239 255
227 239 255
227 239 255
227 239 255
227 239 255
227 239 255
227 239 255
227 239 255
227 239 255
227 239 255
227 239 255
227 239 255
227 239 255
227 239 255
227 239 255
227 239 255
227 239 255
227 239 255
227 239 255
227 239 255
227 239 255
227 239 255
227 239 255
227 239 255
227 239 255
227 239 255
227 239 255
227 239 255
227 239 255
227 239 255
227 239 255
227 239 255
227 239 255
227 239 255
227 239 255
227 239 255
227 239 255
227 239 255
227 239 255
227 239 255
227 239 255
227 239 255
227 239 255
227 239 255
227 239 255
227 239 255
227 239 255
227 239 255
227 239 255
227 239 255
227 239 255
227 239 255
227 239 255
227 239 255
227 239 255
227 239 255
227 239 255
227 239 255
227 239 255
227 239 255
227 239 255
227 239 255
227 239 255
227 239 255
227 239 255
227 239 255
227 239 255
227 239 255
227 239 255
227 239 255
227 239 255
227 239 255
227 239 255
227 239 255
227 239 255
227 239 255
227 239 255
227 239 255
227 239 255
227 239 255
227 239 255
227 239 255
227 239 255
227 239 255
227 239 255
227 239 255
227 239 255
227 239 255
227 239 255
227 239 255
227 239 255
227 239 255
227 239 255
227 239 255
227 239 255
227 239 255
227 239 255
227 239 255
227 239 255
227 239 255
227 239 255
227 239 255
198 208 224
132 139 153
55 58 74
0 0 42
0 0 42
0 0 42
0 0 42
0 0 42
0 0 42
0 0 42
0 0 42
0 0 42
0 0 42
0 0 42
0 0 42
0 0 42
0 0 42
0 0 42
0 0 42
0 0 42
0 0 42
0 0 42
0 0 42
0 0 42
0 0 42
0 0 42
0 0 42
0 0 42
0 0 42
0 0 42
0 0 42
0 0 42
0 0 42
0 0 42
0 0 42
0 0 42
0 0 42
0 0 42
0 0 42
0 0 42
0 0 42
0 0 42
0 0 42
0 0 42
0 0 42
0 0 42
0 0 42
0 0 42
0 0 42
0 0 42
0 0 42
0 0 42
0 0 42
0 0 42
0 0 42
0 0 42
0 0 42
0 0 42
0 0 42
0 0 42
0 0 42
0 0 42
0 0 42
7 7 43
20 21 50
20 21 46
57 58 76
58 59 83
14 13 43
0 0 41
0 0 42
0 0 42
0 0 42
0 0 42
0 0 42
45 47 65
147 155 169
199 209 225
226 238 254
227 239 255
227 239 255
227 239 255
227 239 255
227 239 255
227 239 255
227 239 255
227 239 255
227 239 255
227 239 255
227 239 255
227 239 255
227 239 255
227 239 255
227 239 255
227 239 255
227 239 255
227 239 255
227 239 255
227 239 255
227 239 255
227 239 255
227 239 255
227 239 255
227 239 255
227 239 255
227 239 255
227 239 255
227 239 255
227 239 255
227 239 255
227 239 255
227 239 255
227 239 255
227 239 255
227 239 255
227 239 255
227 239 255
227 239 255
227 239 255
227 239 255
227 239 255
227 239 255
227 239 255
227 239 255
227 239 255
227 239 255
227 239 255
227 239 255
227 239 255
227 239 255
227 239 255
227 239 255
227 239 255
227 239 255
227 239 255
227 239 255
227 239 255
227 239 255
227 239 255
227 239 255
227 239 255
227 239 255
227 239 255
227 239 255
227 239 255
227 239 255
227 239 255
227 239 255
227 239 255
227 239 255
227 239 255
227 239 255
227 239 255
227 239 255
227 239 255
227 239 255
227 239 255
227 239 255
227 239 255
227 239 255
227 239 255
227 239 255
227 239 255
227 239 255
227 239 255
227 239 255
227 239 255
227 239 255
227 239 255
227 239 255
227 239 255
227 239 255
227 239 255
227 239 255
227 239 255
227 239 255
227 239 255
227 239 255
227 239 255
227 239 255
227 239 255
227 239 255
227 239 255
227 239 255
227 239 255
227 239 255
227 239 255
227 239 255
227 239 255
227 239 255
227 239 255
227 239 255
227 239 255
227 239 255
227 239 255
227 239 255
227 239 255
227 239 255
227 239 255
227 239 255
227 239 255
227 239 255
227 239 255
227 239 255
227 239 255
227 239 255
227 239 255
227 239 255
227 239 255
227 239 255
227 239 255
227 239 255
227 239 255
227 239 255
227 239 255
227 239 255
227 239 255
227 239 255
227 239 255
227 239 255
227 239 255
227 239 255
227 239 255
227 239 255
227 239 255
227 239 255
227 239 255
227 239 255
227 239 255
227 239 255
227 239 255
227 239 255
227 239 255
227 239 255
227 239 255
227 239 255
227 239 255
227 239 255
227 239 255
227 239 255
227 239 255
227 239 255
227 239 255
227 239 255
227 239 255
227 239 255
227 239 255
227 239 255
227 239 255
227 239 255
227 239 255
227 239 255
227 239 255
227 239 255
227 239 255
227 239 255
227 239 255
227 239 255
227 239 255
227 239 255
227 239 255
227 239 255
227 239 255
227 239 255
227 239 255
227 239 255
227 239 255
227 239 255
227 239 255
227 239 255
227 239 255
227 239 255
227 239 255
227 239 255
227 239 255
227 239 255
227 239 255
227 239 255
227 239 255
227 239 255
227 239 255
227 239 255
227 239 255
227 239 255
227 239 255
227 239 255
227 239 255
227 239 255
227 239 255
227 239 255
227 239 255
227 239 255
227 239 255
227 239 255
227 239 255
227 239 255
227 239 255
227 239 255
227 239 255
227 239 255
227 239 255
227 239 255
227 239 255
227 239 255
227 239 255
227 239 255
227 239 255
227 239 255
227 239 255
227 239 255
227 239 255
227 239 255
227 239 255
227 239 255
227 239 255
227 239 255
227 239 255
227 239 255
227 239 255
227 239 255
227 239 255
227 239 255
227 239 255
227 239 255
227 239 255
227 239 255
227 239 255
227 239 255
227 239 255
227 239 255
227 239 255
227 239 255
227 239 255
227 239 255
227 239 255
227 239 255
227 239 255
227 239 255
227 239 255
227 239 255
227 239 255
227 239 255
227 239 255
227 239 255
227 239 255
227 239 255
227 239 255
227 239 255
227 239 255
227 239 255
227 239 255
227 239 255
227 239 255
227 239 255
227 239 255
227 239 255
227 239 255
227 239 255
227 239 255
227 239 255
227 239 255
227 239 255
227 239 255
227 239 255
227 239 255
227 239 255
227 239 255
227 239 255
227 239 255
227 239 255
227 239 255
227 239 255
227 239 255
227 239 255
227 239 255
227 239 255
227 239 255
227 239 255
227 239 255
227 239 255
227 239 255
227 239 255
227 239 255
227 239 255
227 239 255
227 239 255
227 239 255
227 239 255
227 239 255
227 239 255
227 239 255
227 239 255
227 239 255
227 239 255
227 239 255
227 239 255
227 239 255
227 239 255
227 239 255
227 239 255
227 239 255
227 239 255
222 234 250
190 200 215
128 135 148
50 53 70
0 0 42
0 0 42
0 0 42
0 0 42
0 0 42
0 0 42
0 0 42
0 0 42
0 0 42
0 0 42
0 0 42
0 0 42
0 0 42
0 0 42
0 0 42
0 0 42
0 0 42
0 0 42
0 0 42
0 0 42
0 0 42
0 0 42
0 0 42
0 0 42
0 0 42
0 0 42
0 0 42
0 0 42
0 0 42
0 0 42
0 0 42
0 0 42
0 0 42
0 0 42
0 0 42
0 0 42
0 0 42
0 0 42
0 0 42
0 0 42
0 0 42
0 0 42
0 0 42
0 0 42
0 0 42
0 0 42
0 0 42
0 0 42
0 0 42
0 0 42
0 0 41
0 0 41
0 0 43
0 0 41
3 3 40
36 37 59
45 46 66
85 86 99
104 105 120
98 100 118
25 26 46
2 2 40
0 0 42
0 0 42
0 0 42
0 0 42
45 47 65
118 124 137
195 205 221
222 234 250
227 239 255
227 239 255
227 239 255
227 239 255
227 239 255
227 239 255
227 239 255
227 239 255
227 239 255
227 239 255
227 239 255
227 239 255
227 239 255
227 239 255
227 239 255
227 239 255
227 239 255
227 239 255
227 239 255
227 239 255
227 239 255
227 239 255
227 239 255
227 239 255
227 239 255
227 239 255
227 239 255
227 239 255
227 239 255
227 239 255
227 239 255
227 239 255
227 239 255
227 239 255
227 239 255
227 239 255
227 239 255
227 239 255
227 239 255
227 239 255
227 239 255
227 239 255
227 239 255
227 239 255
227 239 255
227 239 255
227 239 255
227 239 255
227 239 255
227 239 255
227 239 255
227 239 255
227 239 255
227 239 255
227 239 255
227 239 255
227 239 255
227 239 255
227 239 255
227 239 255
227 239 255
227 239 255
227 239 255
227 239 255
227 239 255
227 239 255
227 239 255
227 239 255
227 239 255
227 239 255
227 239 255
227 239 255
227 239 255
227 239 255
227 239 255
227 239 255
227 239 255
227 239 255
227 239 255
227 239 255
227 239 255
227 239 255
227 239 255
227 239 255
227 239 255
227 239 255
227 239 255
227 239 255
227 239 255
227 239 255
227 239 255
227 239 255
227 239 255
227 239 255
227 239 255
227 239 255
227 239 255
227 239 255
227 239 255
227 239 255
227 239 255
227 239 255
227 239 255
227 239 255
227 239 255
227 239 255
227 239 255
227 239 255
227 239 255
227 239 255
227 239 255
227 239 255
227 239 255
227 239 255
227 239 255
227 239 255
227 239 255
227 239 255
227 239 255
227 239 255
227 239 255
227 239 255
227 239 255
227 239 255
227 239 255
227 239 255
227 239 255
227 239 255
227 239 255
227 239 255
227 239 255
227 239 255
227 239 255
227 239 255
227 239 255
227 239 255
227 239 255
227 239 255
227 239 255
227 239 255
227 239 255
227 239 255
227 239 255
227 239 255
227 239 255
227 239 255
227 239 255
227 239 255
227 239 255
227 239 255
227 239 255
227 239 255
227 239 255
227 239 255
227 239 255
227 239 255
227 239 255
227 239 255
227 239 255
227 239 255
227 239 255
227 239 255
227 239 255
227 239 255
227 239 255
227 239 255
227 239 255
227 239 255
227 239 255
227 239 255
227 239 255
227 239 255
227 239 255
227 239 255
227 239 255
227 239 255
227 239 255
227 239 255
227 239 255
227 239 255
227 239 255
227 239 255
227 239 255
227 239 255
227 239 255
227 239 255
227 239 255
227 239 255
227 239 255
227 239 255
227 239 255
227 239 255
227 239 255
227 239 255
227 239 255
227 239 255
227 239 255
227 239 255
227 239 255
227 239 255
227 239 255
227 239 255
227 239 255
227 239 255
227 239 255
227 239 255
227 239 255
227 239 255
227 239 255
227 239 255
227 239 255
227 239 255
227 239 255
227 239 255
227 239 255
227 239 255
227 239 255
227 239 255
227 239 255
227 239 255
227 239 255
227 239 255
227 239 255
227 239 255
227 239 255
227 239 255
227 239 255
227 239 255
227 239 255
227 239 255
227 239 255
227 239 255
227 239 255
227 239 255
227 239 255
227 239 255
227 239 255
227 239 255
227 239 255
227 239 255
227 239 255
227 239 255
227 239 255
227 239 255
227 239 255
227 239 255
227 239 255
227 239 255
227 239 255
227 239 255
227 239 255
227 239 255
227 239 255
227 239 255
227 239 255
227 239 255
227 239 255
227 239 255
227 239 255
227 239 255
227 239 255
227 239 255
227 239 255
227 239 255
227 239 255
227 239 255
227 239 255
227 239 255
227 239 255
227 239 255
227 239 255
227 239 255
227 239 255
227 239 255
227 239 255
227 239 255
227 239 255
227 239 255
227 239 255
227 239 255
227 239 255
227 239 255
227 239 255
227 239 255
227 239 255
227 239 255
227 239 255
227 239 255
227 239 255
227 239 255
227 239 255
227 239 255
227 239 255
227 239 255
227 239 255
227 239 255
227 239 255
227 239 255
227 239 255
227 239 255
227 239 255
227 239 255
227 239 255
227 239 255
227 239 255
227 239 255
227 239 255
227 239 255
227 239 255
227 239 255
227 239 255
227 239 255
227 239 255
227 239 255
227 239 255
227 239 255
227 239 255
227 239 255
227 239 255
227 239 255
227 239 255
227 239 255
227 239 255
227 239 255
227 239 255
227 239 255
227 239 255
227 239 255
227 239 255
219 230 247
193 203 218
142 149 163
32 33 55
0 0 42
0 0 42
0 0 42
0 0 42
0 0 42
0 0 42
0 0 42
0 0 42
0 0 42
0 0 42
0 0 42
0 0 42
0 0 42
0 0 42
0 0 42
0 0 42
0 0 42
0 0 42
0 0 42
0 0 42
0 0 42
0 0 42
0 0 42
0 0 42
0 0 42
0 0 42
0 0 42
0 0 42
0 0 42
0 0 42
0 0 42
0 0 42
0 0 42
0 0 42
0 0 42
0 0 42
0 0 42
0 0 42
0 0 42
0 0 42
0 0 42
0 0 42
0 0 42
0 0 42
0 0 42
0 0 41
0 0 41
0 0 41
0 0 39
28 28 53
86 86 98
131 132 142
105 106 112
81 82 91
38 38 55
2 0 41
0 0 42
0 0 42
0 0 42
0 0 42
45 47 65
138 145 159
186 195 210
220 232 248
227 239 255
227 239 255
227 239 255
227 239 255
227 239 255
227 239 255
227 239 255
227 239 255
227 239 255
227 239 255
227 239 255
227 239 255
227 239 255
227 239 255
227 239 255
227 239 255
227 239 255
227 239 255
227 239 255
227 239 255
227 239 255
227 239 255
227 239 255
227 239 255
227 239 255
227 239 255
227 239 255
227 239 255
227 239 255
227 239 255
227 239 255
227 239 255
227 239 255
227 239 255
227 239 255
227 239 255
227 239 255
227 239 255
227 239 255
227 239 255
227 239 255
227 239 255
227 239 255
227 239 255
227 239 255
227 239 255
227 239 255
227 239 255
227 239 255
227 239 255
227 239 255
227 239 255
227 239 255
227 239 255
227 239 255
227 239 255
227 239 255
227 239 255
227 239 255
227 239 255
227 239 255
227 239 255
227 239 255
227 239 255
227 239 255
227 239 255
227 239 255
227 239 255
227 239 255
227 239 255
227 239 255
227 239 255
227 239 255
227 239 255
227 239 255
227 239 255
227 239 255
227 239 255
227 239 255
227 239 255
227 239 255
227 239 255
227 239 255
227 239 255
227 239 255
227 239 255
227 239 255
227 239 255
227 239 255
227 239 255
227 239 255
227 239 255
227 239 255
227 239 255
227 239 255
227 239 255
227 239 255
227 239 255
227 239 255
227 239 255
227 239 255
227 239 255
227 239 255
227 239 255
227 239 255
227 239 255
227 239 255
227 239 255
227 239 255
227 239 255
227 239 255
227 239 255
227 239 255
227 239 255
227 239 255
227 239 255
227 239 255
227 239 255
227 239 255
227 239 255
227 239 255
227 239 255
227 239 255
227 239 255
227 239 255
227 239 255
227 239 255
227 239 255
227 239 255
227 239 255
227 239 255
227 239 255
227 239 255
227 239 255
227 239 255
227 239 255
227 239 255
227 239 255
227 239 255
227 239 255
227 239 255
227 239 255
227 239 255
227 239 255
227 239 255
227 239 255
227 239 255
227 239 255
227 239 255
227 239 255
227 239 255
227 239 255
227 239 255
227 239 255
227 239 255
227 239 255
227 239 255
227 239 255
227 239 255
227 239 255
227 239 255
227 239 255
227 239 255
227 239 255
227 239 255
227 239 255
227 239 255
227 239 255
227 239 255
227 239 255
227 239 255
227 239 255
227 239 255
227 239 255
227 239 255
227 239 255
227 239 255
227 239 255
227 239 255
227 239 255
227 239 255
227 239 255
227 239 255
227 239 255
227 239 255
227 239 255
227 239 255
227 239 255
227 239 255
227 239 255
227 239 255
227 239 255
227 239 255
227 239 255
227 239 255
227 239 255
227 239 255
227 239 255
227 239 255
227 239 255
227 239 255
227 239 255
227 239 255
227 239 255
227 239 255
227 239 255
227 239 255
227 239 255
227 239 255
227 239 255
227 239 255
227 239 255
227 239 255
227 239 255
227 239 255
227 239 255
227 239 255
227 239 255
227 239 255
227 239 255
227 239 255
227 239 255
227 239 255
227 239 255
227 239 255
227 239 255
227 239 255
227 239 255
227 239 255
227 239 255
227 239 255
227 239 255
227 239 255
227 239 255
227 239 255
227 239 255
227 239 255
227 239 255
227 239 255
227 239 255
227 239 255
227 239 255
227 239 255
227 239 255
227 239 255
227 239 255
227 239 255
227 239 255
227 239 255
227 239 255
227 239 255
227 239 255
227 239 255
227 239 255
227 239 255
227 239 255
227 239 255
227 239 255
227 239 255
227 239 255
227 239 255
227 239 255
227 239 255
227 239 255
227 239 255
227 239 255
227 239 255
227 239 255
227 239 255
227 239 255
227 239 255
227 239 255
227 239 255
227 239 255
227 239 255
227 239 255
227 239 255
227 239 255
227 239 255
227 239 255
227 239 255
227 239 255
227 239 255
227 239 255
227 239 255
227 239 255
227 239 255
227 239 255
227 239 255
227 239 255
227 239 255
227 239 255
227 239 255
227 239 255
227 239 255
227 239 255
227 239 255
227 239 255
227 239 255
227 239 255
227 239 255
227 239 255
227 239 255
227 239 255
227 239 255
227 239 255
227 239 255
227 239 255
227 239 255
227 239 255
227 239 255
227 239 255
227 239 255
227 239 255
227 239 255
227 239 255
227 239 255
227 239 255
227 239 255
227 239 255
227 239 255
227 239 255
227 239 255
227 239 255
227 239 255
227 239 255
227 239 255
227 239 255
227 239 255
227 239 255
227 239 255
227 239 255
227 239 255
227 239 255
227 239 255
227 239 255
199 210 225
152 160 174
85 89 103
22 23 49
0 0 42
0 0 42
0 0 42
0 0 42
0 0 42
0 0 42
0 0 42
0 0 42
0 0 42
0 0 42
0 0 42
0 0 42
0 0 42
0 0 42
0 0 42
0 0 42
0 0 42
0 0 42
0 0 42
0 0 42
0 0 42
0 0 42
0 0 42
0 0 42
0 0 42
0 0 42
0 0 42
0 0 42
0 0 42
0 0 42
0 0 42
0 0 42
0 0 42
0 0 42
0 0 42
0 0 42
0 0 42
0 0 42
0 0 42
0 0 41
0 0 41
64 66 82
88 90 105
98 97 109
139 143 147
160 164 168
165 168 172
122 125 134
14 14 43
0 0 42
0 0 41
0 0 42
32 33 55
101 107 120
157 165 179
191 201 216
227 239 255
227 239 255
227 239 255
227 239 255
227 239 255
227 239 255
227 239 255
227 239 255
227 239 255
227 239 255
227 239 255
227 239 255
227 239 255
227 239 255
227 239 255
227 239 255
227 239 255
227 239 255
227 239 255
227 239 255
227 239 255
227 239 255
227 239 255
227 239 255
227 239 255
227 239 255
227 239 255
227 239 255
227 239 255
227 239 255
227 239 255
227 239 255
227 239 255
227 239 255
227 239 255
227 239 255
227 239 255
227 239 255
227 239 255
227 239 255
227 239 255
227 239 255
227 239 255
227 239 255
227 239 255
227 239 255
227 239 255
227 239 255
227 239 255
227 239 255
227 239 255
227 239 255
227 239 255
227 239 255
227 239 255
227 239 255
227 239 255
227 239 255
227 239 255
227 239 255
227 239 255
227 239 255
227 239 255
227 239 255
227 239 255
227 239 255
227 239 255
227 239 255
227 239 255
227 239 255
227 239 255
227 239 255
227 239 255
227 239 255
227 239 255
227 239 255
227 239 255
227 239 255
227 239 255
227 239 255
227 239 255
227 239 255
227 239 255
227 239 255
227 239 255
227 239 255
227 239 255
227 239 255
227 239 255
227 239 255
227 239 255
227 239 255
227 239 255
227 239 255
227 239 255
227 239 255
227 239 255
227 239 255
227 239 255
227 239 255
227 239 255
227 239 255
227 239 255
227 239 255
227 239 255
227 239 255
227 239 255
227 239 255
227 239 255
227 239 255
227 239 255
227 239 255
227 239 255
227 239 255
227 239 255
227 239 255
227 239 255
227 239 255
227 239 255
227 239 255
227 239 255
227 239 255
227 239 255
227 239 255
227 239 255
227 239 255
227 239 255
227 239 255
227 239 255
227 239 255
227 239 255
227 239 255
227 239 255
227 239 255
227 239 255
227 239 255
227 239 255
227 239 255
227 239 255
227 239 255
227 239 255
227 239 255
227 239 255
227 239 255
227 239 255
227 239 255
227 239 255
227 239 255
227 239 255
227 239 255
227 239 255
227 239 255
227 239 255
227 239 255
227 239 255
227 239 255
227 239 255
227 239 255
227 239 255
227 239 255
227 239 255
227 239 255
227 239 255
227 239 255
227 239 255
227 239 255
227 239 255
227 239 255
227 239 255
227 239 255
227 239 255
227 239 255
227 239 255
227 239 255
227 239 255
227 239 255
227 239 255
227 239 255
227 239 255
227 239 255
227 239 255
227 239 255
227 239 255
227 239 255
227 239 255
227 239 255
227 239 255
227 239 255
227 239 255
227 239 255
227 239 255
227 239 255
227 239 255
227 239 255
227 239 255
227 239 255
227 239 255
227 239 255
227 239 255
227 239 255
227 239 255
227 239 255
227 239 255
227 239 255
227 239 255
227 239 255
227 239 255
227 239 255
227 239 255
227 239 255
227 239 255
227 239 255
227 239 255
227 239 255
227 239 255
227 239 255
227 239 255
227 239 255
227 239 255
227 239 255
227 239 255
227 239 255
227 239 255
227 239 255
227 239 255
227 239 255
227 239 255
227 239 255
227 239 255
227 239 255
227 239 255
227 239 255
227 239 255
227 239 255
227 239 255
227 239 255
227 239 255
227 239 255
227 239 255
227 239 255
227 239 255
227 239 255
227 239 255
227 239 255
227 239 255
227 239 255
227 239 255
227 239 255
227 239 255
227 239 255
227 239 255
227 239 255
227 239 255
227 239 255
227 239 255
227 239 255
227 239 255
227 239 255
227 239 255
227 239 255
227 239 255
227 239 255
227 239 255
227 239 255
227 239 255
227 239 255
227 239 255
227 239 255
227 239 255
227 239 255
227 239 255
227 239 255
227 239 255
227 239 255
227 239 255
227 239 255
227 239 255
227 239 255
227 239 255
227 239 255
227 239 255
227 239 255
227 239 255
227 239 255
227 239 255
227 239 255
227 239 255
227 239 255
227 239 255
227 239 255
227 239 255
227 239 255
227 239 255
227 239 255
227 239 255
227 239 255
227 239 255
227 239 255
227 239 255
227 239 255
227 239 255
227 239 255
227 239 255
227 239 255
227 239 255
227 239 255
227 239 255
227 239 255
227 239 255
227 239 255
227 239 255
227 239 255
227 239 255
227 239 255
227 239 255
227 239 255
227 239 255
227 239 255
227 239 255
227 239 255
227 239 255
227 239 255
227 239 255
227 239 255
227 239 255
227 239 255
227 239 255
227 239 255
227 239 255
227 239 255
227 239 255
227 239 255
227 239 255
227 239 255
227 239 255
227 239 255
227 239 255
227 239 255
227 239 255
227 239 255
227 239 255
227 239 255
227 239 255
219 230 247
186 195 210
150 158 172
99 104 117
50 53 70
0 0 41
0 0 42
0 0 42
0 0 42
0 0 42
0 0 42
0 0 42
0 0 42
0 0 42
0 0 42
0 0 42
0 0 42
0 0 42
0 0 41
0 0 42
0 0 40
0 0 42
0 0 42
0 0 41
0 0 42
0 0 42
7 7 43
0 0 42
0 0 42
0 0 42
0 0 42
0 0 42
0 0 42
0 0 42
0 0 42
0 0 42
0 0 42
0 0 39
7 7 40
84 86 96
99 100 112
71 72 86
131 131 133
164 163 164
174 176 182
142 146 149
89 91 97
39 40 59
0 0 41
45 47 65
106 112 125
159 167 181
199 210 225
218 229 245
227 239 255
227 239 255
227 239 255
227 239 255
227 239 255
227 239 255
227 239 255
227 239 255
227 239 255
227 239 255
227 239 255
227 239 255
227 239 255
227 239 255
227 239 255
227 239 255
227 239 255
227 239 255
227 239 255
227 239 255
227 239 255
227 239 255
227 239 255
227 239 255
227 239 255
227 239 255
227 239 255
227 239 255
227 239 255
227 239 255
227 239 255
227 239 255
227 239 255
227 239 255
227 239 255
227 239 255
227 239 255
227 239 255
227 239 255
227 239 255
227 239 255
227 239 255
227 239 255
227 239 255
227 239 255
227 239 255
227 239 255
227 239 255
227 239 255
227 239 255
227 239 255
227 239 255
227 239 255
227 239 255
227 239 255
227 239 255
227 239 255
227 239 255
227 239 255
227 239 255
227 239 255
227 239 255
227 239 255
227 239 255
227 239 255
227 239 255
227 239 255
227 239 255
227 239 255
227 239 255
227 239 255
227 239 255
227 239 255
227 239 255
227 239 255
227 239 255
227 239 255
227 239 255
227 239 255
227 239 255
227 239 255
227 239 255
227 239 255
227 239 255
227 239 255
227 239 255
227 239 255
227 239 255
227 239 255
227 239 255
227 239 255
227 239 255
227 239 255
227 239 255
227 239 255
227 239 255
227 239 255
227 239 255
227 239 255
227 239 255
227 239 255
227 239 255
227 239 255
227 239 255
227 239 255
227 239 255
227 239 255
227 239 255
227 239 255
227 239 255
227 239 255
227 239 255
227 239 255
227 239 255
227 239 255
227 239 255
227 239 255
227 239 255
227 239 255
227 239 255
227 239 255
227 239 255
227 239 255
227 239 255
227 239 255
227 239 255
227 239 255
227 239 255
227 239 255
227 239 255
227 239 255
227 239 255
227 239 255
227 239 255
227 239 255
227 239 255
227 239 255
227 239 255
227 239 255
227 239 255
227 239 255
227 239 255
227 239 255
227 239 255
227 239 255
227 239 255
227 239 255
227 239 255
227 239 255
227 239 255
227 239 255
227 239 255
227 239 255
227 239 255
227 239 255
227 239 255
227 239 255
227 239 255
227 239 255
227 239 255
227 239 255
227 239 255
227 239 255
227 239 255
227 239 255
227 239 255
227 239 255
227 239 255
227 239 255
227 239 255
227 239 255
227 239 255
227 239 255
227 239 255
227 239 255
227 239 255
227 239 255
227 239 255
227 239 255
227 239 255
227 239 255
227 239 255
227 239 255
227 239 255
227 239 255
227 239 255
227 239 255
227 239 255
227 239 255
227 239 255
227 239 255
227 239 255
227 239 255
227 239 255
227 239 255
227 239 255
227 239 255
227 239 255
227 239 255
227 239 255
227 239 255
227 239 255
227 239 255
227 239 255
227 239 255
227 239 255
227 239 255
227 239 255
227 239 255
227 239 255
227 239 255
227 239 255
227 239 255
227 239 255
227 239 255
227 239 255
227 239 255
227 239 255
227 239 255
227 239 255
227 239 255
227 239 255
227 239 255
227 239 255
227 239 255
227 239 255
227 239 255
227 239 255
227 239 255
227 239 255
227 239 255
227 239 255
227 239 255
227 239 255
227 239 255
227 239 255
227 239 255
227 239 255
227 239 255
227 239 255
227 239 255
227 239 255
227 239 255
227 239 255
227 239 255
227 239 255
227 239 255
227 239 255
227 239 255
227 239 255
227 239 255
227 239 255
227 239 255
227 239 255
227 239 255
227 239 255
227 239 255
227 239 255
227 239 255
227 239 255
227 239 255
227 239 255
227 239 255
227 239 255
227 239 255
227 239 255
227 239 255
227 239 255
227 239 255
227 239 255
227 239 255
227 239 255
227 239 255
227 239 255
227 239 255
227 239 255
227 239 255
227 239 255
227 239 255
227 239 255
227 239 255
227 239 255
227 239 255
227 239 255
227 239 255
227 239 255
227 239 255
227 239 255
227 239 255
227 239 255
227 239 255
227 239 255
227 239 255
227 239 255
227 239 255
227 239 255
227 239 255
227 239 255
227 239 255
227 239 255
227 239 255
227 239 255
227 239 255
227 239 255
227 239 255
227 239 255
227 239 255
227 239 255
227 239 255
227 239 255
227 239 255
227 239 255
227 239 255
227 239 255
227 239 255
227 239 255
227 239 255
227 239 255
227 239 255
227 239 255
227 239 255
227 239 255
227 239 255
227 239 255
227 239 255
227 239 255
227 239 255
227 239 255
227 239 255
227 239 255
227 239 255
227 239 255
227 239 255
227 239 255
227 239 255
227 239 255
227 239 255
227 239 255
227 239 255
227 239 255
227 239 255
227 239 255
227 239 255
227 239 255
227 239 255
227 239 255
227 239 255
227 239 255
227 239 255
227 239 255
225 237 253
202 212 228
173 182 196
163 170 183
141 146 156
117 120 128
96 96 103
54 54 68
32 32 52
1 1 41
1 1 42
0 0 42
0 0 42
0 0 41
4 4 42
1 2 39
16 17 43
1 1 39
8 8 41
0 0 41
0 0 41
0 0 42
8 8 43
0 0 42
0 0 42
0 0 42
0 0 42
0 0 42
0 0 42
0 0 42
0 0 41
71 73 90
121 124 135
165 166 169
173 172 173
164 163 165
164 163 162
166 162 157
159 157 154
131 132 133
103 106 115
104 109 123
147 155 168
179 188 203
203 214 229
226 238 254
227 239 255
227 239 255
227 239 255
227 239 255
227 239 255
227 239 255
227 239 255
227 239 255
227 239 255
227 239 255
227 239 255
227 239 255
227 239 255
227 239 255
227 239 255
227 239 255
227 239 255
227 239 255
227 239 255
227 239 255
227 239 255
227 239 255
227 239 255
227 239 255
227 239 255
227 239 255
227 239 255
227 239 255
227 239 255
227 239 255
227 239 255
227 239 255
227 239 255
227 239 255
227 239 255
227 239 255
227 239 255
227 239 255
227 239 255
227 239 255
227 239 255
227 239 255
227 239 255
227 239 255
227 239 255
227 239 255
227 239 255
227 239 255
227 239 255
227 239 255
227 239 255
227 239 255
227 239 255
227 239 255
227 239 255
227 239 255
227 239 255
227 239 255
227 239 255
227 239 255
227 239 255
227 239 255
227 239 255
227 239 255
227 239 255
227 239 255
227 239 255
227 239 255
227 239 255
227 239 255
227 239 255
227 239 255
227 239 255
227 239 255
227 239 255
227 239 255
227 239 255
227 239 255
227 239 255
227 239 255
227 239 255
227 239 255
227 239 255
227 239 255
227 239 255
227 239 255
227 239 255
227 239 255
227 239 255
227 239 255
227 239 255
227 239 255
227 239 255
227 239 255
227 239 255
227 239 255
227 239 255
227 239 255
227 239 255
227 239 255
227 239 255
227 239 255
227 239 255
227 239 255
227 239 255
227 239 255
227 239 255
227 239 255
227 239 255
227 239 255
227 239 255
227 239 255
227 239 255
227 239 255
227 239 255
227 239 255
227 239 255
227 239 255
227 239 255
227 239 255
227 239 255
227 239 255
227 239 255
227 239 255
227 239 255
227 239 255
227 239 255
227 239 255
227 239 255
227 239 255
227 239 255
227 239 255
227 239 255
227 239 255
227 239 255
227 239 255
227 239 255
227 239 255
227 239 255
227 239 255
227 239 255
227 239 255
227 239 255
227 239 255
227 239 255
227 239 255
227 239 255
227 239 255
227 239 255
227 239 255
227 239 255
227 239 255
227 239 255
227 239 255
227 239 255
227 239 255
227 239 255
227 239 255
227 239 255
227 239 255
227 239 255
227 239 255
227 239 255
227 239 255
227 239 255
227 239 255
227 239 255
227 239 255
227 239 255
227 239 255
227 239 255
227 239 255
227 239 255
227 239 255
227 239 255
227 239 255
227 239 255
227 239 255
227 239 255
227 239 255
227 239 255
227 239 255
227 239 255
227 239 255
227 239 255
227 239 255
227 239 255
227 239 255
227 239 255
227 239 255
227 239 255
227 239 255
227 239 255
227 239 255
227 239 255
227 239 255
227 239 255
227 239 255
227 239 255
227 239 255
227 239 255
227 239 255
227 239 255
227 239 255
227 239 255
227 239 255
227 239 255
227 239 255
227 239 255
227 239 255
227 239 255
227 239 255
227 239 255
227 239 255
227 239 255
227 239 255
227 239 255
227 239 255
227 239 255
227 239 255
227 239 255
227 239 255
227 239 255
227 239 255
227 239 255
227 239 255
227 239 255
227 239 255
227 239 255
227 239 255
227 239 255
227 239 255
227 239 255
227 239 255
227 239 255
227 239 255
227 239 255
227 239 255
227 239 255
227 239 255
227 239 255
227 239 255
227 239 255
227 239 255
227 239 255
227 239 255
227 239 255
227 239 255
227 239 255
227 239 255
227 239 255
227 239 255
227 239 255
227 239 255
227 239 255
227 239 255
227 239 255
227 239 255
227 239 255
227 239 255
227 239 255
227 239 255
227 239 255
227 239 255
227 239 255
227 239 255
227 239 255
227 239 255
227 239 255
227 239 255
227 239 255
227 239 255
227 239 255
227 239 255
227 239 255
227 239 255
227 239 255
227 239 255
227 239 255
227 239 255
227 239 255
227 239 255
227 239 255
227 239 255
227 239 255
227 239 255
227 239 255
227 239 255
227 239 255
227 239 255
227 239 255
227 239 255
227 239 255
227 239 255
227 239 255
227 239 255
227 239 255
227 239 255
227 239 255
227 239 255
227 239 255
227 239 255
227 239 255
227 239 255
227 239 255
227 239 255
227 239 255
227 239 255
227 239 255
227 239 255
227 239 255
227 239 255
227 239 255
227 239 255
227 239 255
227 239 255
227 239 255
227 239 255
227 239 255
227 239 255
227 239 255
227 239 255
227 239 255
227 239 255
227 239 255
227 239 255
227 239 255
227 239 255
227 239 255
227 239 255
227 239 255
227 239 255
227 239 255
227 239 255
227 239 255
227 239 255
227 239 255
227 239 255
227 239 255
227 239 255
227 239 255
227 239 255
227 239 255
227 239 255
227 239 255
227 239 255
227 239 255
227 239 255
227 239 255
227 239 255
227 239 255
227 239 255
227 239 255
227 239 255
227 239 255
227 239 255
227 239 255
227 239 255
227 239 255
227 239 255
226 237 253
216 226 239
209 218 231
192 200 211
175 183 193
163 170 182
135 140 149
121 124 130
129 129 135
133 135 138
151 155 160
168 173 178
176 179 183
175 174 174
158 160 162
170 170 170
155 154 156
162 160 159
167 165 162
142 141 141
126 126 128
111 112 114
129 129 132
146 147 151
151 153 155
153 153 154
150 150 151
177 178 179
180 180 181
196 199 205
192 198 207
184 193 205
199 209 224
219 230 247
227 239 255
227 239 255
227 239 255
227 239 255
227 239 255
227 239 255
227 239 255
227 239 255
227 239 255
227 239 255
227 239 255
227 239 255
227 239 255
227 239 255
227 239 255
227 239 255
227 239 255
227 239 255
227 239 255
227 239 255
227 239 255
227 239 255
227 239 255
227 239 255
227 239 255
227 239 255
227 239 255
227 239 255
227 239 255
227 239 255
227 239 255
227 239 255
227 239 255
227 239 255
227 239 255
227 239 255
227 239 255
227 239 255
227 239 255
227 239 255
227 239 255
227 239 255
227 239 255
227 239 255
227 239 255
227 239 255
227 239 255
227 239 255
227 239 255
227 239 255
227 239 255
227 239 255
227 239 255
227 239 255
227 239 255
227 239 255
227 239 255
227 239 255
227 239 255
227 239 255
227 239 255
227 239 255
227 239 255
227 239 255
227 239 255
227 239 255
227 239 255
227 239 255
227 239 255
227 239 255
227 239 255
227 239 255
227 239 255
227 239 255
227 239 255
227 239 255
227 239 255
227 239 255
227 239 255
227 239 255
227 239 255
227 239 255
227 239 255
227 239 255
227 239 255
227 239 255
227 239 255
227 239 255
227 239 255
227 239 255
227 239 255
227 239 255
227 239 255
227 239 255
227 239 255
227 239 255
227 239 255
227 239 255
227 239 255
227 239 255
227 239 255
227 239 255
227 239 255
227 239 255
227 239 255
227 239 255
227 239 255
227 239 255
227 239 255
227 239 255
227 239 255
227 239 255
227 239 255
227 239 255
227 239 255
227 239 255
227 239 255
227 239 255
227 239 255
227 239 255
227 239 255
227 239 255
227 239 255
227 239 255
227 239 255
227 239 255
227 239 255
227 239 255
227 239 255
227 239 255
227 239 255
227 239 255
227 239 255
227 239 255
227 239 255
227 239 255
227 239 255
227 239 255
227 239 255
227 239 255
227 239 255
227 239 255
227 239 255
227 239 255
227 239 255
227 239 255
227 239 255
227 239 255
227 239 255
227 239 255
227 239 255
227 239 255
227 239 255
227 239 255
227 239 255
227 239 255
227 239 255
227 239 255
227 239 255
227 239 255
227 239 255
227 239 255
227 239 255
227 239 255
227 239 255
227 239 255
227 239 255
227 239 255
227 239 255
227 239 255
227 239 255
227 239 255
227 239 255
227 239 255
227 239 255
227 239 255
227 239 255
227 239 255
227 239 255
227 239 255
227 239 255
227 239 255
227 239 255
227 239 255
227 239 255
227 239 255
227 239 255
227 239 255
227 239 255
227 239 255
227 239 255
227 239 255
227 239 255
227 239 255
227 239 255
227 239 255
227 239 255
227 239 255
227 239 255
227 239 255
227 239 255
227 239 255
227 239 255
227 239 255
227 239 255
227 239 255
227 239 255
227 239 255
227 239 255
227 239 255
227 239 255
227 239 255
227 239 255
227 239 255
227 239 255
227 239 255
227 239 255
227 239 255
227 239 255
227 239 255
227 239 255
227 239 255
227 239 255
227 239 255
227 239 255
227 239 255
227 239 255
227 239 255
227 239 255
227 239 255
227 239 255
227 239 255
227 239 255
227 239 255
227 239 255
227 239 255
227 239 255
227 239 255
227 239 255
227 239 255
227 239 255
227 239 255
227 239 255
227 239 255
227 239 255
227 239 255
227 239 255
227 239 255
227 239 255
227 239 255
227 239 255
227 239 255
227 239 255
227 239 255
227 239 255
227 239 255
227 239 255
227 239 255
227 239 255
227 239 255
227 239 255
227 239 255
227 239 255
227 239 255
227 239 255
227 239 255
227 239 255
227 239 255
227 239 255
227 239 255
227 239 255
227 239 255
227 239 255
227 239 255
227 239 255
227 239 255
227 239 255
227 239 255
227 239 255
227 239 255
227 239 255
227 239 255
227 239 255
227 239 255
227 239 255
227 239 255
227 239 255
227 239 255
227 239 255
227 239 255
227 239 255
227 239 255
227 239 255
227 239 255
227 239 255
227 239 255
227 239 255
227 239 255
227 239 255
227 239 255
227 239 255
227 239 255
227 239 255
227 239 255
227 239 255
227 239 255
227 239 255
227 239 255
227 239 255
227 239 255
227 239 255
227 239 255
227 239 255
227 239 255
227 239 255
227 239 255
227 239 255
227 239 255
227 239 255
227 239 255
227 239 255
227 239 255
227 239 255
227 239 255
227 239 255
227 239 255
227 239 255
227 239 255
227 239 255
227 239 255
227 239 255
227 239 255
227 239 255
227 239 255
227 239 255
227 239 255
227 239 255
227 239 255
227 239 255
227 239 255
227 239 255
227 239 255
227 239 255
227 239 255
227 239 255
227 239 255
227 239 255
227 239 255
227 239 255
227 239 255
227 239 255
227 239 255
227 239 255
227 239 255
227 239 255
227 239 255
227 239 255
227 239 255
227 239 255
227 239 255
227 239 255
227 239 255
227 239 255
227 239 255
227 239 255
227 239 255
227 239 255
227 239 255
227 239 255
227 239 255
227 239 255
227 239 255
227 239 255
227 239 255
227 238 255
219 229 243
219 228 241
214 224 238
208 217 229
211 220 232
211 219 231
210 218 229
205 211 222
208 216 227
207 216 228
205 215 228
201 211 222
207 217 231
215 226 241
217 229 244
222 234 250
225 237 253
227 239 255
227 239 255
227 239 255
227 239 255
227 239 255
227 239 255
227 239 255
227 239 255
227 239 255
227 239 255
227 239 255
227 239 255
227 239 255
227 239 255
227 239 255
227 239 255
227 239 255
227 239 255
227 239 255
227 239 255
227 239 255
227 239 255
227 239 255
227 239 255
227 239 255
227 239 255
227 239 255
227 239 255
227 239 255
227 239 255
227 239 255
227 239 255
227 239 255
227 239 255
227 239 255
227 239 255
227 239 255
227 239 255
227 239 255
227 239 255
227 239 255
227 239 255
227 239 255
227 239 255
227 239 255
227 239 255
227 239 255
227 239 255
227 239 255
227 239 255
227 239 255
227 239 255
227 239 255
227 239 255
227 239 255
227 239 255
227 239 255
227 239 255
227 239 255
227 239 255
227 239 255
227 239 255
227 239 255
227 239 255
227 239 255
227 239 255
227 239 255
227 239 255
227 239 255
227 239 255
227 239 255
227 239 255
227 239 255
227 239 255
227 239 255
227 239 255
227 239 255
227 239 255
227 239 255
227 239 255
227 239 255
227 239 255
227 239 255
227 239 255
227 239 255
227 239 255
227 239 255
227 239 255
227 239 255
227 239 255
227 239 255
227 239 255
227 239 255
227 239 255
227 239 255
227 239 255
227 239 255
227 239 255
227 239 255
227 239 255
227 239 255
227 239 255
227 239 255
227 239 255
227 239 255
227 239 255
227 239 255
227 239 255
227 239 255
227 239 255
227 239 255
227 239 255
227 239 255
227 239 255
227 239 255
227 239 255
227 239 255
227 239 255
227 239 255
227 239 255
227 239 255
227 239 255
227 239 255
227 239 255
227 239 255
227 239 255
227 239 255
227 239 255
227 239 255
227 239 255
227 239 255
227 239 255
227 239 255
227 239 255
227 239 255
227 239 255
227 239 255
227 239 255
227 239 255
227 239 255
227 239 255
227 239 255
227 239 255
227 239 255
227 239 255
227 239 255
227 239 255
227 239 255
227 239 255
227 239 255
227 239 255
227 239 255
227 239 255
227 239 255
227 239 255
227 239 255
227 239 255
227 239 255
227 239 255
227 239 255
227 239 255
227 239 255
227 239 255
227 239 255
227 239 255
227 239 255
227 239 255
227 239 255
227 239 255
227 239 255
227 239 255
227 239 255
227 239 255
227 239 255
227 239 255
227 239 255
227 239 255
227 239 255
227 239 255
227 239 255
227 239 255
227 239 255
227 239 255
227 239 255
227 239 255
227 239 255
227 239 255
227 239 255
227 239 255
227 239 255
227 239 255
227 239 255
227 239 255
227 239 255
227 239 255
227 239 255
227 239 255
227 239 255
227 239 255
227 239 255
227 239 255
227 239 255
227 239 255
227 239 255
227 239 255
227 239 255
227 239 255
227 239 255
227 239 255
227 239 255
227 239 255
227 239 255
227 239 255
227 239 255
227 239 255
227 239 255
227 239 255
227 239 255
227 239 255
227 239 255
227 239 255
227 239 255
227 239 255
227 239 255
227 239 255
227 239 255
227 239 255
227 239 255
227 239 255
227 239 255
227 239 255
227 239 255
227 239 255
227 239 255
227 239 255
227 239 255
227 239 255
227 239 255
227 239 255
227 239 255
227 239 255
227 239 255
227 239 255
227 239 255
227 239 255
227 239 255
227 239 255
227 239 255
227 239 255
227 239 255
227 239 255
227 239 255
227 239 255
227 239 255
227 239 255
227 239 255
227 239 255
227 239 255
227 239 255
227 239 255
227 239 255
227 239 255
227 239 255
227 239 255
227 239 255
227 239 255
227 239 255
227 239 255
227 239 255
227 239 255
227 239 255
227 239 255
227 239 255
227 239 255
227 239 255
227 239 255
227 239 255
227 239 255
227 239 255
227 239 255
227 239 255
227 239 255
227 239 255
227 239 255
227 239 255
227 239 255
227 239 255
227 239 255
227 239 255
227 239 255
227 239 255
227 239 255
227 239 255
227 239 255
227 239 255
227 239 255
227 239 255
227 239 255
227 239 255
227 239 255
227 239 255
227 239 255
227 239 255
227 239 255
227 239 255
227 239 255
227 239 255
227 239 255
227 239 255
227 239 255
227 239 255
227 239 255
227 239 255
227 239 255
227 239 255
227 239 255
227 239 255
227 239 255
227 239 255
227 239 255
227 239 255
227 239 255
227 239 255
227 239 255
227 239 255
227 239 255
227 239 255
227 239 255
227 239 255
227 239 255
227 239 255
227 239 255
227 239 255
227 239 255
227 239 255
227 239 255
227 239 255
227 239 255
227 239 255
227 239 255
227 239 255
227 239 255
227 239 255
227 239 255
227 239 255
227 239 255
227 239 255
227 239 255
227 239 255
227 239 255
227 239 255
227 239 255
227 239 255
227 239 255
227 239 255
227 239 255
227 239 255
227 239 255
227 239 255
227 239 255
227 239 255
227 239 255
227 239 255
227 239 255
227 239 255
227 239 255
227 239 255
227 239 255
227 239 255
227 239 255
227 239 255
227 239 255
227 239 255
227 239 255
227 239 255
227 239 255
227 239 255
227 239 255
227 239 255
227 239 255
227 239 255
227 239 255
227 239 255
227 239 255
227 239 255
227 239 255
227 239 255
227 239 255
227 239 255
227 239 255
227 239 255
227 239 255
227 239 255
227 239 255
227 239 255
227 239 255
227 239 255
227 239 255
227 239 255
227 239 255
227 239 255
227 239 255
227 239 255
227 239 255
227 239 255
227 239 255
227 239 255
227 239 255
227 239 255
227 239 255
227 239 255
227 239 255
227 239 255
227 239 255
227 239 255
227 239 255
227 239 255
227 239 255
227 239 255
227 239 255
227 239 255
227 239 255
227 239 255
227 239 255
227 239 255
227 239 255
227 239 255
227 239 255
227 239 255
227 239 255
227 239 255
227 239 255
227 239 255
227 239 255
227 239 255
227 239 255
227 239 255
227 239 255
227 239 255
227 239 255
227 239 255
227 239 255
227 239 255
227 239 255
227 239 255
227 239 255
227 239 255
227 239 255
227 239 255
227 239 255
227 239 255
227 239 255
227 239 255
227 239 255
227 239 255
227 239 255
227 239 255
227 239 255
227 239 255
227 239 255
227 239 255
227 239 255
227 239 255
227 239 255
227 239 255
227 239 255
227 239 255
227 239 255
227 239 255
227 239 255
227 239 255
227 239 255
227 239 255
227 239 255
227 239 255
227 239 255
227 239 255
227 239 255
227 239 255
227 239 255
227 239 255
227 239 255
227 239 255
227 239 255
227 239 255
227 239 255
227 239 255
227 239 255
227 239 255
227 239 255
227 239 255
227 239 255
227 239 255
227 239 255
227 239 255
227 239 255
227 239 255
227 239 255
227 239 255
227 239 255
227 239 255
227 239 255
227 239 255
227 239 255
227 239 255
227 239 255
227 239 255
227 239 255
227 239 255
227 239 255
227 239 255
227 239 255
227 239 255
227 239 255
227 239 255
227 239 255
227 239 255
227 239 255
227 239 255
227 239 255
227 239 255
227 239 255
227 239 255
227 239 255
227 239 255
227 239 255
227 239 255
227 239 255
227 239 255
227 239 255
227 239 255
227 239 255
227 239 255
227 239 255
227 239 255
227 239 255
227 239 255
227 239 255
227 239 255
227 239 255
227 239 255
227 239 255
227 239 255
227 239 255
227 239 255
227 239 255
227 239 255
227 239 255
227 239 255
227 239 255
227 239 255
227 239 255
227 239 255
227 239 255
227 239 255
227 239 255
227 239 255
227 239 255
227 239 255
227 239 255
227 239 255
227 239 255
227 239 255
227 239 255
227 239 255
227 239 255
227 239 255
227 239 255
227 239 255
227 239 255
227 239 255
227 239 255
227 239 255
227 239 255
227 239 255
227 239 255
227 239 255
227 239 255
227 239 255
227 239 255
227 239 255
227 239 255
227 239 255
227 239 255
227 239 255
227 239 255
227 239 255
227 239 255
227 239 255
227 239 255
227 239 255
227 239 255
227 239 255
227 239 255
227 239 255
227 239 255
227 239 255
227 239 255
227 239 255
227 239 255
227 239 255
227 239 255
227 239 255
227 239 255
227 239 255
227 239 255
227 239 255
227 239 255
227 239 255
227 239 255
227 239 255
227 239 255
227 239 255
227 239 255
227 239 255
227 239 255
227 239 255
227 239 255
227 239 255
227 239 255
227 239 255
227 239 255
227 239 255
227 239 255
227 239 255
227 239 255
227 239 255
227 239 255
227 239 255
227 239 255
227 239 255
227 239 255
227 239 255
227 239 255
227 239 255
227 239 255
227 239 255
227 239 255
227 239 255
227 239 255
227 239 255
227 239 255
227 239 255
227 239 255
227 239 255
227 239 255
227 239 255
227 239 255
227 239 255
227 239 255
227 239 255
227 239 255
227 239 255
227 239 255
227 239 255
227 239 255
227 239 255
227 239 255
227 239 255
227 239 255
227 239 255
227 239 255
227 239 255
227 239 255
227 239 255
227 239 255
227 239 255
227 239 255
227 239 255
227 239 255
227 239 255
227 239 255
227 239 255
227 239 255
227 239 255
227 239 255
227 239 255
227 239 255
227 239 255
227 239 255
227 239 255
227 239 255
227 239 255
227 239 255
227 239 255
227 239 255
227 239 255
227 239 255
227 239 255
227 239 255
227 239 255
227 239 255
227 239 255
227 239 255
227 239 255
227 239 255
227 239 255
227 239 255
227 239 255
227 239 255
227 239 255
227 239 255
227 239 255
227 239 255
227 239 255
227 239 255
227 239 255
227 239 255
227 239 255
227 239 255
227 239 255
227 239 255
227 239 255
227 239 255
227 239 255
227 239 255
227 239 255
227 239 255
227 239 255
227 239 255
227 239 255
227 239 255
227 239 255
227 239 255
227 239 255
227 239 255
227 239 255
227 239 255
227 239 255
227 239 255
227 239 255
227 239 255
227 239 255
227 239 255
227 239 255
227 239 255
227 239 255
227 239 255
227 239 255
227 239 255
227 239 255
227 239 255
227 239 255
227 239 255
227 239 255
227 239 255
227 239 255
227 239 255
227 239 255
227 239 255
227 239 255
227 239 255
227 239 255
227 239 255
227 239 255
227 239 255
227 239 255
227 239 255
227 239 255
227 239 255
227 239 255
227 239 255
227 239 255
227 239 255
227 239 255
227 239 255
227 239 255
227 239 255
227 239 255
227 239 255
227 239 255
227 239 255
227 239 255
227 239 255
227 239 255
227 239 255
227 239 255
227 239 255
227 239 255
227 239 255
227 239 255
227 239 255
227 239 255
227 239 255
227 239 255
227 239 255
227 239 255
227 239 255
227 239 255
227 239 255
227 239 255
227 239 255
227 239 255
227 239 255
227 239 255
227 239 255
227 239 255
227 239 255
227 239 255
227 239 255
227 239 255
227 239 255
227 239 255
227 239 255
227 239 255
227 239 255
227 239 255
227 239 255
227 239 255
227 239 255
227 239 255
227 239 255
227 239 255
227 239 255
227 239 255
227 239 255
227 239 255
227 239 255
227 239 255
227 239 255
227 239 255
227 239 255
227 239 255
227 239 255
227 239 255
227 239 255
227 239 255
227 239 255
227 239 255
227 239 255
227 239 255
227 239 255
227 239 255
227 239 255
227 239 255
227 239 255
227 239 255
227 239 255
227 239 255
227 239 255
227 239 255
227 239 255
227 239 255
227 239 255
227 239 255
227 239 255
227 239 255
227 239 255
227 239 255
227 239 255
227 239 255
227 239 255
227 239 255
227 239 255
227 239 255
227 239 255
227 239 255
227 239 255
227 239 255
227 239 255
227 239 255
227 239 255
227 239 255
227 239 255
227 239 255
227 239 255
227 239 255
227 239 255
227 239 255
227 239 255
227 239 255
227 239 255
227 239 255
227 239 255
227 239 255
227 239 255
227 239 255
227 239 255
227 239 255
227 239 255
227 239 255
227 239 255
227 239 255
227 239 255
227 239 255
227 239 255
227 239 255
227 239 255
227 239 255
227 239 255
227 239 255
227 239 255
227 239 255
227 239 255
227 239 255
227 239 255
227 239 255
227 239 255
227 239 255
227 239 255
227 239 255
227 239 255
227 239 255
227 239 255
227 239 255
227 239 255
227 239 255
227 239 255
227 239 255
227 239 255
227 239 255
227 239 255
227 239 255
227 239 255
227 239 255
227 239 255
227 239 255
227 239 255
227 239 255
227 239 255
227 239 255
227 239 255
227 239 255
227 239 255
227 239 255
227 239 255
227 239 255
227 239 255
227 239 255
227 239 255
227 239 255
227 239 255
227 239 255
227 239 255
227 239 255
227 239 255
227 239 255
227 239 255
227 239 255
227 239 255
227 239 255
227 239 255
227 239 255
227 239 255
227 239 255
227 239 255
227 239 255
227 239 255
227 239 255
227 239 255
227 239 255
227 239 255
227 239 255
227 239 255
227 239 255
227 239 255
227 239 255
227 239 255
227 239 255
227 239 255
227 239 255
227 239 255
227 239 255
227 239 255
227 239 255
227 239 255
227 239 255
227 239 255
227 239 255
227 239 255
227 239 255
227 239 255
227 239 255
227 239 255
227 239 255
227 239 255
227 239 255
227 239 255
227 239 255
227 239 255
227 239 255
227 239 255
227 239 255
227 239 255
227 239 255
227 239 255
227 239 255
227 239 255
227 239 255
227 239 255
227 239 255
227 239 255
227 239 255
227 239 255
227 239 255
227 239 255
227 239 255
227 239 255
227 239 255
227 239 255
227 239 255
227 239 255
227 239 255
227 239 255
227 239 255
227 239 255
227 239 255
227 239 255
227 239 255
227 239 255
227 239 255
227 239 255
227 239 255
227 239 255
227 239 255
227 239 255
227 239 255
227 239 255
227 239 255
227 239 255
227 239 255
227 239 255
227 239 255
227 239 255
227 239 255
227 239 255
227 239 255
227 239 255
227 239 255
227 239 255
227 239 255
227 239 255
227 239 255
227 239 255
227 239 255
227 239 255
227 239 255
227 239 255
227 239 255
227 239 255
227 239 255
227 239 255
227 239 255
227 239 255
227 239 255
227 239 255
227 239 255
227 239 255
227 239 255
227 239 255
227 239 255
227 239 255
227 239 255
227 239 255
227 239 255
227 239 255
227 239 255
227 239 255
227 239 255
227 239 255
227 239 255
227 239 255
227 239 255
227 239 255
227 239 255
227 239 255
227 239 255
227 239 255
227 239 255
227 239 255
227 239 255
227 239 255
227 239 255
227 239 255
227 239 255
227 239 255
227 239 255
227 239 255
227 239 255
227 239 255
227 239 255
227 239 255
227 239 255
227 239 255
227 239 255
227 239 255
227 239 255
227 239 255
227 239 255
227 239 255
227 239 255
227 239 255
227 239 255
227 239 255
227 239 255
227 239 255
227 239 255
227 239 255
227 239 255
227 239 255
227 239 255
227 239 255
227 239 255
227 239 255
227 239 255
227 239 255
227 239 255
227 239 255
227 239 255
227 239 255
227 239 255
227 239 255
227 239 255
227 239 255
227 239 255
227 239 255
227 239 255
227 239 255
227 239 255
227 239 255
227 239 255
227 239 255
227 239 255
227 239 255
227 239 255
227 239 255
227 239 255
227 239 255
227 239 255
227 239 255
227 239 255
227 239 255
227 239 255
227 239 255
227 239 255
227 239 255
227 239 255
227 239 255
227 239 255
227 239 255
227 239 255
227 239 255
227 239 255
227 239 255
227 239 255
227 239 255
227 239 255
227 239 255
227 239 255
227 239 255
227 239 255
227 239 255
227 239 255
227 239 255
227 239 255
227 239 255
227 239 255
227 239 255
227 239 255
227 239 255
227 239 255
227 239 255
227 239 255
227 239 255
227 239 255
227 239 255
227 239 255
227 239 255
227 239 255
227 239 255
227 239 255
227 239 255
227 239 255
227 239 255
227 239 255
227 239 255
227 239 255
227 239 255
227 239 255
227 239 255
227 239 255
227 239 255
227 239 255
227 239 255
227 239 255
227 239 255
227 239 255
227 239 255
227 239 255
227 239 255
227 239 255
227 239 255
227 239 255
227 239 255
227 239 255
227 239 255
227 239 255
227 239 255
227 239 255
227 239 255
227 239 255
227 239 255
227 239 255
227 239 255
227 239 255
227 239 255
227 239 255
227 239 255
227 239 255
227 239 255
227 239 255
227 239 255
227 239 255
227 239 255
227 239 255
227 239 255
227 239 255
227 239 255
227 239 255
227 239 255
227 239 255
227 239 255
227 239 255
227 239 255
227 239 255
227 239 255
227 239 255
227 239 255
227 239 255
227 239 255
227 239 255
227 239 255
227 239 255
227 239 255
227 239 255
227 239 255
227 239 255
227 239 255
227 239 255
227 239 255
227 239 255
227 239 255
227 239 255
227 239 255
227 239 255
227 239 255
227 239 255
227 239 255
227 239 255
227 239 255
227 239 255
227 239 255
227 239 255
227 239 255
227 239 255
227 239 255
227 239 255
227 239 255
227 239 255
227 239 255
227 239 255
227 239 255
227 239 255
227 239 255
227 239 255
227 239 255
227 239 255
227 239 255
227 239 255
227 239 255
227 239 255
227 239 255
227 239 255
227 239 255
227 239 255
227 239 255
227 239 255
227 239 255
227 239 255
227 239 255
227 239 255
227 239 255
227 239 255
227 239 255
227 239 255
227 239 255
227 239 255
227 239 255
227 239 255
227 239 255
227 239 255
227 239 255
227 239 255
227 239 255
227 239 255
227 239 255
227 239 255
227 239 255
227 239 255
227 239 255
227 239 255
227 239 255
227 239 255
227 239 255
227 239 255
227 239 255
227 239 255
227 239 255
227 239 255
227 239 255
227 239 255
227 239 255
227 239 255
227 239 255
227 239 255
227 239 255
227 239 255
227 239 255
227 239 255
227 239 255
227 239 255
227 239 255
227 239 255
227 239 255
227 239 255
227 239 255
227 239 255
227 239 255
227 239 255
227 239 255
227 239 255
227 239 255
227 239 255
227 239 255
227 239 255
227 239 255
227 239 255
227 239 255
227 239 255
227 239 255
227 239 255
227 239 255
227 239 255
227 239 255
227 239 255
227 239 255
227 239 255
227 239 255
227 239 255
227 239 255
227 239 255
227 239 255
227 239 255
227 239 255
227 239 255
227 239 255
227 239 255
227 239 255
227 239 255
227 239 255
227 239 255
227 239 255
227 239 255
227 239 255
227 239 255
227 239 255
227 239 255
227 239 255
227 239 255
227 239 255
227 239 255
227 239 255
227 239 255
227 239 255
227 239 255
227 239 255
227 239 255
227 239 255
227 239 255
227 239 255
227 239 255
227 239 255
227 239 255
227 239 255
227 239 255
227 239 255
227 239 255
227 239 255
227 239 255
227 239 255
227 239 255
227 239 255
227 239 255
227 239 255
227 239 255
227 239 255
227 239 255
227 239 255
227 239 255
227 239 255
227 239 255
227 239 255
227 239 255
227 239 255
227 239 255
227 239 255
227 239 255
227 239 255
227 239 255
227 239 255
227 239 255
227 239 255
227 239 255
227 239 255
227 239 255
227 239 255
227 239 255
227 239 255
227 239 255
227 239 255
227 239 255
227 239 255
227 239 255
227 239 255
227 239 255
227 239 255
227 239 255
227 239 255
227 239 255
227 239 255
227 239 255
227 239 255
227 239 255
227 239 255
227 239 255
227 239 255
227 239 255
227 239 255
227 239 255
227 239 255
227 239 255
227 239 255
227 239 255
227 239 255
227 239 255
227 239 255
227 239 255
227 239 255
227 239 255
227 239 255
227 239 255
227 239 255
227 239 255
227 239 255
227 239 255
227 239 255
227 239 255
227 239 255
227 239 255
227 239 255
227 239 255
227 239 255
227 239 255
227 239 255
227 239 255
227 239 255
227 239 255
227 239 255
227 239 255
227 239 255
227 239 255
227 239 255
227 239 255
227 239 255
227 239 255
227 239 255
227 239 255
227 239 255
227 239 255
227 239 255
227 239 255
227 239 255
227 239 255
227 239 255
227 239 255
227 239 255
227 239 255
227 239 255
227 239 255
227 239 255
227 239 255
227 239 255
227 239 255
227 239 255
227 239 255
227 239 255
227 239 255
227 239 255
227 239 255
227 239 255
227 239 255
227 239 255
227 239 255
227 239 255
227 239 255
227 239 255
227 239 255
227 239 255
227 239 255
227 239 255
227 239 255
227 239 255
227 239 255
227 239 255
227 239 255
227 239 255
227 239 255
227 239 255
227 239 255
227 239 255
227 239 255
227 239 255
227 239 255
227 239 255
227 239 255
227 239 255
227 239 255
227 239 255
227 239 255
227 239 255
227 239 255
227 239 255
227 239 255
227 239 255
227 239 255
227 239 255
227 239 255
227 239 255
227 239 255
227 239 255
227 239 255
227 239 255
227 239 255
227 239 255
227 239 255
227 239 255
227 239 255
227 239 255
227 239 255
227 239 255
227 239 255
227 239 255
227 239 255
227 239 255
227 239 255
227 239 255
227 239 255
227 239 255
227 239 255
227 239 255
227 239 255
227 239 255
227 239 255
227 239 255
227 239 255
227 239 255
227 239 255
227 239 255
227 239 255
227 239 255
227 239 255
228 239 255
227 239 255
228 239 255
227 239 255
228 239 255
228 239 255
227 239 255
227 239 255
227 239 255
228 239 255
228 239 255
227 239 255
228 239 255
228 239 255
228 239 255
227 239 255
228 239 255
228 239 255
228 239 255
227 239 255
228 239 255
228 239 255
228 239 255
227 239 255
228 239 255
227 239 255
228 239 255
227 239 255
228 239 255
228 239 255
228 239 255
228 239 255
227 239 255
227 239 255
228 239 255
228 239 255
227 239 255
228 239 255
227 239 255
227 239 255
227 239 255
227 239 255
227 239 255
227 239 255
227 239 255
227 239 255
227 239 255
227 239 255
227 239 255
227 239 255
227 239 255
227 239 255
227 239 255
227 239 255
227 239 255
227 239 255
227 239 255
227 239 255
227 239 255
227 239 255
227 239 255
227 239 255
227 239 255
227 239 255
227 239 255
227 239 255
227 239 255
227 239 255
227 239 255
227 239 255
227 239 255
227 239 255
227 239 255
227 239 255
227 239 255
227 239 255
227 239 255
227 239 255
227 239 255
227 239 255
227 239 255
227 239 255
227 239 255
227 239 255
227 239 255
227 239 255
227 239 255
227 239 255
227 239 255
227 239 255
227 239 255
227 239 255
227 239 255
227 239 255
227 239 255
227 239 255
227 239 255
227 239 255
227 239 255
227 239 255
227 239 255
227 239 255
227 239 255
227 239 255
227 239 255
227 239 255
227 239 255
227 239 255
227 239 255
227 239 255
227 239 255
227 239 255
227 239 255
227 239 255
227 239 255
227 239 255
227 239 255
227 239 255
227 239 255
227 239 255
227 239 255
227 239 255
227 239 255
227 239 255
227 239 255
227 239 255
227 239 255
227 239 255
227 239 255
227 239 255
227 239 255
227 239 255
227 239 255
227 239 255
227 239 255
227 239 255
227 239 255
227 239 255
227 239 255
227 239 255
227 239 255
227 239 255
227 239 255
227 239 255
227 239 255
227 239 255
227 239 255
227 239 255
227 239 255
227 239 255
227 239 255
227 239 255
227 239 255
227 239 255
227 239 255
227 239 255
227 239 255
227 239 255
227 239 255
227 239 255
227 239 255
227 239 255
227 239 255
227 239 255
227 239 255
227 239 255
227 239 255
227 239 255
227 239 255
227 239 255
227 239 255
227 239 255
227 239 255
227 239 255
227 239 255
227 239 255
227 239 255
227 239 255
227 239 255
227 239 255
227 239 255
227 239 255
227 239 255
227 239 255
227 239 255
227 239 255
227 239 255
227 239 255
227 239 255
227 239 255
227 239 255
227 239 255
227 239 255
227 239 255
227 239 255
227 239 255
227 239 255
227 239 255
227 239 255
227 239 255
227 239 255
227 239 255
227 239 255
227 239 255
227 239 255
227 239 255
227 239 255
227 239 255
227 239 255
227 239 255
227 239 255
227 239 255
227 239 255
227 239 255
227 239 255
227 239 255
227 239 255
227 239 255
227 239 255
227 239 255
